Larsvanderlaan/rl-eval-kit/submission_bundles/neurips_bellman/fqe_stationary_weighting/code/FQE_neurips/results/design_search_summary.csv
study_stage,gamma,shift,sample_size,process_noise_sd,behavior_action_sd,feature_regime,seed,estimator,target_q_mse,target_q_mse_se,behavior_q_mse,behavior_q_mse_se,policy_value_estimate,policy_value_true,policy_value_error,policy_value_absolute_error,policy_value_squared_error,initial_v_mse,initial_v_mse_se,behavior_v_mse,behavior_v_mse_se,target_v_mse,target_v_mse_se,behavior_bellman_residual_mse,target_bellman_residual_mse,weight_mean,weight_std,weight_max,weight_q90,weight_q95,weight_q99,effective_sample_size,effective_sample_size_fraction,fraction_clipped,chosen_uniform_mix,clip_level,oracle_log_ratio_rmse,oracle_estimated_weight_corr,oracle_estimated_weight_mae,oracle_estimated_weight_rel_mse,weighted_design_condition_number,unstable_run_flag,unstable_reason,n_seeds,policy_value_bias,policy_value_variance,policy_value_mse,unstable_run_count,unstable_run_fraction
design_search,0.95,0.0,1000,0.05,0.1,misspecified_affine,1.0,estimated_weighted_fqe,2.78471044497482,0.039295881387578245,2.796479818491388,0.04274467978783983,-12.08753699712679,-11.831586406340458,-0.2559505907863316,0.2559505907863316,0.09694129088551834,5.409919792926565,0.15705382805599707,2.6463846773038457,0.04140542892142629,2.64551927883006,0.04347051596858572,0.35136457256013015,0.36353349683056146,1.0,0.15168566356616478,1.89022855213069,1.166881200036191,1.2154565848015004,1.400380675443454,975.7742269201273,0.9757742269201274,0.0,0.0,nan,0.15824282060179037,nan,0.1129810698029358,0.024990840462185346,203.9731937729497,0.0,stable,3,-0.2559505907863316,0.031430585961646156,0.09694129088551834,0,0.0
design_search,0.95,0.0,1000,0.05,0.1,misspecified_affine,1.0,estimated_weighted_fqe_clip95,2.7493644053927384,0.03952849458578801,2.761417646838036,0.04308422970280271,-12.057878670793128,-11.831586406340458,-0.22629226445266978,0.3146523891817683,0.12993034562785458,5.4550750536073025,0.15915758676979877,2.612954640447613,0.041927714737457246,2.611559642438868,0.04384093702528861,0.3555976060800874,0.36729999941484226,1.0,0.1373358076757293,1.222296429793678,1.1734309320351333,1.2222280061562898,1.222296429793678,979.8433564826249,0.9798433564826249,0.05000000000000001,0.0,1.2153732034497977,0.14964376296669527,nan,0.10820579723748634,0.020683830667614898,202.17562202219347,0.0,stable,3,-0.22629226445266978,0.07872215667673754,0.12993034562785458,0,0.0
design_search,0.95,0.0,1000,0.05,0.1,misspecified_affine,1.0,estimated_weighted_fqe_clip99_ess40,2.7966722839398503,0.03973566866735024,2.80936955678289,0.043261973174975356,-12.04374253070012,-11.831586406340458,-0.21215612435966058,0.2823184069598188,0.10299938101478658,5.426829407592051,0.1595005747350594,2.6599284325827104,0.04211149661813282,2.659420421637652,0.044084717778332616,0.35389700107711214,0.3658166396777272,1.0,0.14555330223820026,1.4025933858736817,1.168682022972442,1.217343217077696,1.4024982114496882,977.6931472452201,0.97769314724522,0.01,0.0,1.4002853038828145,0.155418424034539,nan,0.11166983249900701,0.02294278686418615,203.21089141559096,0.0,stable,3,-0.21215612435966058,0.057989159911474825,0.10299938101478658,0,0.0
design_search,0.95,0.0,1000,0.05,0.1,misspecified_affine,1.0,estimated_weighted_fqe_clipped,2.7966722839398503,0.03973566866735024,2.80936955678289,0.043261973174975356,-12.04374253070012,-11.831586406340458,-0.21215612435966058,0.2823184069598188,0.10299938101478658,5.426829407592051,0.1595005747350594,2.6599284325827104,0.04211149661813282,2.659420421637652,0.044084717778332616,0.35389700107711214,0.3658166396777272,1.0,0.14555330223820026,1.4025933858736817,1.168682022972442,1.217343217077696,1.4024982114496882,977.6931472452201,0.97769314724522,0.01,0.0,1.4002853038828145,0.155418424034539,nan,0.11166983249900701,0.02294278686418615,203.21089141559096,0.0,stable,3,-0.21215612435966058,0.057989159911474825,0.10299938101478658,0,0.0
design_search,0.95,0.0,1000,0.05,0.1,misspecified_affine,1.0,oracle_weighted_fqe,2.2082395830331936,0.03423184353225694,2.1983616720259356,0.037149344643664595,-12.67464499408787,-11.831586406340458,-0.8430585877474132,0.8430585877474132,0.8246164709438837,5.948028838012419,0.13394407512493287,2.071301157400908,0.03599452952085376,2.0543983897208515,0.03731697075795751,0.36739630612639823,0.3767495302941169,1.0,0.0,1.0,1.0,1.0,1.0,1000.0,1.0,0.0,0.0,nan,0.0,1.0,0.0,0.0,197.87895688954154,0.0,stable,3,-0.8430585877474132,0.11386868856922096,0.8246164709438837,0,0.0
design_search,0.95,0.0,1000,0.05,0.1,misspecified_affine,1.0,oracle_weighted_fqe_clipped,2.2082395830331936,0.03423184353225694,2.1983616720259356,0.037149344643664595,-12.67464499408787,-11.831586406340458,-0.8430585877474132,0.8430585877474132,0.8246164709438837,5.948028838012419,0.13394407512493287,2.071301157400908,0.03599452952085376,2.0543983897208515,0.03731697075795751,0.36739630612639823,0.3767495302941169,1.0,0.0,1.0,1.0,1.0,1.0,1000.0,1.0,0.0,0.0,1.0,0.0,1.0,0.0,0.0,197.87895688954154,0.0,stable,3,-0.8430585877474132,0.11386868856922096,0.8246164709438837,0,0.0
design_search,0.95,0.0,1000,0.05,0.1,misspecified_affine,1.0,standard_fqe,2.2082395830331936,0.03423184353225694,2.1983616720259356,0.037149344643664595,-12.67464499408787,-11.831586406340458,-0.8430585877474132,0.8430585877474132,0.8246164709438837,5.948028838012419,0.13394407512493287,2.071301157400908,0.03599452952085376,2.0543983897208515,0.03731697075795751,0.36739630612639823,0.3767495302941169,1.0,0.0,1.0,1.0,1.0,1.0,1000.0,1.0,0.0,0.0,nan,0.0,1.0,0.0,0.0,197.87895688954154,0.0,stable,3,-0.8430585877474132,0.11386868856922096,0.8246164709438837,0,0.0
design_search,0.95,0.0,1000,0.05,0.1,well_specified,1.0,estimated_weighted_fqe,0.010427001183885827,0.0001014318938878346,0.01071370267730701,0.00012058192926851193,-11.752579098846681,-11.831586406340458,0.07900730749377753,0.09498479184165613,0.011710174675532587,0.02181516611329935,0.00041945521147600864,0.010426351313692371,0.0001056971244462875,0.010419003052965873,0.0001051282453081322,0.0005503652876983717,0.0005370184305043612,1.0,0.15168566356616478,1.89022855213069,1.166881200036191,1.2154565848015004,1.400380675443454,975.7742269201273,0.9757742269201274,0.0,0.0,nan,0.15824282060179037,nan,0.1129810698029358,0.024990840462185346,3974.4649574038344,0.0,stable,3,0.07900730749377753,0.005468020038116274,0.011710174675532587,0,0.0
design_search,0.95,0.0,1000,0.05,0.1,well_specified,1.0,estimated_weighted_fqe_clip95,0.010261809801166892,0.00010024228886844448,0.010559103882628118,0.00011969910587511517,-11.749503658732522,-11.831586406340458,0.08208274760793503,0.09716646840689513,0.012459267003909051,0.02153015662777756,0.0004143434932595185,0.010272703190915777,0.00010479950422791673,0.010253559248204622,0.00010285749842283834,0.0005137733282847126,0.0004798174071229844,1.0,0.1373358076757293,1.222296429793678,1.1734309320351333,1.2222280061562898,1.222296429793678,979.8433564826249,0.9798433564826249,0.05000000000000001,0.0,1.2153732034497977,0.14964376296669527,nan,0.10820579723748634,0.020683830667614898,3675.624101517619,0.0,stable,3,0.08208274760793503,0.005721689549041089,0.012459267003909051,0,0.0
design_search,0.95,0.0,1000,0.05,0.1,well_specified,1.0,estimated_weighted_fqe_clip99_ess40,0.010387429216865245,0.00010164709787195182,0.010690814434822615,0.00012154304775549564,-11.75033390721029,-11.831586406340458,0.08125249913016634,0.09681211276248132,0.012300934966677618,0.021677830071143437,0.0004216522132861164,0.010398036817387985,0.0001064737487797038,0.010381899961241328,0.00010461759626099684,0.0005289152403724469,0.0004964221434139455,1.0,0.14555330223820026,1.4025933858736817,1.168682022972442,1.217343217077696,1.4024982114496882,977.6931472452201,0.97769314724522,0.01,0.0,1.4002853038828145,0.155418424034539,nan,0.11166983249900701,0.02294278686418615,3805.554159988657,0.0,stable,3,0.08125249913016634,0.005698966351779937,0.012300934966677618,0,0.0
design_search,0.95,0.0,1000,0.05,0.1,well_specified,1.0,estimated_weighted_fqe_clipped,0.010387429216865245,0.00010164709787195182,0.010690814434822615,0.00012154304775549564,-11.75033390721029,-11.831586406340458,0.08125249913016634,0.09681211276248132,0.012300934966677618,0.021677830071143437,0.0004216522132861164,0.010398036817387985,0.0001064737487797038,0.010381899961241328,0.00010461759626099684,0.0005289152403724469,0.0004964221434139455,1.0,0.14555330223820026,1.4025933858736817,1.168682022972442,1.217343217077696,1.4024982114496882,977.6931472452201,0.97769314724522,0.01,0.0,1.4002853038828145,0.155418424034539,nan,0.11166983249900701,0.02294278686418615,3805.554159988657,0.0,stable,3,0.08125249913016634,0.005698966351779937,0.012300934966677618,0,0.0
design_search,0.95,0.0,1000,0.05,0.1,well_specified,1.0,oracle_weighted_fqe,0.00919062806353217,0.000104141969461408,0.009459089450792922,0.0001233770340402162,-11.74497434569573,-11.831586406340458,0.08661206064472715,0.10568274877064059,0.014635051754586704,0.023556027793911017,0.000425618281687071,0.00925603422260881,0.00011266962912556753,0.009187632180859617,0.00010980224372811327,0.0005115140343632754,0.0004714738667559568,1.0,0.0,1.0,1.0,1.0,1.0,1000.0,1.0,0.0,0.0,nan,0.0,1.0,0.0,0.0,4016.756178203648,0.0,stable,3,0.08661206064472715,0.007133402705460809,0.014635051754586704,0,0.0
design_search,0.95,0.0,1000,0.05,0.1,well_specified,1.0,oracle_weighted_fqe_clipped,0.00919062806353217,0.000104141969461408,0.009459089450792922,0.0001233770340402162,-11.74497434569573,-11.831586406340458,0.08661206064472715,0.10568274877064059,0.014635051754586704,0.023556027793911017,0.000425618281687071,0.00925603422260881,0.00011266962912556753,0.009187632180859617,0.00010980224372811327,0.0005115140343632754,0.0004714738667559568,1.0,0.0,1.0,1.0,1.0,1.0,1000.0,1.0,0.0,0.0,1.0,0.0,1.0,0.0,0.0,4016.756178203648,0.0,stable,3,0.08661206064472715,0.007133402705460809,0.014635051754586704,0,0.0
design_search,0.95,0.0,1000,0.05,0.1,well_specified,1.0,standard_fqe,0.00919062806353217,0.000104141969461408,0.009459089450792922,0.0001233770340402162,-11.74497434569573,-11.831586406340458,0.08661206064472715,0.10568274877064059,0.014635051754586704,0.023556027793911017,0.000425618281687071,0.00925603422260881,0.00011266962912556753,0.009187632180859617,0.00010980224372811327,0.0005115140343632754,0.0004714738667559568,1.0,0.0,1.0,1.0,1.0,1.0,1000.0,1.0,0.0,0.0,nan,0.0,1.0,0.0,0.0,4016.756178203648,0.0,stable,3,0.08661206064472715,0.007133402705460809,0.014635051754586704,0,0.0
design_search,0.95,0.0,4000,0.05,0.1,misspecified_affine,1.0,estimated_weighted_fqe,3.236702598470419,0.04098552725644254,3.246061462148243,0.04310742477615361,-12.193721407747878,-11.831586406340458,-0.36213500140741967,0.36213500140741967,0.13718427245491557,5.104507523717403,0.14630456332575212,3.0972629350619,0.04249601346453663,3.099539482261033,0.04429345819842454,0.3489689356108567,0.3637347044563452,1.0,0.06418936749278593,1.3824918059553293,1.0526284972641589,1.0883820659252794,1.1837054334394403,3983.2889702565203,0.9958222425641301,0.0,0.0,nan,0.06489155955096117,nan,0.045598395948453434,0.004196462493308448,208.33937123664626,0.0,stable,3,-0.36213500140741967,0.006042513210563705,0.13718427245491557,0,0.0
design_search,0.95,0.0,4000,0.05,0.1,misspecified_affine,1.0,estimated_weighted_fqe_clip95,3.158648464230031,0.04076023169457032,3.1678514016191683,0.04307642031902292,-12.16407418021367,-11.831586406340458,-0.33248777387321243,0.33248777387321243,0.12206033803782762,5.151362534050312,0.1486826429329171,3.020171626093854,0.042333223703865164,3.02118258513882,0.0441512359501639,0.3492968376396803,0.3638731187074775,1.0,0.056323039345176414,1.0917900957257347,1.0559134431165942,1.0917615254969404,1.0917900957257347,3986.934299719735,0.9967335749299338,0.05000000000000001,0.0,1.0883726261466815,0.05857041346987169,nan,0.043030762348632894,0.003278584798623877,207.0988895860703,0.0,stable,3,-0.33248777387321243,0.011512218262663161,0.12206033803782762,0,0.0
design_search,0.95,0.0,4000,0.05,0.1,misspecified_affine,1.0,estimated_weighted_fqe_clip99_ess40,3.2090187552186875,0.040888359359822546,3.218208615893331,0.0430966037325226,-12.184265876712715,-11.831586406340458,-0.3526794703722575,0.3526794703722575,0.1320247238525222,5.120379066735398,0.14707948871017182,3.0699051887675908,0.04243504873914981,3.071633164440525,0.04423755593153184,0.349066347665705,0.363748200455138,1.0,0.062431465929383874,1.1842121489890929,1.053069040758044,1.0888393435560502,1.1842051727175777,3984.181754068206,0.9960454385170515,0.01,0.0,1.1836950403053494,0.06366726654404135,nan,0.04523186863302139,0.003971398138431674,208.13021236338682,0.0,stable,3,-0.3526794703722575,0.007641915030466157,0.1320247238525222,0,0.0
design_search,0.95,0.0,4000,0.05,0.1,misspecified_affine,1.0,estimated_weighted_fqe_clipped,3.2090187552186875,0.040888359359822546,3.218208615893331,0.0430966037325226,-12.184265876712715,-11.831586406340458,-0.3526794703722575,0.3526794703722575,0.1320247238525222,5.120379066735398,0.14707948871017182,3.0699051887675908,0.04243504873914981,3.071633164440525,0.04423755593153184,0.349066347665705,0.363748200455138,1.0,0.062431465929383874,1.1842121489890929,1.053069040758044,1.0888393435560502,1.1842051727175777,3984.181754068206,0.9960454385170515,0.01,0.0,1.1836950403053494,0.06366726654404135,nan,0.04523186863302139,0.003971398138431674,208.13021236338682,0.0,stable,3,-0.3526794703722575,0.007641915030466157,0.1320247238525222,0,0.0
design_search,0.95,0.0,4000,0.05,0.1,misspecified_affine,1.0,oracle_weighted_fqe,3.493749860829841,0.04338544459915109,3.50470287973993,0.045659250834653414,-12.024361901843278,-11.831586406340458,-0.19277549550282144,0.19277549550282144,0.04287721951039144,5.113942706972322,0.15434492990204063,3.3516659665090347,0.04512229659323397,3.3516073570746108,0.04680262155723414,0.3494536743038929,0.36346644029980846,1.0,0.0,1.0,1.0,1.0,1.0,4000.0,1.0,0.0,0.0,nan,0.0,1.0,0.0,0.0,205.8781006191622,0.0,stable,3,-0.19277549550282144,0.005714827844033107,0.04287721951039144,0,0.0
design_search,0.95,0.0,4000,0.05,0.1,misspecified_affine,1.0,oracle_weighted_fqe_clipped,3.493749860829841,0.04338544459915109,3.50470287973993,0.045659250834653414,-12.024361901843278,-11.831586406340458,-0.19277549550282144,0.19277549550282144,0.04287721951039144,5.113942706972322,0.15434492990204063,3.3516659665090347,0.04512229659323397,3.3516073570746108,0.04680262155723414,0.3494536743038929,0.36346644029980846,1.0,0.0,1.0,1.0,1.0,1.0,4000.0,1.0,0.0,0.0,1.0,0.0,1.0,0.0,0.0,205.8781006191622,0.0,stable,3,-0.19277549550282144,0.005714827844033107,0.04287721951039144,0,0.0
design_search,0.95,0.0,4000,0.05,0.1,misspecified_affine,1.0,standard_fqe,3.493749860829841,0.04338544459915109,3.50470287973993,0.045659250834653414,-12.024361901843278,-11.831586406340458,-0.19277549550282144,0.19277549550282144,0.04287721951039144,5.113942706972322,0.15434492990204063,3.3516659665090347,0.04512229659323397,3.3516073570746108,0.04680262155723414,0.3494536743038929,0.36346644029980846,1.0,0.0,1.0,1.0,1.0,1.0,4000.0,1.0,0.0,0.0,nan,0.0,1.0,0.0,0.0,205.8781006191622,0.0,stable,3,-0.19277549550282144,0.005714827844033107,0.04287721951039144,0,0.0
design_search,0.95,0.0,4000,0.05,0.1,well_specified,1.0,estimated_weighted_fqe,0.007522462377811405,3.527931206393885e-05,0.007596775517017429,3.797411026170709e-05,-11.756348864445625,-11.831586406340458,0.07523754189483374,0.07523754189483374,0.00594960293676795,0.007861368403198957,0.00010824297714373113,0.007505604482706115,3.7776741574397286e-05,0.007517960873686155,3.649667360856757e-05,0.00017047369348122563,0.0001715854089757767,1.0,0.06418936749278593,1.3824918059553293,1.0526284972641589,1.0883820659252794,1.1837054334394403,3983.2889702565203,0.9958222425641301,0.0,0.0,nan,0.06489155955096117,nan,0.045598395948453434,0.004196462493308448,4022.3036403882675,0.0,stable,3,0.07523754189483374,0.0002889152263910872,0.00594960293676795,0,0.0
design_search,0.95,0.0,4000,0.05,0.1,well_specified,1.0,estimated_weighted_fqe_clip95,0.007465187302292959,3.426547855346246e-05,0.007532207450396798,3.6812614038721825e-05,-11.756052256903152,-11.831586406340458,0.0755341494373063,0.0755341494373063,0.006007483988787944,0.007843655080384551,0.00010467252429348221,0.007445027738402142,3.651625116080913e-05,0.007455084703603028,3.5285339176305455e-05,0.00016886478124394154,0.00017044659618125477,1.0,0.056323039345176414,1.0917900957257347,1.0559134431165942,1.0917615254969404,1.0917900957257347,3986.934299719735,0.9967335749299338,0.05000000000000001,0.0,1.0883726261466815,0.05857041346987169,nan,0.043030762348632894,0.003278584798623877,3939.0357881046107,0.0,stable,3,0.0755341494373063,0.0003020762575706237,0.006007483988787944,0,0.0
design_search,0.95,0.0,4000,0.05,0.1,well_specified,1.0,estimated_weighted_fqe_clip99_ess40,0.007503639477671328,3.4992511205657876e-05,0.00757556971243778,3.7651442943494616e-05,-11.756263783340486,-11.831586406340458,0.0753226229999715,0.0753226229999715,0.005964344540694107,0.007849637165715151,0.00010733625349352339,0.00748626328337332,3.744101985891183e-05,0.007497810161183703,3.617763746328417e-05,0.00017011684672414265,0.0001711377047621973,1.0,0.062431465929383874,1.1842121489890929,1.053069040758044,1.0888393435560502,1.1842051727175777,3984.181754068206,0.9960454385170515,0.01,0.0,1.1836950403053494,0.06366726654404135,nan,0.04523186863302139,0.003971398138431674,4002.9277948358026,0.0,stable,3,0.0753226229999715,0.0002908470050982704,0.005964344540694107,0,0.0
design_search,0.95,0.0,4000,0.05,0.1,well_specified,1.0,estimated_weighted_fqe_clipped,0.007503639477671328,3.4992511205657876e-05,0.00757556971243778,3.7651442943494616e-05,-11.756263783340486,-11.831586406340458,0.0753226229999715,0.0753226229999715,0.005964344540694107,0.007849637165715151,0.00010733625349352339,0.00748626328337332,3.744101985891183e-05,0.007497810161183703,3.617763746328417e-05,0.00017011684672414265,0.0001711377047621973,1.0,0.062431465929383874,1.1842121489890929,1.053069040758044,1.0888393435560502,1.1842051727175777,3984.181754068206,0.9960454385170515,0.01,0.0,1.1836950403053494,0.06366726654404135,nan,0.04523186863302139,0.003971398138431674,4002.9277948358026,0.0,stable,3,0.0753226229999715,0.0002908470050982704,0.005964344540694107,0,0.0
design_search,0.95,0.0,4000,0.05,0.1,well_specified,1.0,oracle_weighted_fqe,0.007357368223064135,3.3422457310453814e-05,0.007420626822206202,3.598231085349785e-05,-11.754656083492575,-11.831586406340458,0.07693032284788319,0.07693032284788319,0.006239986031351837,0.008061253814991969,0.00010474013480295042,0.00734396353034527,3.585595300561219e-05,0.007350914570394266,3.454014456997758e-05,0.00017389474526803366,0.0001748487945025819,1.0,0.0,1.0,1.0,1.0,1.0,4000.0,1.0,0.0,0.0,nan,0.0,1.0,0.0,0.0,4000.452327008494,0.0,stable,3,0.07693032284788319,0.0003217114578722999,0.006239986031351837,0,0.0
design_search,0.95,0.0,4000,0.05,0.1,well_specified,1.0,oracle_weighted_fqe_clipped,0.007357368223064135,3.3422457310453814e-05,0.007420626822206202,3.598231085349785e-05,-11.754656083492575,-11.831586406340458,0.07693032284788319,0.07693032284788319,0.006239986031351837,0.008061253814991969,0.00010474013480295042,0.00734396353034527,3.585595300561219e-05,0.007350914570394266,3.454014456997758e-05,0.00017389474526803366,0.0001748487945025819,1.0,0.0,1.0,1.0,1.0,1.0,4000.0,1.0,0.0,0.0,1.0,0.0,1.0,0.0,0.0,4000.452327008494,0.0,stable,3,0.07693032284788319,0.0003217114578722999,0.006239986031351837,0,0.0
design_search,0.95,0.0,4000,0.05,0.1,well_specified,1.0,standard_fqe,0.007357368223064135,3.3422457310453814e-05,0.007420626822206202,3.598231085349785e-05,-11.754656083492575,-11.831586406340458,0.07693032284788319,0.07693032284788319,0.006239986031351837,0.008061253814991969,0.00010474013480295042,0.00734396353034527,3.585595300561219e-05,0.007350914570394266,3.454014456997758e-05,0.00017389474526803366,0.0001748487945025819,1.0,0.0,1.0,1.0,1.0,1.0,4000.0,1.0,0.0,0.0,nan,0.0,1.0,0.0,0.0,4000.452327008494,0.0,stable,3,0.07693032284788319,0.0003217114578722999,0.006239986031351837,0,0.0
design_search,0.95,0.5,1000,0.05,0.1,misspecified_affine,1.0,estimated_weighted_fqe,2.7382887920287353,0.13543152147869267,4.092219039410884,0.13695973077954893,-8.627960020877142,-11.831586406340458,3.203626385463315,3.203626385463315,14.07919360909218,27.90222503102176,0.5965981423677352,2.7051593572278514,0.1571835567113795,2.599644876394581,0.15624127793740283,1.27668893701686,0.9361865472357082,1.0,0.9016285392063085,8.833617675421271,2.1571587336007827,2.3620423673864828,2.725159850348945,551.7706037359113,0.5517706037359114,0.0,0.0,nan,6.998517840137769,0.2978080972615012,0.9807091144630385,0.7216729080280534,161.1529707352474,0.0,stable,3,3.203626385463315,3.815971591455435,14.07919360909218,0,0.0
design_search,0.95,0.5,1000,0.05,0.1,misspecified_affine,1.0,estimated_weighted_fqe_clip95,2.9147620884564662,0.15613458476572042,4.423933490334536,0.16710861237683586,-8.199036879054395,-11.831586406340458,3.632549527286064,3.632549527286064,21.84370945698036,36.28474752158555,0.681437868724983,3.642539709218438,0.1949763280115542,2.845849327429414,0.18344771580424615,1.0020112588165215,1.0318758154040524,1.0,0.8493267642250855,2.4094843940361863,2.1998025556821186,2.40940426150163,2.4094843940361863,581.6801320611066,0.5816801320611066,0.05000000000000001,0.0,2.679927903718631,6.996913922119899,0.3068969044356937,0.9726923026852544,0.7124375052697308,166.27006782636047,0.0,stable,3,3.632549527286064,8.648293388794157,21.84370945698036,0,0.0
design_search,0.95,0.5,1000,0.05,0.1,misspecified_affine,1.0,estimated_weighted_fqe_clip99_ess40,2.7027628510967383,0.14597617218711845,4.363532111146848,0.15831737908145405,-8.410572598882373,-11.831586406340458,3.421013807458085,3.421013807458085,19.009360823283966,33.02330574544995,0.6451993805667607,3.367881330827558,0.18081142232385897,2.6123421942852887,0.17074871350957985,1.0189045499351177,1.0039986887350472,1.0,0.8610375794851922,2.7514388670326064,2.177740439925181,2.38464994530463,2.7504772402923976,574.976254563573,0.5749762545635728,0.01,0.0,3.099104969839549,6.996420913038357,0.3036793659430829,0.9776980745351831,0.7154095504475899,164.436196735555,0.0,stable,3,3.421013807458085,7.3060253524651015,19.009360823283966,0,0.0
design_search,0.95,0.5,1000,0.05,0.1,misspecified_affine,1.0,estimated_weighted_fqe_clipped,2.7027628510967383,0.14597617218711845,4.363532111146848,0.15831737908145405,-8.410572598882373,-11.831586406340458,3.421013807458085,3.421013807458085,19.009360823283966,33.02330574544995,0.6451993805667607,3.367881330827558,0.18081142232385897,2.6123421942852887,0.17074871350957985,1.0189045499351177,1.0039986887350472,1.0,0.8610375794851922,2.7514388670326064,2.177740439925181,2.38464994530463,2.7504772402923976,574.976254563573,0.5749762545635728,0.01,0.0,3.099104969839549,6.996420913038357,0.3036793659430829,0.9776980745351831,0.7154095504475899,164.436196735555,0.0,stable,3,3.421013807458085,7.3060253524651015,19.009360823283966,0,0.0
design_search,0.95,0.5,1000,0.05,0.1,misspecified_affine,1.0,oracle_weighted_fqe,6.023812939689269,0.42015747559919664,12.158736457585219,0.6550881253951015,-2.881340721996629,-11.831586406340458,8.950245684343829,8.950245684343829,80.72441297049649,108.58980255212062,1.625524656843207,8.638580788301551,0.5088189958474295,5.826190657023342,0.4740170236769406,3.7183569480545433,3.582860527331347,1.0,9.490240631528176,286.5666353260103,1.650588170604302,2.1051162895449904,3.8635984209343217,183.66355885312308,0.1836635588531231,0.0,0.0,nan,0.0,1.0,0.0,0.0,360.328050716482,0.3333333333333333,overlap_collapse,3,8.950245684343829,0.6175151603811448,80.72441297049649,1,0.3333333333333333
design_search,0.95,0.5,1000,0.05,0.1,misspecified_affine,1.0,oracle_weighted_fqe_clipped,6.819046120399563,0.4576357501379822,13.644029386613033,0.712648984932302,-2.28446095515971,-11.831586406340458,9.547125451180747,9.547125451180747,91.37411015974912,120.77227835297437,1.7512269605036932,9.83032987085783,0.5593998797804897,6.65892440745959,0.5204653268690751,3.9545227985653972,3.73350219243289,1.0000000000000002,1.2135729136397415,6.052032966605061,2.400550846728783,3.0999603890501573,6.049465627656265,404.81848605961596,0.40481848605961596,0.01,0.0,4.024519175511302,0.655962448551712,0.5903580002547483,0.607305926468317,0.5121118892549498,205.12732407827698,0.6666666666666666,metric_instability_unclassified,3,9.547125451180747,0.22650577916592754,91.37411015974912,2,0.6666666666666666
design_search,0.95,0.5,1000,0.05,0.1,misspecified_affine,1.0,standard_fqe,36.7242461870209,0.20703576667317689,28.99447932391534,0.24066349139353668,-4.5538994854977615,-11.831586406340458,7.277686920842697,7.277686920842697,55.32367995528134,65.04518755333065,0.7881605417975784,32.640245678870414,0.259978812867492,36.534466301257424,0.2302973154736565,0.6617800310670959,0.7792223731767988,1.0,0.0,1.0,1.0,1.0,1.0,1000.0,1.0,0.0,0.0,nan,9.473476801247914,nan,1.213855238269016,0.816336441146877,209.73425905909335,0.0,stable,3,7.277686920842697,2.3589530374764984,55.32367995528134,0,0.0
design_search,0.95,0.5,1000,0.05,0.1,well_specified,1.0,estimated_weighted_fqe,0.016393996470606607,0.0004620638132546778,0.008221365176761931,0.0001228829201920979,-11.799423106108021,-11.831586406340458,0.03216330023243863,0.10190739235806312,0.01668423258270278,0.08073016083573097,0.0015943024874305871,0.01240867306010108,0.0004221098920994027,0.016642376786355693,0.000546535156282571,0.001627716108095898,0.007626710928510541,1.0,0.9016285392063085,8.833617675421271,2.1571587336007827,2.3620423673864828,2.725159850348945,551.7706037359113,0.5517706037359114,0.0,0.0,nan,6.998517840137769,0.2978080972615012,0.9807091144630385,0.7216729080280534,2485.366291555751,0.0,stable,3,0.03216330023243863,0.01564975470086079,0.01668423258270278,0,0.0
design_search,0.95,0.5,1000,0.05,0.1,well_specified,1.0,estimated_weighted_fqe_clip95,0.0159865355372614,0.0004385927120548355,0.008884356757866854,0.00015998945175902578,-11.789002490318149,-11.831586406340458,0.042583916022308564,0.12019064560802484,0.02369968268813348,0.08075230842137439,0.0015521330027780552,0.012772929185784238,0.0004369742282152671,0.016276315576422843,0.0005332328215329605,0.001735873620115495,0.00810754034375142,1.0,0.8493267642250855,2.4094843940361863,2.1998025556821186,2.40940426150163,2.4094843940361863,581.6801320611066,0.5816801320611066,0.05000000000000001,0.0,2.679927903718631,6.996913922119899,0.3068969044356937,0.9726923026852544,0.7124375052697308,1480.450455749122,0.0,stable,3,0.042583916022308564,0.021886292784338453,0.02369968268813348,0,0.0
design_search,0.95,0.5,1000,0.05,0.1,well_specified,1.0,estimated_weighted_fqe_clip99_ess40,0.01622339555219876,0.000457111269461768,0.008558959334573117,0.0001420410754953633,-11.778135875008076,-11.831586406340458,0.0534505313323829,0.12283771137109412,0.021289829674724422,0.08314977246550871,0.0016076778057461702,0.012776335458758272,0.00044499836040591865,0.016382224918036595,0.0005391828361236544,0.0017316749917922782,0.008639018163431083,1.0,0.8610375794851922,2.7514388670326064,2.177740439925181,2.38464994530463,2.7504772402923976,574.976254563573,0.5749762545635728,0.01,0.0,3.099104969839549,6.996420913038357,0.3036793659430829,0.9776980745351831,0.7154095504475899,1516.4346598409848,0.0,stable,3,0.0534505313323829,0.01843287037501037,0.021289829674724422,0,0.0
design_search,0.95,0.5,1000,0.05,0.1,well_specified,1.0,estimated_weighted_fqe_clipped,0.01622339555219876,0.000457111269461768,0.008558959334573117,0.0001420410754953633,-11.778135875008076,-11.831586406340458,0.0534505313323829,0.12283771137109412,0.021289829674724422,0.08314977246550871,0.0016076778057461702,0.012776335458758272,0.00044499836040591865,0.016382224918036595,0.0005391828361236544,0.0017316749917922782,0.008639018163431083,1.0,0.8610375794851922,2.7514388670326064,2.177740439925181,2.38464994530463,2.7504772402923976,574.976254563573,0.5749762545635728,0.01,0.0,3.099104969839549,6.996420913038357,0.3036793659430829,0.9776980745351831,0.7154095504475899,1516.4346598409848,0.0,stable,3,0.0534505313323829,0.01843287037501037,0.021289829674724422,0,0.0
design_search,0.95,0.5,1000,0.05,0.1,well_specified,1.0,oracle_weighted_fqe,0.2942871355594907,0.016879078924697626,0.3543268372385518,0.018343244437708937,-13.45222361186954,-11.831586406340458,-1.620637205529082,1.620637205529082,3.567706746688384,4.699794873516041,0.06745026835490053,0.39846231280210986,0.021697264894338885,0.30542744637979924,0.02105530071814865,0.06311489361628474,0.11326210125212634,1.0,9.490240631528176,286.5666353260103,1.650588170604302,2.1051162895449904,3.8635984209343217,183.66355885312308,0.1836635588531231,0.0,0.0,nan,0.0,1.0,0.0,0.0,1090.752692525032,0.6666666666666666,finite_sample_variance_or_clipping;overlap_collapse;finite_sample_variance_or_clipping,3,-1.620637205529082,0.941241794743272,3.567706746688384,2,0.6666666666666666
design_search,0.95,0.5,1000,0.05,0.1,well_specified,1.0,oracle_weighted_fqe_clipped,0.2061724932127509,0.00993641687257377,0.21983361829434792,0.01114173210706478,-13.060542888045497,-11.831586406340458,-1.228956481705038,1.228956481705038,2.043176581552227,2.706288846477871,0.03974660129486309,0.23028429393776162,0.01218472034074694,0.21967128812464976,0.012327695967665628,0.044017519817778315,0.0398954328115458,1.0000000000000002,1.2135729136397415,6.052032966605061,2.400550846728783,3.0999603890501573,6.049465627656265,404.81848605961596,0.40481848605961596,0.01,0.0,4.024519175511302,0.655962448551712,0.5903580002547483,0.607305926468317,0.5121118892549498,986.4544298547418,0.3333333333333333,metric_instability_unclassified,3,-1.228956481705038,0.5328425476274017,2.043176581552227,1,0.3333333333333333
design_search,0.95,0.5,1000,0.05,0.1,well_specified,1.0,standard_fqe,0.08546305731748842,0.0042110091950628105,0.04004686162107743,0.001778475619576395,-11.83951165051227,-11.831586406340458,-0.007925244171809473,0.7547094270095714,0.6615540232822928,1.0556951054033208,0.017334351217344866,0.09621847564047108,0.005029567244098543,0.08841191001252109,0.004850296619132801,0.0010439922966451927,0.020313587339869647,1.0,0.0,1.0,1.0,1.0,1.0,1000.0,1.0,0.0,0.0,nan,9.473476801247914,nan,1.213855238269016,0.816336441146877,4054.4803475452445,0.0,stable,3,-0.007925244171809473,0.66149121378711,0.6615540232822928,0,0.0
design_search,0.95,0.5,4000,0.05,0.1,misspecified_affine,1.0,estimated_weighted_fqe,2.5035654789282265,0.09348221730204755,3.268420818779489,0.0784562359076754,-9.053757516731196,-11.831586406340458,2.7778288896092618,2.7778288896092618,7.7991761926771135,18.041097038341885,0.45296787293888313,2.2559289942467573,0.10819181403186047,2.401504837029805,0.1104605215534548,1.0902866180418809,0.5647126558605737,1.0,0.853905506495714,13.128939304550615,1.9857956957910015,2.1524987955821397,2.4737527280824723,2313.900152483668,0.578475038120917,0.0,0.0,nan,5.435313683341231,0.27685679429883914,0.579158402650736,0.7982036919654409,150.65383245645754,0.0,stable,3,2.7778288896092618,0.08284285272929016,7.7991761926771135,0,0.0
design_search,0.95,0.5,4000,0.05,0.1,misspecified_affine,1.0,estimated_weighted_fqe_clip95,2.593056616342718,0.12884764643912514,2.6561739781025913,0.11969218905870393,-8.006407000610153,-11.831586406340458,3.8251794057303043,3.8251794057303043,14.970443560702696,27.244237210289725,0.595211456398376,2.559444518107799,0.15225765364052088,2.5294878926017854,0.15180323747957902,0.7734371852069409,0.7993883151091238,1.0,0.7787995349707176,2.202298324068474,2.0317487411569917,2.202251992829604,2.202298324068474,2490.208074465519,0.6225520186163798,0.05000000000000001,0.0,2.4403249648501353,5.426474790737925,0.3193723075639392,0.5611920423306157,0.7725528015032195,154.0834464670747,0.0,stable,3,3.8251794057303043,0.3384460746794529,14.970443560702696,0,0.0
design_search,0.95,0.5,4000,0.05,0.1,misspecified_affine,1.0,estimated_weighted_fqe_clip99_ess40,2.408616213920206,0.12042033604797875,2.679604863098158,0.11091444000712629,-8.264726652383336,-11.831586406340458,3.566859753957121,3.566859753957121,13.02735983103837,24.89320957941965,0.5624776551706104,2.3965361186565324,0.14167968128672936,2.342158761397462,0.14203449983137464,0.793936705924736,0.7565188388218221,1.0,0.7858189476882339,2.5112017187852818,2.015864491676862,2.185090756475061,2.5110726909032444,2473.299921832526,0.6183249804581314,0.01,0.0,2.8048491620738516,5.427751407166369,0.31261738844753506,0.5668644527830252,0.7762184916317256,152.32590823993147,0.0,stable,3,3.566859753957121,0.30487132663931615,13.02735983103837,0,0.0
design_search,0.95,0.5,4000,0.05,0.1,misspecified_affine,1.0,estimated_weighted_fqe_clipped,2.408616213920206,0.12042033604797875,2.679604863098158,0.11091444000712629,-8.264726652383336,-11.831586406340458,3.566859753957121,3.566859753957121,13.02735983103837,24.89320957941965,0.5624776551706104,2.3965361186565324,0.14167968128672936,2.342158761397462,0.14203449983137464,0.793936705924736,0.7565188388218221,1.0,0.7858189476882339,2.5112017187852818,2.015864491676862,2.185090756475061,2.5110726909032444,2473.299921832526,0.6183249804581314,0.01,0.0,2.8048491620738516,5.427751407166369,0.31261738844753506,0.5668644527830252,0.7762184916317256,152.32590823993147,0.0,stable,3,3.566859753957121,0.30487132663931615,13.02735983103837,0,0.0
design_search,0.95,0.5,4000,0.05,0.1,misspecified_affine,1.0,oracle_weighted_fqe,6.968306105165678,0.4610209772453202,13.729807445628964,0.7121942655864789,-2.2139623041512615,-11.831586406340458,9.617624102189195,9.617624102189195,92.71313370132629,122.11764566841389,1.7604706975753681,9.916830535334102,0.562166776108933,6.795274315930864,0.524988857240348,3.9094936352519656,3.69581110620676,1.0,2.569477800639339,114.98873159044642,2.2003299085595454,2.7661879622494836,5.755105760178243,552.8942147729264,0.1382235536932316,0.0,0.0,nan,0.0,1.0,0.0,0.0,209.52541853872503,0.6666666666666666,overlap_collapse,3,9.617624102189195,0.21444033031574897,92.71313370132629,2,0.6666666666666666
design_search,0.95,0.5,4000,0.05,0.1,misspecified_affine,1.0,oracle_weighted_fqe_clipped,7.2895868439004134,0.4756385686458719,14.322521054220404,0.7339145020072363,-2.000471102884669,-11.831586406340458,9.831115303455787,9.831115303455787,96.90826592596314,126.94886699539579,1.8087353934414176,10.362402752366261,0.5805360767215214,7.106671050803052,0.5412064563176241,4.008877973499576,3.7594710019565483,1.0,1.229566760255184,6.375344198277599,2.434669437731674,3.0599360821106836,6.3751564209101135,1592.611874885124,0.39815296872128103,0.01,0.0,4.0673627455745525,0.13401374827155602,0.6067165813285499,0.18153795117825422,0.5561865048808182,211.2267354712509,0.0,stable,3,9.831115303455787,0.2574378161205369,96.90826592596314,0,0.0
design_search,0.95,0.5,4000,0.05,0.1,misspecified_affine,1.0,standard_fqe,40.686669620238234,0.1902854920817693,32.55660803216401,0.24446105531864806,-4.256244743047492,-11.831586406340458,7.575341663292966,7.575341663292966,57.393171771262494,66.66283568749282,0.7834667563383358,36.21418319681981,0.25061131292324484,40.52713681690296,0.21581730986120562,0.6466225446964279,0.747140059520786,1.0,0.0,1.0,1.0,1.0,1.0,4000.0,1.0,0.0,0.0,nan,9.234842442528752,nan,1.0109277678923752,0.8617764463067682,219.45339520026633,0.0,stable,3,7.575341663292966,0.007370455640246319,57.393171771262494,0,0.0
design_search,0.95,0.5,4000,0.05,0.1,well_specified,1.0,estimated_weighted_fqe,0.05131027784506519,0.002231726127750257,0.02960853580696879,0.0010954249255768487,-11.262206432085032,-11.831586406340458,0.5693799742554274,0.5693799742554274,0.47649761145268005,0.6249635557580572,0.00882213402591034,0.06699279846204996,0.0029898926809395336,0.05429795333827466,0.0027475452954957374,0.0010472026679270525,0.010620158745444197,1.0,0.853905506495714,13.128939304550615,1.9857956957910015,2.1524987955821397,2.4737527280824723,2313.900152483668,0.578475038120917,0.0,0.0,nan,5.435313683341231,0.27685679429883914,0.579158402650736,0.7982036919654409,2613.978468643861,0.0,stable,3,0.5693799742554274,0.15230405636956892,0.47649761145268005,0,0.0
design_search,0.95,0.5,4000,0.05,0.1,well_specified,1.0,estimated_weighted_fqe_clip95,0.07957534268213141,0.003409185389523226,0.038970400773254976,0.0015535172313887033,-11.09086205245906,-11.831586406340458,0.7407243538813978,0.7407243538813978,0.6184709421143669,0.8772546792155836,0.013694291342366584,0.0893191998475661,0.004246525585550842,0.08493290540976929,0.004105474229708433,0.0009014772773177565,0.011390109895394629,1.0,0.7787995349707176,2.202298324068474,2.0317487411569917,2.202251992829604,2.202298324068474,2490.208074465519,0.6225520186163798,0.05000000000000001,0.0,2.4403249648501353,5.426474790737925,0.3193723075639392,0.5611920423306157,0.7725528015032195,1340.8529972427327,0.0,stable,3,0.7407243538813978,0.06979837368135264,0.6184709421143669,0,0.0
design_search,0.95,0.5,4000,0.05,0.1,well_specified,1.0,estimated_weighted_fqe_clip99_ess40,0.07915253735674996,0.00341751221880711,0.039509484555369255,0.0015756750948361195,-11.082566560672975,-11.831586406340458,0.749019845667482,0.749019845667482,0.6403410308413482,0.8952974434347599,0.013723164314732778,0.09131429312015749,0.004313549083354917,0.08431203269148886,0.00412572148909352,0.0009025635505908744,0.012000878243377597,1.0,0.7858189476882339,2.5112017187852818,2.015864491676862,2.185090756475061,2.5110726909032444,2473.299921832526,0.6183249804581314,0.01,0.0,2.8048491620738516,5.427751407166369,0.31261738844753506,0.5668644527830252,0.7762184916317256,1425.1903341258746,0.0,stable,3,0.749019845667482,0.0793103016376095,0.6403410308413482,0,0.0
design_search,0.95,0.5,4000,0.05,0.1,well_specified,1.0,estimated_weighted_fqe_clipped,0.07915253735674996,0.00341751221880711,0.039509484555369255,0.0015756750948361195,-11.082566560672975,-11.831586406340458,0.749019845667482,0.749019845667482,0.6403410308413482,0.8952974434347599,0.013723164314732778,0.09131429312015749,0.004313549083354917,0.08431203269148886,0.00412572148909352,0.0009025635505908744,0.012000878243377597,1.0,0.7858189476882339,2.5112017187852818,2.015864491676862,2.185090756475061,2.5110726909032444,2473.299921832526,0.6183249804581314,0.01,0.0,2.8048491620738516,5.427751407166369,0.31261738844753506,0.5668644527830252,0.7762184916317256,1425.1903341258746,0.0,stable,3,0.749019845667482,0.0793103016376095,0.6403410308413482,0,0.0
design_search,0.95,0.5,4000,0.05,0.1,well_specified,1.0,oracle_weighted_fqe,0.04891455717530661,0.002820899242584359,0.14313011054395802,0.007196906189190969,-11.396726354881316,-11.831586406340458,0.434860051459142,0.5455349825496718,0.5562658057459552,0.7388569920097042,0.010900869753424768,0.07841762127209705,0.003787851248545108,0.049673520188838166,0.0034706923085594285,0.055059685307345695,0.0282628351000704,1.0,2.569477800639339,114.98873159044642,2.2003299085595454,2.7661879622494836,5.755105760178243,552.8942147729264,0.1382235536932316,0.0,0.0,nan,0.0,1.0,0.0,0.0,990.279111578366,0.6666666666666666,overlap_collapse;overlap_collapse;finite_sample_variance_or_clipping,3,0.434860051459142,0.3671625413909076,0.5562658057459552,2,0.6666666666666666
design_search,0.95,0.5,4000,0.05,0.1,well_specified,1.0,oracle_weighted_fqe_clipped,0.1057834768397156,0.005445320785107405,0.11389924717539095,0.005759253194010973,-11.78384030893823,-11.831586406340458,0.04774609740223035,0.8958186694015206,1.0593154210170783,1.4769124294504286,0.023419262003905403,0.1402727379642917,0.007155123761933428,0.11575277096236863,0.006857287738277276,0.015805372333308202,0.022630417517493773,1.0,1.229566760255184,6.375344198277599,2.434669437731674,3.0599360821106836,6.3751564209101135,1592.611874885124,0.39815296872128103,0.01,0.0,4.0673627455745525,0.13401374827155602,0.6067165813285499,0.18153795117825422,0.5561865048808182,986.3510875854613,0.0,stable,3,0.04774609740223035,1.0570357311999352,1.0593154210170783,0,0.0
design_search,0.95,0.5,4000,0.05,0.1,well_specified,1.0,standard_fqe,0.048471885102956865,0.0020694621957731596,0.02634169457021697,0.0010450184573013036,-11.433549323804407,-11.831586406340458,0.3980370825360513,0.4443377914604074,0.3578041448051243,0.5222535473237707,0.009144724588619384,0.05167957263557704,0.0024999546377320017,0.05208556566727052,0.0025850384661960254,0.0002512373115490835,0.006925292233333313,1.0,0.0,1.0,1.0,1.0,1.0,4000.0,1.0,0.0,0.0,nan,9.234842442528752,nan,1.0109277678923752,0.8617764463067682,4046.9760407799563,0.0,stable,3,0.3980370825360513,0.19937062573131295,0.3578041448051243,0,0.0
design_search,0.95,1.0,1000,0.05,0.1,misspecified_affine,1.0,estimated_weighted_fqe,11.66520960486116,0.2642927279770449,14.085419345218954,0.38963473967532797,-15.788442524752348,-11.831586406340458,-3.9568561184118898,5.187250334968723,42.64295592912681,53.46981422234378,0.5135372557475907,10.806522503345738,0.3632071756867008,11.926931907791817,0.3070656358840211,2.5871010733519824,1.3656568812245908,1.0,1.1738503495794812,5.586242300562929,2.858396446697021,3.287398011983298,4.263236353187707,421.23747806644036,0.42123747806644035,0.0,0.0,nan,8.96742681193951,0.38550830040248374,1.0385740707838613,0.7794681764091006,190.64291271735237,0.3333333333333333,metric_instability_unclassified,3,-3.9568561184118898,26.986245587313206,42.64295592912681,1,0.3333333333333333
design_search,0.95,1.0,1000,0.05,0.1,misspecified_affine,1.0,estimated_weighted_fqe_clip95,11.450069090455344,0.2614797309675794,14.421613381313506,0.43573152684327204,-14.66587283270072,-11.831586406340458,-2.834286426360261,5.442195029578301,44.6172605282458,55.85839572819643,0.5824539707362848,12.88390774223281,0.4231474962639274,11.612009425288242,0.30292009958695704,2.5904941423272807,1.3980857954108235,1.0,1.1312422616545008,3.394808521442235,2.95164099269905,3.3930389006052093,3.394808521442235,439.3521333699263,0.43935213336992635,0.05000000000000001,0.0,3.9811081228902654,8.979865783207957,0.4183252777359279,1.016165878155509,0.7596082966677306,193.32887070297502,0.3333333333333333,metric_instability_unclassified,3,-2.834286426360261,36.58408098159578,44.6172605282458,1,0.3333333333333333
design_search,0.95,1.0,1000,0.05,0.1,misspecified_affine,1.0,estimated_weighted_fqe_clip99_ess40,11.545840932412192,0.2633919021841871,13.854403436977336,0.3938462662175429,-15.680339331678695,-11.831586406340458,-3.8487529253382373,5.1600653152500575,43.427123263614526,54.34830243764872,0.5246919302037506,10.924788579483433,0.3719536802536707,11.788014985642862,0.30589599497885717,2.583529813234224,1.363569520484982,1.0,1.1608120459952012,4.26958604983827,2.864134602291679,3.293241193715875,4.269261613565792,426.53537279173764,0.42653537279173764,0.01,0.003484187554568053,5.162336838179136,10.020910087873114,0.3912216875833348,1.0369619823613139,0.7760594691989894,191.48037660359213,0.3333333333333333,metric_instability_unclassified,3,-3.8487529253382373,28.614224183314885,43.427123263614526,1,0.3333333333333333
design_search,0.95,1.0,1000,0.05,0.1,misspecified_affine,1.0,estimated_weighted_fqe_clipped,11.551043379724364,0.2629773655968181,13.93532510143846,0.3942084112356052,-15.668374568415153,-11.831586406340458,-3.8367881620746953,5.1481005519865155,43.16561037733089,54.03319568231138,0.5215946997974846,10.930452479686744,0.3709055059542649,11.798071188434418,0.3054554405486681,2.5887002324410786,1.361237285791704,1.0,1.1651243615807878,4.282295416521349,2.871293833276326,3.3021796838428474,4.281970582438852,424.857748185779,0.4248577481857789,0.01,0.0,5.162336838179136,8.96864725438095,0.3912216875833347,1.03525953117592,0.7759154854464493,190.98786544020868,0.3333333333333333,metric_instability_unclassified,3,-3.8367881620746953,28.44466697669438,43.16561037733089,1,0.3333333333333333
design_search,0.95,1.0,1000,0.05,0.1,misspecified_affine,1.0,oracle_weighted_fqe,9.457235501900145,0.5741610082364339,120.4541540607649,3.5083582464374667,-0.6554747476055337,-11.831586406340458,11.176111658734925,11.176111658734925,125.17608753203852,159.30244271765446,2.127951818791503,50.13944873643021,1.6485161867330849,9.274276332703318,0.6535280397076634,23.457789798654943,4.2547283473442175,1.0,3.602542465885491,74.10053461248036,3.72256680971816,5.008893465676256,11.19939305103689,80.33737265250863,0.08033737265250863,0.0,0.0,nan,0.0,0.9999999999999999,0.0,0.0,227.1940910416284,1.0,overlap_collapse;finite_sample_variance_or_clipping,3,11.176111658734925,0.2706157235278312,125.17608753203852,3,1.0
design_search,0.95,1.0,1000,0.05,0.1,misspecified_affine,1.0,oracle_weighted_fqe_clipped,5.834309709851685,0.07882331865521752,12.396504183381916,0.5263473135736753,-11.763389018686915,-11.831586406340458,0.06819738765354266,1.2814029942740526,2.328094647068425,11.241859174978204,0.2722178486154621,8.356426432676313,0.3073863046001297,5.745029536531241,0.088866572792748,2.17542972449252,1.1472615499851333,1.0,1.7320508071162228,9.820449845228152,3.430267368371531,4.520810908938333,9.811313886554275,250.00000009800252,0.25000000009800255,0.01,0.26435556759436923,7.006163774583489,12.869105503250099,0.7836267681029593,0.4215473083356491,0.4204712578797687,152.86294170030234,0.0,stable,3,0.06819738765354266,2.3234437633856575,2.328094647068425,0,0.0
design_search,0.95,1.0,1000,0.05,0.1,misspecified_affine,1.0,standard_fqe,201.7244874873082,0.9737567653968616,168.11738588714434,1.0883076549878599,-6.531420837334938,-11.831586406340458,5.300165569005521,5.6290837219196606,45.46125562021566,54.72884716238192,0.5407186658616262,176.77538073471763,1.0496997864290865,199.83183648517215,1.1328513858949953,1.8187064430456947,1.1352947877190667,1.0,0.0,1.0,1.0,1.0,1.0,1000.0,1.0,0.0,0.0,nan,13.973111028421494,nan,1.5442571381607968,0.9196626273474914,431.7988861215427,0.0,stable,3,5.300165569005521,17.369500561344044,45.46125562021566,0,0.0
design_search,0.95,1.0,1000,0.05,0.1,well_specified,1.0,estimated_weighted_fqe,5.028253284436941,0.2363873674978084,2.083182885838118,0.08908889106121103,-15.897648868376217,-11.831586406340458,-4.066062462035761,4.246121734291186,43.638949232627134,61.76248416009745,0.9487835749612988,6.086532417554454,0.3110267900895394,5.693095483521186,0.29839140863850755,0.008313199371035213,0.7356034184353017,1.0,1.1738503495794812,5.586242300562929,2.858396446697021,3.287398011983298,4.263236353187707,421.23747806644036,0.42123747806644035,0.0,0.0,nan,8.96742681193951,0.38550830040248374,1.0385740707838613,0.7794681764091006,6560.465430246314,0.3333333333333333,metric_instability_unclassified,3,-4.066062462035761,27.10608528745081,43.638949232627134,1,0.3333333333333333
design_search,0.95,1.0,1000,0.05,0.1,well_specified,1.0,estimated_weighted_fqe_clip95,6.946601345098384,0.3279137128460237,2.9041744420629265,0.12503073485503732,-16.5663858711702,-11.831586406340458,-4.7347994648297425,5.027395868636314,61.78418563039449,86.48965031431915,1.3170257200358595,8.508224830513438,0.4320094837831017,7.862505312637208,0.41411151815337205,0.008994040577451215,1.0131313692931199,1.0,1.1312422616545008,3.394808521442235,2.95164099269905,3.3930389006052093,3.394808521442235,439.3521333699263,0.43935213336992635,0.05000000000000001,0.0,3.9811081228902654,8.979865783207957,0.4183252777359279,1.016165878155509,0.7596082966677306,6718.475112569272,0.3333333333333333,metric_instability_unclassified,3,-4.7347994648297425,39.36585965824248,61.78418563039449,1,0.3333333333333333
design_search,0.95,1.0,1000,0.05,0.1,well_specified,1.0,estimated_weighted_fqe_clip99_ess40,5.202830880278032,0.2449004331491966,2.117191512041794,0.09115097777836201,-15.913409530056377,-11.831586406340458,-4.081823123715919,4.348208114348965,45.073508082636465,63.877338514304654,0.9834752926767137,6.250374080302265,0.3212244166581055,5.892097472174453,0.3090292644617241,0.008203995828159552,0.758975657525529,1.0,1.1608120459952012,4.26958604983827,2.864134602291679,3.293241193715875,4.269261613565792,426.53537279173764,0.42653537279173764,0.01,0.003484187554568053,5.162336838179136,10.020910087873114,0.3912216875833348,1.0369619823613139,0.7760594691989894,6612.960142115912,0.3333333333333333,metric_instability_unclassified,3,-4.081823123715919,28.412228069334475,45.073508082636465,1,0.3333333333333333
design_search,0.95,1.0,1000,0.05,0.1,well_specified,1.0,estimated_weighted_fqe_clipped,5.195415201689026,0.24452888469822767,2.116793369709179,0.09115935351665479,-15.952502633297831,-11.831586406340458,-4.120916226957373,4.309115011107511,45.04685144697723,63.811274653765594,0.9819227745393255,6.24762061179226,0.3210798651514012,5.884696229490447,0.3086263146076684,0.008381685751905081,0.7581385615543165,1.0,1.1651243615807878,4.282295416521349,2.871293833276326,3.3021796838428474,4.281970582438852,424.857748185779,0.4248577481857789,0.01,0.0,5.162336838179136,8.96864725438095,0.3912216875833347,1.03525953117592,0.7759154854464493,6588.927495948792,0.3333333333333333,metric_instability_unclassified,3,-4.120916226957373,28.064900897376635,45.04685144697723,1,0.3333333333333333
design_search,0.95,1.0,1000,0.05,0.1,well_specified,1.0,oracle_weighted_fqe,1396384.4457723524,63105.40907675462,944838.6537667998,70933.80322037295,-1690.442403835007,-11.831586406340458,-1678.6108174286667,1680.219103161721,8461305.40802476,13519382.192219056,267375.9510573938,753741.2919635809,64964.48307658919,1562508.9984170238,81755.23136424144,419903.67115796957,148360.6962711066,1.0,3.602542465885491,74.10053461248036,3.72256680971816,5.008893465676256,11.19939305103689,80.33737265250863,0.08033737265250863,0.0,0.0,nan,0.0,0.9999999999999999,0.0,0.0,987.1807414099317,1.0,overlap_collapse;overlap_collapse;finite_sample_variance_or_clipping,3,-1678.6108174286667,5643571.131636225,8461305.40802476,3,1.0
design_search,0.95,1.0,1000,0.05,0.1,well_specified,1.0,oracle_weighted_fqe_clipped,0.7832134825844345,0.03772469634068287,0.7275138322313316,0.025458340194258588,-12.577334451990518,-11.831586406340458,-0.745748045650061,2.748657093337418,7.977993586331273,10.468361496551031,0.14768815237621552,1.3820166577629542,0.05600371777888503,0.8107164308743622,0.04403741413186452,0.0027409693285576817,0.14655496632497733,1.0,1.7320508071162228,9.820449845228152,3.430267368371531,4.520810908938333,9.811313886554275,250.00000009800252,0.25000000009800255,0.01,0.26435556759436923,7.006163774583489,12.869105503250099,0.7836267681029593,0.4215473083356491,0.4204712578797687,4378.249208084996,0.0,stable,3,-0.745748045650061,7.421853438740388,7.977993586331273,0,0.0
design_search,0.95,1.0,1000,0.05,0.1,well_specified,1.0,standard_fqe,0.8856658940527646,0.04817830707063103,2.416705806720951,0.07439201603063558,-13.6989240761977,-11.831586406340458,-1.8673376698572433,2.9970876080650957,10.157230562199368,13.047850850215456,0.17193261045283229,3.307112881431081,0.11197995338340437,0.8885015409269205,0.05352271388694749,0.0027513521191874185,0.34380017219691306,1.0,0.0,1.0,1.0,1.0,1.0,1000.0,1.0,0.0,0.0,nan,13.973111028421494,nan,1.5442571381607968,0.9196626273474914,16518.78518016954,0.0,stable,3,-1.8673376698572433,6.670280588931488,10.157230562199368,0,0.0
design_search,0.95,1.0,4000,0.05,0.1,misspecified_affine,1.0,estimated_weighted_fqe,9.111551700065453,0.18219686394809717,12.160887043442193,0.2681407387313279,-16.798480399596414,-11.831586406340458,-4.9668939932559555,4.9668939932559555,30.020967419559625,37.3627519583361,0.30269043339821633,6.770693120093057,0.19877747187893294,9.292495368295357,0.21437276533569183,2.5862311743175956,0.9652081162386575,1.0,1.1955400179579236,7.606642651947699,2.7657380418551436,3.395282602818384,4.633286346085547,1651.826417429731,0.4129566043574328,0.0,0.0,nan,9.057325300226855,0.3289201134823698,1.092135903178872,0.832031809729222,201.8428632052362,0.3333333333333333,finite_sample_variance_or_clipping,3,-4.9668939932559555,5.3509314793175315,30.020967419559625,1,0.3333333333333333
design_search,0.95,1.0,4000,0.05,0.1,misspecified_affine,1.0,estimated_weighted_fqe_clip95,6.944088044980535,0.10668690613081834,10.031914670872053,0.2994201760023539,-14.724064415940793,-11.831586406340458,-2.8924780096003357,3.0414740676012624,13.425139261734836,20.421226900589517,0.2296222076908019,5.733898152770256,0.19204763959214985,6.936876465066594,0.12404964753879873,2.5647695693585084,0.9042954668666244,1.0,1.1356195502204975,3.529999662590813,2.874847871175387,3.5299200396898254,3.529999662590813,1750.4138486591874,0.43760346216479684,0.05000000000000001,0.0,4.126399988266356,9.071170358901112,0.3627113419910521,1.0671632433642857,0.8142068280836426,206.07850613514722,0.0,stable,3,-2.8924780096003357,5.058710225713317,13.425139261734836,0,0.0
design_search,0.95,1.0,4000,0.05,0.1,misspecified_affine,1.0,estimated_weighted_fqe_clip99_ess40,8.338947046797527,0.15939079992834485,11.18707674087044,0.2720017952553776,-16.28262052383973,-11.831586406340458,-4.451034117499271,4.451034117499271,25.12038831828286,32.42372691257264,0.2813273201163147,6.122918390564235,0.19189351429162302,8.471103138535943,0.18767016582343712,2.5596070030918554,0.9504975505607822,1.0,1.1732589546064212,4.6361420157008135,2.7707206270562836,3.399698117901233,4.635840558220856,1687.1390556324368,0.42178476390810915,0.01,0.006143438769504429,5.630892894687764,10.122981811037581,0.3358726220127037,1.0907583469165865,0.8284205962001631,203.4753025692745,0.3333333333333333,metric_instability_unclassified,3,-4.451034117499271,5.3086836031403495,25.12038831828286,1,0.3333333333333333
design_search,0.95,1.0,4000,0.05,0.1,misspecified_affine,1.0,estimated_weighted_fqe_clipped,8.065086354567542,0.15427870617544512,11.281329564751516,0.2726527503796006,-16.175824037137122,-11.831586406340458,-4.344237630796664,4.344237630796664,23.772684343844347,30.95243554921521,0.2705512058902057,6.01102421460438,0.18808442736688238,8.189387971276833,0.18148363873221976,2.5909251457398104,0.9401069599023035,1.0,1.180924375868493,4.6613694324893915,2.7823082094161706,3.415718024365402,4.6610644686948985,1675.2790948499558,0.41881977371248885,0.01,0.0,5.630892894687764,9.058898954787333,0.3358726220127039,1.0881114866773156,0.8282961013248334,202.57243546971316,0.3333333333333333,metric_instability_unclassified,3,-4.344237630796664,4.90028375101453,23.772684343844347,1,0.3333333333333333
design_search,0.95,1.0,4000,0.05,0.1,misspecified_affine,1.0,oracle_weighted_fqe,9.100412762221483,0.5537262249875722,115.541363968103,3.394644756210692,-0.8845219765797019,-11.831586406340458,10.947064429760756,10.947064429760756,119.84124830169957,152.9457880058122,2.0607994088710453,47.99979674303081,1.5919815233663714,8.958706798318113,0.6329054753800887,22.606627012664763,4.075471851285282,1.0,4.558717668328244,187.97534637646206,3.6320834320424606,5.105472843321077,11.353092118399521,247.40515339050566,0.06185128834762641,0.0,0.0,nan,0.0,1.0,0.0,0.0,206.3528453064217,1.0,overlap_collapse;finite_sample_variance_or_clipping,3,10.947064429760756,0.0030286723663658934,119.84124830169957,3,1.0
design_search,0.95,1.0,4000,0.05,0.1,misspecified_affine,1.0,oracle_weighted_fqe_clipped,9.605664971090789,0.08897552529519386,11.747670783948479,0.4159917402933497,-13.658185618520877,-11.831586406340458,-1.8265992121804189,1.8265992121804189,4.54568937976715,12.756797886791423,0.19447349429100524,8.27742684694902,0.20913566988403395,9.613699363437286,0.0987826606498086,2.1237720496602157,1.0061771484227888,1.0,1.7320508067879203,9.970202782573724,3.3810501168355462,4.636942204302982,9.96891292099747,1000.0000006763288,0.25000000016908214,0.01,0.2848770629304151,6.73691780645589,12.909525175663404,0.6975657108743784,0.46048956946107406,0.5271633314249119,163.42665331763683,0.0,stable,3,-1.8265992121804189,1.2092246978290235,4.54568937976715,0,0.0
design_search,0.95,1.0,4000,0.05,0.1,misspecified_affine,1.0,standard_fqe,198.30698130569007,1.0405547970205997,164.69172925792017,1.0706504142226718,-7.25102383571799,-11.831586406340458,4.580562570622468,4.580562570622468,22.828901110698126,31.981697340466663,0.5096928312931303,170.88257628517354,1.0934993931455963,196.61128416395835,1.2101050013727719,1.8020429838978416,1.0268391252724178,1.0,0.0,1.0,1.0,1.0,1.0,4000.0,1.0,0.0,0.0,nan,13.957340086567234,nan,1.5599528888693632,0.9381487116523735,450.3065825066237,0.0,stable,3,4.580562570622468,1.8473476473106143,22.828901110698126,0,0.0
design_search,0.95,1.0,4000,0.05,0.1,well_specified,1.0,estimated_weighted_fqe,1.305545110621125,0.06799656735028574,1.6673409909868537,0.059451707575608546,-9.764268039063248,-11.831586406340458,2.0673183672772084,3.2485520303382187,14.665215733162258,19.296720725579082,0.27535370324373915,2.974159719212713,0.1164910970488628,1.4152689625932189,0.08480636644856888,0.0006506485001795188,0.3096146150711789,1.0,1.1955400179579236,7.606642651947699,2.7657380418551436,3.395282602818384,4.633286346085547,1651.826417429731,0.4129566043574328,0.0,0.0,nan,9.057325300226855,0.3289201134823698,1.092135903178872,0.832031809729222,7195.91481678851,0.3333333333333333,metric_instability_unclassified,3,2.0673183672772084,10.391410501480557,14.665215733162258,1,0.3333333333333333
design_search,0.95,1.0,4000,0.05,0.1,well_specified,1.0,estimated_weighted_fqe_clip95,1.8919245344230895,0.09801350405167668,1.739412666696763,0.06646133621680099,-9.446689075549315,-11.831586406340458,2.384897330791143,3.470776956423778,20.22625617504963,27.237219419074165,0.40455266736258527,3.551661021285014,0.1525218511579841,2.094632665370439,0.12337435477170473,0.0010474361074265853,0.39070064140418054,1.0,1.1356195502204975,3.529999662590813,2.874847871175387,3.5299200396898254,3.529999662590813,1750.4138486591874,0.43760346216479684,0.05000000000000001,0.0,4.126399988266356,9.071170358901112,0.3627113419910521,1.0671632433642857,0.8142068280836426,7235.971561922711,0.3333333333333333,metric_instability_unclassified,3,2.384897330791143,14.538520896634912,20.22625617504963,1,0.3333333333333333
design_search,0.95,1.0,4000,0.05,0.1,well_specified,1.0,estimated_weighted_fqe_clip99_ess40,1.5570189659406086,0.08107381897538929,1.7023555871931935,0.0628028465493818,-9.602810012749243,-11.831586406340458,2.228776393591214,3.3834827956391202,17.150873059507365,22.81269850313019,0.33184059938803784,3.236289835740005,0.13233253578359352,1.7056572708215103,0.10165564789948671,0.000751459730825903,0.3475723522419129,1.0,1.1732589546064212,4.6361420157008135,2.7707206270562836,3.399698117901233,4.635840558220856,1687.1390556324368,0.42178476390810915,0.01,0.006143438769504429,5.630892894687764,10.122981811037581,0.3358726220127037,1.0907583469165865,0.8284205962001631,7241.938442784313,0.3333333333333333,metric_instability_unclassified,3,2.228776393591214,12.183428846877902,17.150873059507365,1,0.3333333333333333
design_search,0.95,1.0,4000,0.05,0.1,well_specified,1.0,estimated_weighted_fqe_clipped,1.561309101986426,0.08132841979767862,1.7216987309981027,0.06337078389112379,-9.58619463113147,-11.831586406340458,2.245391775208988,3.4000981772568935,17.206795376142985,22.883367186360392,0.3327848826696392,3.259351855230309,0.13307390095555596,1.7099760787056786,0.10196658499339371,0.0007909284272952562,0.3495849606969296,1.0,1.180924375868493,4.6613694324893915,2.7823082094161706,3.415718024365402,4.6610644686948985,1675.2790948499558,0.41881977371248885,0.01,0.0,5.630892894687764,9.058898954787333,0.3358726220127039,1.0881114866773156,0.8282961013248334,7189.237153221026,0.3333333333333333,metric_instability_unclassified,3,2.245391775208988,12.165011151966814,17.206795376142985,1,0.3333333333333333
design_search,0.95,1.0,4000,0.05,0.1,well_specified,1.0,oracle_weighted_fqe,1.3712464168387408,0.07230149207326537,3.598981100391866,0.13167478431874594,-13.899299784872817,-11.831586406340458,-2.0677133785323587,3.2482709891193307,16.143797992622414,20.812019872256535,0.2859263020308312,3.5366381909440925,0.13146842912317214,1.4734242803827833,0.08950331598643539,0.3431996300409839,0.3540223397035737,1.0,4.558717668328244,187.97534637646206,3.6320834320424606,5.105472843321077,11.353092118399521,247.40515339050566,0.06185128834762641,0.0,0.0,nan,0.0,1.0,0.0,0.0,987.3390462241099,1.0,overlap_collapse;overlap_collapse;finite_sample_variance_or_clipping,3,-2.0677133785323587,11.868359376860715,16.143797992622414,3,1.0
design_search,0.95,1.0,4000,0.05,0.1,well_specified,1.0,oracle_weighted_fqe_clipped,0.18461638345876608,0.008275755806859604,0.04527861192995931,0.001978360004139726,-11.289666597454797,-11.831586406340458,0.5419198088856602,1.0802611298542704,1.282456853056049,1.937219774467381,0.033791739338253475,0.14574584315188213,0.008954031452889576,0.19912841787571955,0.010009054516058172,0.0003326991627012967,0.02194130757938886,1.0,1.7320508067879203,9.970202782573724,3.3810501168355462,4.636942204302982,9.96891292099747,1000.0000006763288,0.25000000016908214,0.01,0.2848770629304151,6.73691780645589,12.909525175663404,0.6975657108743784,0.46048956946107406,0.5271633314249119,4667.51606095314,0.0,stable,3,0.5419198088856602,0.9887797737933788,1.282456853056049,0,0.0
design_search,0.95,1.0,4000,0.05,0.1,well_specified,1.0,standard_fqe,0.5962332054875807,0.02636900604540458,0.38997554169068366,0.014447768261075985,-10.375848107229112,-11.831586406340458,1.455738299111344,2.0675880718917656,5.136950911570072,6.933999105371469,0.1029819996577687,0.7873096449396483,0.03398087718306405,0.6426657742654895,0.03272468987904202,0.00034751634275747797,0.09367123447950633,1.0,0.0,1.0,1.0,1.0,1.0,4000.0,1.0,0.0,0.0,nan,13.957340086567234,nan,1.5599528888693632,0.9381487116523735,16437.721947160073,0.0,stable,3,1.455738299111344,3.017776916070485,5.136950911570072,0,0.0
design_search,0.95,1.1,1000,0.05,0.1,misspecified_affine,1.0,estimated_weighted_fqe,16.04531429133031,0.5098630277042095,53.753223640802226,1.8023737781917852,-2.727433376555718,-11.831586406340458,9.104153029784738,9.104153029784738,128.27893322786787,152.81858394525523,1.7183692574401042,66.23623548890647,1.8512329831640866,16.27158245297005,0.5993294171104447,4.736864522644869,2.6051458057147725,1.0,1.316418228282202,6.958836005403243,3.0742459072901265,3.769217895137004,5.013912368200392,366.65641613890165,0.36665641613890165,0.0,0.0,nan,9.912362243874712,0.41421188367495737,1.1657733324708157,0.7687832761167425,228.33294169765475,0.0,stable,3,9.104153029784738,45.39333083812924,128.27893322786787,0,0.0
design_search,0.95,1.1,1000,0.05,0.1,misspecified_affine,1.0,estimated_weighted_fqe_clip95,27.58403084533847,0.6436043617982801,66.59590751739707,2.018021902038294,-0.6837193137523846,-11.831586406340458,11.147867092588074,11.147867092588074,177.14889641585668,203.69314884592973,2.062687940711753,87.58872692488917,2.151254278753031,27.95786618172538,0.7590137634564506,4.758812681556547,2.826028659400537,1.0,1.2553053793609512,3.9278805324536883,3.203578658573177,3.9269986376594623,3.9278805324536883,389.1038529464723,0.38910385294647226,0.05000000000000001,0.0,4.6421174787385295,9.930045591424546,0.4578148222295395,1.1401918770674528,0.7419962024188199,235.00720325089148,0.0,stable,3,11.147867092588074,52.87395570184858,177.14889641585668,0,0.0
design_search,0.95,1.1,1000,0.05,0.1,misspecified_affine,1.0,estimated_weighted_fqe_clip99_ess40,18.5232480123164,0.4480959603897611,50.3586197027362,1.6483043923499592,-4.410693110446217,-11.831586406340458,7.420893295894241,7.845529826524936,114.18162599425226,134.48767824352691,1.451917938527515,61.836791554678136,1.6361565194970773,18.676925719191363,0.5327379238226876,4.418935820185759,2.251800891748315,1.0,1.2247448707706963,4.805038956916827,2.968983538951997,3.6236403450345613,4.8045846201627755,400.0000002433394,0.4000000002433393,0.01,0.05730446943392356,6.174417657840991,13.327444754496254,0.42282413490900117,1.1878090485078725,0.7668680309347784,244.87666627447902,0.0,stable,3,7.420893295894241,59.11196868520418,114.18162599425226,0,0.0
design_search,0.95,1.1,1000,0.05,0.1,misspecified_affine,1.0,estimated_weighted_fqe_clipped,17.299556456608148,0.5119923153526792,53.99858835775448,1.7961855009410652,-2.605813866041364,-11.831586406340458,9.225772540299095,9.225772540299095,130.57890127816236,154.66627720022248,1.7172179821130609,67.3522632827645,1.8481808309867265,17.53469083940443,0.6028681844369795,4.741424375783742,2.5495117309454796,1.0,1.301992126308997,5.046442343263491,3.0943565677971634,3.7937565144849708,5.0459690205310785,371.80129223355993,0.3718012922335599,0.01,0.0,6.174417657840991,9.914466145840805,0.4228241349090014,1.1616232306273515,0.7633524097231708,229.3154367211505,0.0,stable,3,9.225772540299095,45.46402231282554,130.57890127816236,0,0.0
design_search,0.95,1.1,1000,0.05,0.1,misspecified_affine,1.0,oracle_weighted_fqe,9.985935508763637,0.5929103812113881,211.91621553308633,5.619655929025228,-0.40112520313757366,-11.831586406340458,11.430461203202883,11.430461203202883,131.0772213462279,165.86818188973024,2.1863128557723086,82.5362855234024,2.491964067737243,9.815507687279963,0.6755485917974244,40.70061092256042,4.285355387395235,1.0,3.6391353100600505,55.31112444229029,3.6520605100650356,6.294806376380123,13.277417143507046,71.82926382922061,0.0718292638292206,0.0,0.0,nan,0.0,1.0,0.0,0.0,219.2414586819401,1.0,overlap_collapse;overlap_collapse;finite_sample_variance_or_clipping,3,11.430461203202883,0.4217780283015881,131.0772213462279,3,1.0
design_search,0.95,1.1,1000,0.05,0.1,misspecified_affine,1.0,oracle_weighted_fqe_clipped,21.973892031458774,0.15877589928089839,39.6675256811535,1.1843240213667985,-8.814723266414715,-11.831586406340458,3.016863139925743,3.563341411273335,17.51701342910942,25.26449495766327,0.4374388917820817,36.93711681885417,0.7896967565228564,21.61900205087628,0.18135408596953026,3.6491604334558034,0.9761344097126838,1.0,1.7320508068002223,10.024647385887121,3.021416886361363,4.936900989192067,10.005160856548034,250.00000016641866,0.2500000001664186,0.01,0.3821622661004464,7.9603166313044555,14.070017771507418,0.8746770383880983,0.639792889572078,0.3624781565806456,216.6883001410691,0.0,stable,3,3.016863139925743,8.415550224066804,17.51701342910942,0,0.0
design_search,0.95,1.1,1000,0.05,0.1,misspecified_affine,1.0,standard_fqe,510.6953832457523,1.636302661759218,427.02533906477794,2.199460244333984,1.8019667668241521,-11.831586406340458,13.633553173164609,13.633553173164609,225.46986909851194,234.49386873669087,0.9923005923162785,460.38000154870207,1.9441827900015756,507.47711371198085,1.8979383999039863,3.028373858435515,1.6894915680636708,1.0,0.0,1.0,1.0,1.0,1.0,1000.0,1.0,0.0,0.0,nan,14.917922108453482,nan,1.6569771631251948,0.9281707361707795,586.5482923017438,0.0,stable,3,13.633553173164609,39.59609697300516,225.46986909851194,0,0.0
design_search,0.95,1.1,1000,0.05,0.1,well_specified,1.0,estimated_weighted_fqe,93.73708491205753,4.429722542768224,48.175175758284176,1.9410430127214788,-33.41761405068274,-11.831586406340458,-21.586027644342277,21.586027644342277,902.5290793114488,1214.6480176612663,17.751849661790377,128.4021092831978,6.023851281102751,105.24885589757793,5.602984905793214,0.06385461986105194,14.095497621232106,1.0,1.316418228282202,6.958836005403243,3.0742459072901265,3.769217895137004,5.013912368200392,366.65641613890165,0.36665641613890165,0.0,0.0,nan,9.912362243874712,0.41421188367495737,1.1657733324708157,0.7687832761167425,11588.622387800731,0.6666666666666666,metric_instability_unclassified,3,-21.586027644342277,436.57248984914,902.5290793114488,2,0.6666666666666666
design_search,0.95,1.1,1000,0.05,0.1,well_specified,1.0,estimated_weighted_fqe_clip95,179.51736919350606,8.526675692002383,100.93536622917611,3.986727815346924,-40.248076609779325,-11.831586406340458,-28.41649020343887,28.41649020343887,1761.4847304578689,2357.0652631774915,34.13781203560199,258.5892118661845,11.804311600097904,201.5511845128776,10.796178879420689,0.10701857877718722,27.78964150599631,1.0,1.2553053793609512,3.9278805324536883,3.203578658573177,3.9269986376594623,3.9278805324536883,389.1038529464723,0.38910385294647226,0.05000000000000001,0.0,4.6421174787385295,9.930045591424546,0.4578148222295395,1.1401918770674528,0.7419962024188199,12002.459163462801,0.6666666666666666,metric_instability_unclassified,3,-28.41649020343887,953.987814975732,1761.4847304578689,2,0.6666666666666666
design_search,0.95,1.1,1000,0.05,0.1,well_specified,1.0,estimated_weighted_fqe_clip99_ess40,75.05436425003715,3.5448777275010506,37.40251020882599,1.5355066286334715,-30.807688102735455,-11.831586406340458,-18.976101696395,18.976101696395,722.8556142213725,972.0342848581058,14.178791929877022,101.53678907945023,4.816120299785831,84.36027116424559,4.481985100560653,0.04277816984157403,11.213675832776557,1.0,1.2247448707706963,4.805038956916827,2.968983538951997,3.6236403450345613,4.8045846201627755,400.0000002433394,0.4000000002433393,0.01,0.05730446943392356,6.174417657840991,13.327444754496254,0.42282413490900117,1.1878090485078725,0.7668680309347784,12477.411548662802,0.6666666666666666,metric_instability_unclassified,3,-18.976101696395,362.7631786294475,722.8556142213725,2,0.6666666666666666
design_search,0.95,1.1,1000,0.05,0.1,well_specified,1.0,estimated_weighted_fqe_clipped,98.62355181870372,4.6667405754251154,49.99536540262783,2.0279090124211625,-33.83572907979639,-11.831586406340458,-22.00414267345593,22.00414267345593,949.0272800701218,1278.4071467737049,18.711264892273658,134.3759492627219,6.335790100144901,110.7897858063272,5.9029985982024735,0.06648508605259189,14.823787407253514,1.0,1.301992126308997,5.046442343263491,3.0943565677971634,3.7937565144849708,5.0459690205310785,371.80129223355993,0.3718012922335599,0.01,0.0,6.174417657840991,9.914466145840805,0.4228241349090014,1.1616232306273515,0.7633524097231708,11650.39073086623,0.6666666666666666,metric_instability_unclassified,3,-22.00414267345593,464.8449852763174,949.0272800701218,2,0.6666666666666666
design_search,0.95,1.1,1000,0.05,0.1,well_specified,1.0,oracle_weighted_fqe,33.367428905161894,1.5059850622448707,147.35393361261356,6.581909317043294,-20.216403894056743,-11.831586406340458,-8.384817487716289,8.692835113568329,209.97862831203383,335.5387670063864,6.411681365459795,20.33149712356704,1.5584331141212582,37.13509546523791,1.9351668837367073,149.5271863100863,3.6950792122911458,1.0,3.6391353100600505,55.31112444229029,3.6520605100650356,6.294806376380123,13.277417143507046,71.82926382922061,0.0718292638292206,0.0,0.0,nan,0.0,1.0,0.0,0.0,988.1016097546895,1.0,overlap_collapse;overlap_collapse;finite_sample_variance_or_clipping,3,-8.384817487716289,139.67346400972093,209.97862831203383,3,1.0
design_search,0.95,1.1,1000,0.05,0.1,well_specified,1.0,oracle_weighted_fqe_clipped,0.9440358816666231,0.04481174674690399,0.69352261860325,0.02465177797840946,-12.27834923667353,-11.831586406340458,-0.44676283033307246,2.4601508962106657,9.260906718898672,12.32604095318697,0.1770642689243657,1.508322380686048,0.06383672012703968,0.9995576269029948,0.053094439966606725,0.0030471400636995992,0.1575425070326544,1.0,1.7320508068002223,10.024647385887121,3.021416886361363,4.936900989192067,10.005160856548034,250.00000016641866,0.2500000001664186,0.01,0.3821622661004464,7.9603166313044555,14.070017771507418,0.8746770383880983,0.639792889572078,0.3624781565806456,10571.78481542319,0.0,stable,3,-0.44676283033307246,9.061309692331456,9.260906718898672,0,0.0
design_search,0.95,1.1,1000,0.05,0.1,well_specified,1.0,standard_fqe,1.8760666703354791,0.09150131304373828,5.509452933939464,0.15772613588254458,-14.83311766366903,-11.831586406340458,-3.001531257328574,4.0646961842478255,19.663884044038333,25.16123049286048,0.3277000486462965,7.302610782101698,0.23970677669651952,1.954750390678748,0.10530095571439561,0.003751165356269518,0.5444322845288437,1.0,0.0,1.0,1.0,1.0,1.0,1000.0,1.0,0.0,0.0,nan,14.917922108453482,nan,1.6569771631251948,0.9281707361707795,27800.887278703914,0.0,stable,3,-3.001531257328574,10.654694155317884,19.663884044038333,0,0.0
design_search,0.95,1.1,4000,0.05,0.1,misspecified_affine,1.0,estimated_weighted_fqe,3.424026793919042,0.09257195433885389,19.936875475769973,0.7319265134291933,-10.790784026738555,-11.831586406340458,1.0408023796019032,3.008200720099224,12.619141193149778,20.736559378111355,0.37919438736875816,13.025180688094267,0.5508987541286615,3.2994687176647726,0.11255759047085097,4.883790632622007,0.7514963514463674,1.0,1.3547534585807426,8.900566924907421,3.0178126639292064,3.858829696741129,5.450059288367843,1414.7005167712161,0.353675129192804,0.0,0.0,nan,9.851768860332692,0.28753133399826036,1.2245212610020413,0.866350469271263,243.57075593078557,0.0,stable,3,1.0408023796019032,11.535871599764794,12.619141193149778,0,0.0
design_search,0.95,1.1,4000,0.05,0.1,misspecified_affine,1.0,estimated_weighted_fqe_clip95,9.897242195153446,0.1375937470963197,22.297880243947194,0.8881352241219336,-8.000058601422742,-11.831586406340458,3.8315278049177177,3.8315278049177177,22.168957247862732,31.325251792455322,0.5420019656775409,21.30121342528056,0.7130114813875057,9.72527393181339,0.1623263591515393,4.828897659752128,0.7691803032080339,1.0,1.2739128073373491,4.05537819688185,3.1708682494889886,4.054959457190901,4.05537819688185,1527.578814744065,0.3818947036860163,0.05000000000000001,0.0,4.829282197411623,9.871026270036886,0.32500837810530825,1.1960061172065108,0.8476853988056429,249.53432527226406,0.0,stable,3,3.8315278049177177,7.4883519280051445,22.168957247862732,0,0.0
design_search,0.95,1.1,4000,0.05,0.1,misspecified_affine,1.0,estimated_weighted_fqe_clip99_ess40,7.587547122617288,0.07194419119720613,17.445886111881265,0.6491485483110484,-12.109540214049735,-11.831586406340458,-0.2779538077092756,1.5340241424233276,2.7146214167300737,7.609443671412826,0.17411101069339704,11.271429410045394,0.4063547393137812,7.39108983410724,0.07846814607291085,4.342599398947043,0.5613530327216831,1.0,1.2247448706465063,5.1160358385187275,2.8767408747767234,3.65156001810679,5.115952863407859,1600.0000011680468,0.4000000002920117,0.01,0.07930240578328572,6.821912918503467,13.499630031073908,0.2950309523859304,1.2509475920754876,0.8642125315846774,268.26166053939613,0.0,stable,3,-0.2779538077092756,2.6373630975099887,2.7146214167300737,0,0.0
design_search,0.95,1.1,4000,0.05,0.1,misspecified_affine,1.0,estimated_weighted_fqe_clipped,4.242567446989551,0.10260470149754763,19.975925077725517,0.7839106847918756,-9.74861811496716,-11.831586406340458,2.082968291373297,3.126631409473655,13.84299594086798,22.601023323312564,0.4306637427141788,14.632393130840407,0.6073740087286009,4.103700080428941,0.12309514734090139,4.914976505392025,0.7602033778812212,1.0,1.3335716315499073,5.494660779342112,3.042262694001065,3.890251967395944,5.494570717476175,1443.2051560896564,0.36080128902241415,0.01,0.0,6.821912918503467,9.854369939435633,0.29503095238593047,1.2197721895388776,0.862487815319497,244.17709307596564,0.0,stable,3,2.082968291373297,9.504239038001385,13.84299594086798,0,0.0
design_search,0.95,1.1,4000,0.05,0.1,misspecified_affine,1.0,oracle_weighted_fqe,9.780263887417725,0.581651223000241,208.740393255478,5.549056758199032,-0.5216932158108043,-11.831586406340458,11.309893190529655,11.309893190529655,127.97475695660118,162.15651512697946,2.1485385024055073,80.96256783499602,2.452816237872302,9.648417562163672,0.6658421549960837,40.310518570847144,4.195245595586592,1.0,7.340853762888325,335.68955330875434,2.8615403014434455,5.881082654515153,12.974575643032253,166.75343346896565,0.04168835836724142,0.0,0.0,nan,0.0,1.0,0.0,0.0,236.2048583220064,1.0,overlap_collapse,3,11.309893190529655,0.06107297541215795,127.97475695660118,3,1.0
design_search,0.95,1.1,4000,0.05,0.1,misspecified_affine,1.0,oracle_weighted_fqe_clipped,27.179863086166808,0.19858898595998611,35.37917094631366,0.9588701017383762,-10.836297280311541,-11.831586406340458,0.9952891260289162,0.9952891260289162,1.1086475484460063,6.974495978364424,0.22284183982728897,31.442291970653372,0.5515378010922024,26.77767538600078,0.22585905433841572,3.580038066969512,0.7420213013422075,1.0,1.7320508071701581,10.474953362266604,2.618302272799514,4.958162870480088,10.474132749330584,1000.0000003453011,0.25000000008632534,0.01,0.40286604563395184,7.66038543337869,14.182245607096439,0.6440745674969027,0.701044887891824,0.6067084266761157,242.72885626811612,0.0,stable,3,0.9952891260289162,0.11804710405460261,1.1086475484460063,0,0.0
design_search,0.95,1.1,4000,0.05,0.1,misspecified_affine,1.0,standard_fqe,506.61196495975645,1.7628781790790198,420.51048138006036,2.0503674631148487,1.4284989093660936,-11.831586406340458,13.260085315706553,13.260085315706553,179.71017486165786,186.00596300685484,0.9791354345338071,448.5058197358205,1.845056049569732,503.6412202008428,2.050118884560829,3.001454205928182,1.3275161491511192,1.0,0.0,1.0,1.0,1.0,1.0,4000.0,1.0,0.0,0.0,nan,14.987310228129324,nan,1.6747361547416626,0.9583116416327586,610.750192897643,0.0,stable,3,13.260085315706553,3.880312281841355,179.71017486165786,0,0.0
design_search,0.95,1.1,4000,0.05,0.1,well_specified,1.0,estimated_weighted_fqe,2.736619143944249,0.1437077784230006,4.590644414048311,0.14923695587787913,-9.198131701917596,-11.831586406340458,2.633454704422862,4.727234153227156,30.80104307893816,40.606296949726925,0.5797796740292142,7.4806394655116035,0.2699260704744198,2.9385834944387343,0.17735109774306593,0.0011299525622252855,0.6682891442728822,1.0,1.3547534585807426,8.900566924907421,3.0178126639292064,3.858829696741129,5.450059288367843,1414.7005167712161,0.353675129192804,0.0,0.0,nan,9.851768860332692,0.28753133399826036,1.2245212610020413,0.866350469271263,12893.978558387293,0.6666666666666666,metric_instability_unclassified,3,2.633454704422862,23.865959398691256,30.80104307893816,2,0.6666666666666666
design_search,0.95,1.1,4000,0.05,0.1,well_specified,1.0,estimated_weighted_fqe_clip95,2.960368331442396,0.15445349055434604,3.922816161721492,0.13330661523480056,-9.011225126914674,-11.831586406340458,2.8203612794257835,4.6001837312662275,32.347998241163005,43.202722110673484,0.6317313039344702,6.915644915099146,0.26515545085927883,3.2338325980461136,0.1927016704764948,0.0013354359588371775,0.6580753354515082,1.0,1.2739128073373491,4.05537819688185,3.1708682494889886,4.054959457190901,4.05537819688185,1527.578814744065,0.3818947036860163,0.05000000000000001,0.0,4.829282197411623,9.871026270036886,0.32500837810530825,1.1960061172065108,0.8476853988056429,13065.879956125325,0.6666666666666666,metric_instability_unclassified,3,2.8203612794257835,24.39356049467877,32.347998241163005,2,0.6666666666666666
design_search,0.95,1.1,4000,0.05,0.1,well_specified,1.0,estimated_weighted_fqe_clip99_ess40,2.6285809536375955,0.13762627084992196,3.920382909305479,0.1309724689009029,-9.363449897083614,-11.831586406340458,2.4681365092568446,4.3764038120196185,29.399706033154654,38.889325830074036,0.5589529036462002,6.67101193785918,0.2465586768111571,2.8433704311896535,0.1707906676572517,0.0008591776935243865,0.6175970376493114,1.0,1.2247448706465063,5.1160358385187275,2.8767408747767234,3.65156001810679,5.115952863407859,1600.0000011680468,0.4000000002920117,0.01,0.07930240578328572,6.821912918503467,13.499630031073908,0.2950309523859304,1.2509475920754876,0.8642125315846774,14033.336483133753,0.6666666666666666,metric_instability_unclassified,3,2.4681365092568446,23.30800820482808,29.399706033154654,2,0.6666666666666666
design_search,0.95,1.1,4000,0.05,0.1,well_specified,1.0,estimated_weighted_fqe_clipped,3.127080907074559,0.16405275992554888,4.494675913016514,0.15097262683086501,-9.00137361519438,-11.831586406340458,2.830212791146078,4.848395093581477,34.70292100994131,46.12114252559822,0.6685530234695265,7.7245222919490715,0.2899521174573286,3.3942122311601532,0.20388639822843024,0.0012646111063377428,0.7244560717658394,1.0,1.3335716315499073,5.494660779342112,3.042262694001065,3.890251967395944,5.494570717476175,1443.2051560896564,0.36080128902241415,0.01,0.0,6.821912918503467,9.854369939435633,0.29503095238593047,1.2197721895388776,0.862487815319497,12938.80311975115,0.6666666666666666,metric_instability_unclassified,3,2.830212791146078,26.69281656677444,34.70292100994131,2,0.6666666666666666
design_search,0.95,1.1,4000,0.05,0.1,well_specified,1.0,oracle_weighted_fqe,0.6599304104310962,0.03543744370095118,1.5294636750399444,0.056305969768501246,-14.511362344954867,-11.831586406340458,-2.67977593861441,2.67977593861441,7.550132624495785,9.96058119383685,0.1432174284982319,1.8428068638928996,0.0653962806218179,0.6931030135286379,0.04249535515245704,0.2981043004429771,0.16524170675721567,1.0,7.340853762888325,335.68955330875434,2.8615403014434455,5.881082654515153,12.974575643032253,166.75343346896565,0.04168835836724142,0.0,0.0,nan,0.0,1.0,0.0,0.0,990.6269464481371,1.0,overlap_collapse;overlap_collapse;finite_sample_variance_or_clipping,3,-2.67977593861441,0.36893354331904443,7.550132624495785,3,1.0
design_search,0.95,1.1,4000,0.05,0.1,well_specified,1.0,oracle_weighted_fqe_clipped,0.37543061526818255,0.017244302225202266,0.16535469238450354,0.006597669296262827,-10.889901321667177,-11.831586406340458,0.941685084673279,1.7487685342224328,3.203518416330784,4.455683334227808,0.0699269305130998,0.4187460115391231,0.020978385078870176,0.4058875585304806,0.021108038392432846,0.0003759262546405272,0.05153998552774149,1.0,1.7320508071701581,10.474953362266604,2.618302272799514,4.958162870480088,10.474132749330584,1000.0000003453011,0.25000000008632534,0.01,0.40286604563395184,7.66038543337869,14.182245607096439,0.6440745674969027,0.701044887891824,0.6067084266761157,11107.299251587223,0.0,stable,3,0.941685084673279,2.3167476176346633,3.203518416330784,0,0.0
design_search,0.95,1.1,4000,0.05,0.1,well_specified,1.0,standard_fqe,0.6912867478145738,0.030911185095236576,0.6333293242572211,0.0213195483272877,-10.068894395132721,-11.831586406340458,1.7626920112077376,2.2444662223752965,6.302908725378232,8.358378049580756,0.12061941985600212,1.1355063968083885,0.043868152121487564,0.7473143809572879,0.03865383991006091,0.000397401074166435,0.11714308015215212,1.0,0.0,1.0,1.0,1.0,1.0,4000.0,1.0,0.0,0.0,nan,14.987310228129324,nan,1.6747361547416626,0.9583116416327586,27684.706965187608,0.0,stable,3,1.7626920112077376,3.195825599002653,6.302908725378232,0,0.0
design_search,0.95,1.35,1000,0.05,0.1,misspecified_affine,1.0,estimated_weighted_fqe,2232.99039869835,45.509614112771295,6648.101898938684,85.33609336928994,98.81752205439373,-11.831586406340458,110.64910846073417,110.64910846073417,14068.98304139283,15093.870218129023,99.80370806039768,8268.811940788133,104.89304122285273,2295.266232103434,53.683696931817025,29.245555933919324,110.47023889011102,1.0,2.3038189554005597,22.966947004641526,2.6335063426690497,5.7872026774330925,11.91162024044372,160.045111312717,0.160045111312717,0.0,0.0,nan,11.80575847819779,0.3778371387560151,1.595977031365859,0.8608794096850287,781.1428662618233,0.6666666666666666,finite_sample_variance_or_clipping;overlap_collapse;finite_sample_variance_or_clipping,3,110.64910846073417,1825.7578382375148,14068.98304139283,2,0.6666666666666666
design_search,0.95,1.35,1000,0.05,0.1,misspecified_affine,1.0,estimated_weighted_fqe_clip95,3976.312933276557,55.31850982238973,9063.482517109487,95.54215942487171,118.22610856136755,-11.831586406340458,130.05769496770802,130.05769496770802,18289.802501007376,19275.36595732634,110.80442436185659,11210.090820371419,119.35536943903638,4057.5830750066502,65.56082631126907,27.8145030596117,116.22697388570423,1.0,1.8360494650061296,7.076070649221016,3.215872925775013,7.0716064777079986,7.076070649221016,231.70529681121266,0.23170529681121269,0.05000000000000001,0.0,8.599953353725937,11.924867425948102,0.3732054523391224,1.652008228685718,0.8737223679944717,958.6374080505911,0.3333333333333333,metric_instability_unclassified,3,130.05769496770802,1374.7984806939949,18289.802501007376,1,0.3333333333333333
design_search,0.95,1.35,1000,0.05,0.1,misspecified_affine,1.0,estimated_weighted_fqe_clip99_ess40,2472.8343552196143,10.214283114376375,3446.226805978096,29.679939113049272,55.9679868921636,-11.831586406340458,67.79957329850406,67.79957329850406,4984.555591886159,5110.31504198793,20.0838596661972,4063.8680088577457,30.451951804035442,2487.568443874689,12.160578428066266,19.9814322248746,19.982241683048255,1.0,1.2247448705188038,7.376297118168375,1.9776741815608514,3.8034093018904946,7.373371684230887,400.00000034206056,0.4000000003420605,0.01,0.43272668505087486,17.801353245244808,16.475339642020632,0.4161356202509879,1.722707602054734,0.8923445038768646,1203.9779471681793,0.0,stable,3,67.79957329850406,387.77345242693394,4984.555591886159,0,0.0
design_search,0.95,1.35,1000,0.05,0.1,misspecified_affine,1.0,estimated_weighted_fqe_clipped,2017.570527671227,21.543838631609404,4228.880425039851,47.103611704636855,70.1765664309792,-11.831586406340458,82.00815283731964,82.00815283731964,7546.9767990776845,7913.8222211338725,43.53283201126279,5124.409294786244,53.614107132726645,2051.3049576922344,25.69900417160827,22.91152117724103,43.862790606595404,0.9999999999999999,1.7320508071633702,10.017445866490771,2.3826400878652607,4.964619457449015,10.01330867813744,250.00000008779477,0.25000000008779477,0.01,0.0,17.801353245244808,16.042581751823423,0.4161356202509874,1.6459998396794864,0.8643360067051171,976.9076790628237,0.0,stable,3,82.00815283731964,821.6396672885049,7546.9767990776845,0,0.0
design_search,0.95,1.35,1000,0.05,0.1,misspecified_affine,1.0,oracle_weighted_fqe,9770541430510.182,244142345301.23508,4604266496737.06,155355040280.3639,4028574.074701732,-11.831586406340458,4028585.906288138,4028585.906288138,48688330536290.15,58328330797186.37,571294205914.7104,5038633349916.272,226029564081.91183,10530424400895.951,302941470116.64594,954822488394.4156,477415672878.79266,1.0,9.008653217028273,169.7397469919098,3.231847219685404e-08,0.00013552162020438483,31.97925123426954,12.826944406603475,0.012826944406603478,0.0,0.0,nan,0.0,1.0,0.0,0.0,296.9782211839429,1.0,overlap_collapse;overlap_collapse;finite_sample_variance_or_clipping,3,4028585.906288138,32458826131946.74,48688330536290.15,3,1.0
design_search,0.95,1.35,1000,0.05,0.1,misspecified_affine,1.0,oracle_weighted_fqe_clipped,780.9611238632798,4.012383486396392,1289.1799693065248,17.601794378747513,26.800708610245508,-11.831586406340458,38.632295016585964,38.632295016585964,1665.086473239019,1731.7371875428853,8.672036577692596,1451.9810497875735,15.3447950714187,785.3627516317097,4.697012802053683,21.648988700615774,7.803146175014242,1.0,3.5231146848183155,30.559610170300157,0.5000000355124323,0.5001029798804791,30.510764529897184,74.89755846603747,0.07489755846603746,0.01,0.5,12.829747260225204,16.216578415960253,0.8572027394879848,1.0177553082428201,0.46813825321484365,994.5962078399313,1.0,overlap_collapse,3,38.632295016585964,172.63225499048613,1665.086473239019,3,1.0
design_search,0.95,1.35,1000,0.05,0.1,misspecified_affine,1.0,standard_fqe,13949.086011508045,10.470696458966088,11525.997664873854,25.72641736747958,95.26689048360608,-11.831586406340458,107.09847688994655,107.09847688994655,11666.73868168716,11694.957449951411,11.856622300287809,12942.682161818628,24.049286862456437,13934.026437121598,11.699726352943637,14.41601179023497,33.03431920231849,1.0,0.0,1.0,1.0,1.0,1.0,1000.0,1.0,0.0,0.0,nan,16.90269955095246,nan,1.9377391335546426,0.9871730555933965,1918.185696253895,0.0,stable,3,107.09847688994655,196.65492954074423,11666.73868168716,0,0.0
design_search,0.95,1.35,1000,0.05,0.1,well_specified,1.0,estimated_weighted_fqe,2.433654652265502e+25,1.3599858432743016e+24,5.040393785736406e+25,1.0174555932508354e+24,-10324061600243.986,-11.831586406340458,-10324061600232.154,10324061600232.154,3.1970577160110634e+26,4.0378515565666926e+26,5.331772293481403e+24,3.155952262606334e+26,7.252189425077127e+24,2.584645787301415e+25,1.704844633081357e+24,8.422353045431773e+25,8.55842525288196e+24,1.0,2.3038189554005597,22.966947004641526,2.6335063426690497,5.7872026774330925,11.91162024044372,160.045111312717,0.160045111312717,0.0,0.0,nan,11.80575847819779,0.3778371387560151,1.595977031365859,0.8608794096850287,86033.68739531051,1.0,finite_sample_variance_or_clipping;overlap_collapse;finite_sample_variance_or_clipping,3,-10324061600232.154,2.131195236757182e+26,3.1970577160110634e+26,3,1.0
design_search,0.95,1.35,1000,0.05,0.1,well_specified,1.0,estimated_weighted_fqe_clip95,5.845097901963718e+26,3.2364268474621413e+25,9.877365539386397e+26,1.990237384652619e+25,-50387225392487.66,-11.831586406340458,-50387225392475.82,50387225392475.82,7.616581599718114e+27,9.627187969781886e+27,1.2719089767037411e+26,6.889074643037548e+27,1.580156921812538e+26,6.232047515484785e+26,4.066822657823523e+25,1.9626716723511022e+27,1.9861346569250227e+26,1.0,1.8360494650061296,7.076070649221016,3.215872925775013,7.0716064777079986,7.076070649221016,231.70529681121266,0.23170529681121269,0.05000000000000001,0.0,8.599953353725937,11.924867425948102,0.3732054523391224,1.652008228685718,0.8737223679944717,104129.96617394814,1.0,metric_instability_unclassified,3,-50387225392475.82,5.077709116965954e+27,7.616581599718114e+27,3,1.0
design_search,0.95,1.35,1000,0.05,0.1,well_specified,1.0,estimated_weighted_fqe_clip99_ess40,36530.59148694303,1720.398592684648,150267.36770198602,2938.8710309075905,-391.77318970552716,-11.831586406340458,-379.94160329918674,379.94160329918674,419745.7312426804,520429.16400973225,6490.302797868396,223923.37415300382,4963.252837512481,39662.75754422948,2161.7381237718505,948.5132616696425,7837.135937131429,1.0,1.2247448705188038,7.376297118168375,1.9776741815608514,3.8034093018904946,7.373371684230887,400.00000034206056,0.4000000003420605,0.01,0.43272668505087486,17.801353245244808,16.475339642020632,0.4161356202509879,1.722707602054734,0.8923445038768646,129581.27112976299,0.6666666666666666,metric_instability_unclassified,3,-379.94160329918674,275390.1093251238,419745.7312426804,2,0.6666666666666666
design_search,0.95,1.35,1000,0.05,0.1,well_specified,1.0,estimated_weighted_fqe_clipped,1012060238660994.9,54044664283316.59,3442382168826250.5,69023458728410.76,-65492216.77124289,-11.831586406340458,-65492204.93965647,65492204.93965647,1.2867672549019674e+16,1.617379136616573e+16,210476067908452.84,1.0628734679874468e+16,240980629914385.38,1084089585594020.9,67888017936872.56,1226346207546174.5,310918946961707.06,0.9999999999999999,1.7320508071633702,10.017445866490771,2.3826400878652607,4.964619457449015,10.01330867813744,250.00000008779477,0.25000000008779477,0.01,0.0,17.801353245244808,16.042581751823423,0.4161356202509874,1.6459998396794864,0.8643360067051171,107323.29704745107,1.0,metric_instability_unclassified,3,-65492204.93965647,8578443641161712.0,1.2867672549019674e+16,3,1.0
design_search,0.95,1.35,1000,0.05,0.1,well_specified,1.0,oracle_weighted_fqe,1.486607318154253e+24,6.56369613437424e+22,4.871803868386247e+24,1.0316008451929347e+23,-661974456637.6755,-11.831586406340458,-661974456625.8439,661974456633.8926,1.258950399490915e+24,8.046326684441516e+24,2.209201804634414e+23,1.3795646756071829e+25,3.28772283873251e+23,1.675939737339934e+24,8.652426424499829e+22,2.901555317332124e+24,5.199172716512123e+23,1.0,9.008653217028273,169.7397469919098,3.231847219685404e-08,0.00013552162020438483,31.97925123426954,12.826944406603475,0.012826944406603478,0.0,0.0,nan,0.0,1.0,0.0,0.0,1001.6433513572816,1.0,overlap_collapse;finite_sample_variance_or_clipping,3,-661974456625.8439,8.207402182658341e+23,1.258950399490915e+24,3,1.0
design_search,0.95,1.35,1000,0.05,0.1,well_specified,1.0,oracle_weighted_fqe_clipped,28.13927704808317,1.3869777397767322,173.29718858733125,3.4774994493686258,-9.359478318305852,-11.831586406340458,2.472108088034607,14.813793757464836,327.7897703914191,411.8019396147542,5.219547532793103,211.2506480533652,4.692500847398314,28.10559987962756,1.560387754977432,0.08846301904008491,6.702378545155856,1.0,3.5231146848183155,30.559610170300157,0.5000000355124323,0.5001029798804791,30.510764529897184,74.89755846603747,0.07489755846603746,0.01,0.5,12.829747260225204,16.216578415960253,0.8572027394879848,1.0177553082428201,0.46813825321484365,92394.7269755081,1.0,overlap_collapse,3,2.472108088034607,321.6784519924931,327.7897703914191,3,1.0
design_search,0.95,1.35,1000,0.05,0.1,well_specified,1.0,standard_fqe,20.22915487398241,0.8293263881287708,75.17688947034513,1.3517857697209685,-13.9626935206444,-11.831586406340458,-2.1311071143039437,11.874624969592427,211.56845950415936,255.09528861073713,2.908953549615067,96.45456478603127,1.9770519880862878,21.17041743808554,0.9873569594305445,0.012957845397636237,3.3158364096085466,1.0,0.0,1.0,1.0,1.0,1.0,1000.0,1.0,0.0,0.0,nan,16.90269955095246,nan,1.9377391335546426,0.9871730555933965,183871.7599547181,0.0,stable,3,-2.1311071143039437,207.02684197152246,211.56845950415936,0,0.0
design_search,0.95,1.35,4000,0.05,0.1,misspecified_affine,1.0,estimated_weighted_fqe,893.1988117480087,17.959882954145055,2579.798007921154,38.34447475921069,52.499448755285194,-11.831586406340458,64.33103516162566,64.33103516162566,5398.1396866519435,5841.288003927868,41.00945745218046,3208.196415769153,44.47564401800506,916.9581912297521,21.531668211239644,28.79149943081894,43.95842760843237,1.0,2.4358228756200133,25.66261304230268,2.7162958448556584,5.809900854325942,12.78601800684997,577.1348202058846,0.14428370505147114,0.0,0.0,nan,11.73702107100222,0.261031833366318,1.6001220825123268,0.9270329132867725,718.6067120939598,1.0,overlap_collapse,3,64.33103516162566,1259.657601685627,5398.1396866519435,3,1.0
design_search,0.95,1.35,4000,0.05,0.1,misspecified_affine,1.0,estimated_weighted_fqe_clip95,2735.0363587837387,37.20389342974415,5877.154180014655,65.4269241076771,90.22783601108824,-11.831586406340458,102.0594224174287,102.0594224174287,12131.089644398655,12836.616224147287,76.08342547533528,7295.503165119918,80.17204715636375,2783.913062296062,44.30010187310507,28.013849183026,78.95678952632142,1.0,1.9180820629800615,7.328441021300347,3.4261829688155294,7.3273723858542965,7.328441021300347,858.736803053222,0.21468420076330552,0.05000000000000001,0.0,8.39644810332617,11.87435509684883,0.25643735263915773,1.6599406831703984,0.9369270420468676,910.3467182170319,0.0,stable,3,102.0594224174287,1714.963940219508,12131.089644398655,0,0.0
design_search,0.95,1.35,4000,0.05,0.1,misspecified_affine,1.0,estimated_weighted_fqe_clip99_ess40,1789.160487673905,3.6037625633563066,1771.332289934108,14.702281569700537,30.101140223245647,-11.831586406340458,41.93272662958611,41.93272662958611,1998.927111951767,2027.825543833839,6.057631457831955,2070.9516818928864,12.60177094748451,1789.6622131816828,4.20789365985861,19.99221661252753,7.014945391343744,1.0,1.2247448707673647,7.507555785747133,1.9606418387620035,3.661591133904434,7.507240807557928,1600.0000009785806,0.4000000002446451,0.01,0.4676515259469549,18.53622761168894,16.819449411140457,0.28726510203405725,1.7391282119613838,0.9453803654312894,1276.8399431882833,0.0,stable,3,41.93272662958611,240.5735493601676,1998.927111951767,0,0.0
design_search,0.95,1.35,4000,0.05,0.1,misspecified_affine,1.0,estimated_weighted_fqe_clipped,1122.9781464719938,7.360589564939358,1752.5925439371185,20.990699872234597,34.75726059440731,-11.831586406340458,46.58884700074777,46.58884700074777,2703.7001900764476,2817.1529740090496,14.368557900058713,2104.271220532023,20.971043565072463,1131.184105701395,8.762789594627744,22.643038028606853,13.763811275739647,1.0,1.732050807193054,10.20307365275215,2.3585527173747898,4.764058280203636,10.20262820632496,1000.0000003254727,0.2500000000813682,0.01,0.0,18.53622761168894,16.45474981933396,0.28726510203405725,1.665979014945288,0.9309880977979011,1015.8083087464738,0.0,stable,3,46.58884700074777,533.1795252173627,2703.7001900764476,0,0.0
design_search,0.95,1.35,4000,0.05,0.1,misspecified_affine,1.0,oracle_weighted_fqe,10.913035663375524,0.6231869076869468,1451.3272198868908,29.036752649090445,-0.030831696934521684,-11.831586406340458,11.800754709405936,11.800754709405936,140.07594174515387,175.80801333274493,2.275899625762643,495.33019076150003,11.40775393721419,10.839965528086372,0.7169601966371433,283.2626043396558,4.331303900932468,1.0,13.550782189287055,655.6144893284987,2.0914648033424402e-08,0.00015819183726832787,28.330038340712942,25.468230997837008,0.006367057749459251,0.0,0.0,nan,0.0,1.0,0.0,0.0,218.93782388577327,1.0,overlap_collapse,3,11.800754709405936,0.8181300335874888,140.07594174515387,3,1.0
design_search,0.95,1.35,4000,0.05,0.1,misspecified_affine,1.0,oracle_weighted_fqe_clipped,666.7726619465059,2.1305819922335645,921.958659440606,13.30761643657533,18.649105636579122,-11.831586406340458,30.480692042919582,30.480692042919582,1021.7903115766863,1050.9847372095708,4.575775374486518,1029.7089971922906,10.48126628778684,668.9236951960225,2.479647406919198,21.65198863772062,3.954837833016926,1.0,3.522269640068686,30.75475810473007,0.5000000223900501,0.5001924173155389,30.750298200788524,299.3036934076053,0.07482592335190132,0.01,0.5,13.843848355221425,16.541255280396143,0.6083895342604388,1.022136734550119,0.718191672240045,952.1940645403965,1.0,overlap_collapse,3,30.480692042919582,92.7177241613856,1021.7903115766863,3,1.0
design_search,0.95,1.35,4000,0.05,0.1,misspecified_affine,1.0,standard_fqe,13798.993644648874,10.998208292290007,11153.774221453494,20.992180708761413,93.10188484226778,-11.831586406340458,104.93347124860823,104.93347124860823,11029.888471766273,11036.975473050443,6.781434100024657,12493.23205489364,15.745488565081965,13785.028961595855,12.573191370926802,14.300574785843317,29.897303456547473,1.0,0.0,1.0,1.0,1.0,1.0,4000.0,1.0,0.0,0.0,nan,17.226719857351572,nan,1.9405509221177564,0.993632942250541,1983.5530653388594,0.0,stable,3,104.93347124860823,18.855083483783137,11029.888471766273,0,0.0
design_search,0.95,1.35,4000,0.05,0.1,well_specified,1.0,estimated_weighted_fqe,10.315631649596382,0.5239317029824608,30.81341424050635,0.6830585304215472,-17.157865803881275,-11.831586406340458,-5.326279397540817,8.016161222257475,112.31111052074402,147.40660113047707,2.062607978141027,40.34889574127588,1.0436798600610384,10.014327205603056,0.5631315172095588,0.007982131813124035,2.190670589684904,1.0,2.4358228756200133,25.66261304230268,2.7162958448556584,5.809900854325942,12.78601800684997,577.1348202058846,0.14428370505147114,0.0,0.0,nan,11.73702107100222,0.261031833366318,1.6001220825123268,0.9270329132867725,84745.06161007246,1.0,overlap_collapse;overlap_collapse;finite_sample_variance_or_clipping,3,-5.326279397540817,83.94185830007625,112.31111052074402,3,1.0
design_search,0.95,1.35,4000,0.05,0.1,well_specified,1.0,estimated_weighted_fqe_clip95,7.28232700778518,0.3623359927703694,16.956985440784937,0.39142617724417245,-17.55309901189352,-11.831586406340458,-5.721512605553059,6.628866061752501,77.93115519855768,102.06851971711144,1.418520950964509,23.360110230960615,0.6327590666107389,7.098815355194561,0.3896705247063695,0.0067792049644250065,1.4451631049701505,1.0,1.9180820629800615,7.328441021300347,3.4261829688155294,7.3273723858542965,7.328441021300347,858.736803053222,0.21468420076330552,0.05000000000000001,0.0,8.39644810332617,11.87435509684883,0.25643735263915773,1.6599406831703984,0.9369270420468676,103490.41897378117,0.3333333333333333,metric_instability_unclassified,3,-5.721512605553059,45.19544870305511,77.93115519855768,1,0.3333333333333333
