Larsvanderlaan/rl-eval-kit/submission_bundles/neurips_bellman/fqe_stationary_weighting/code/FQE_neurips/results/design_search_results.csv
study_stage,gamma,shift,sample_size,process_noise_sd,behavior_action_sd,feature_regime,seed,estimator,target_q_mse,target_q_mse_se,behavior_q_mse,behavior_q_mse_se,policy_value_estimate,policy_value_true,policy_value_error,policy_value_absolute_error,policy_value_squared_error,initial_v_mse,initial_v_mse_se,behavior_v_mse,behavior_v_mse_se,target_v_mse,target_v_mse_se,behavior_bellman_residual_mse,target_bellman_residual_mse,weight_mean,weight_std,weight_max,weight_q90,weight_q95,weight_q99,effective_sample_size,effective_sample_size_fraction,fraction_clipped,chosen_uniform_mix,clip_level,oracle_log_ratio_rmse,oracle_estimated_weight_corr,oracle_estimated_weight_mae,oracle_estimated_weight_rel_mse,weighted_design_condition_number,unstable_run_flag,unstable_reason
design_search,0.95,0.0,1000,0.05,0.1,well_specified,0,standard_fqe,0.010013608063523933,4.5369562478771526e-05,0.009950526238888396,4.4416383343145756e-05,-11.714636114650546,-11.831586406340458,0.11695029168991233,0.11695029168991233,0.013677370726355578,0.016300737312559547,0.00019977853684876576,0.009946515829521446,4.852629959901266e-05,0.009885839078086925,4.6160464015562714e-05,0.00012782700371471344,0.00012713005474976734,1.0,0.0,1.0,1.0,1.0,1.0,1000.0,1.0,0.0,0.0,nan,0.0,1.0,0.0,0.0,4474.673803172487,0.0,stable
design_search,0.95,0.0,1000,0.05,0.1,well_specified,0,oracle_weighted_fqe,0.010013608063523933,4.5369562478771526e-05,0.009950526238888396,4.4416383343145756e-05,-11.714636114650546,-11.831586406340458,0.11695029168991233,0.11695029168991233,0.013677370726355578,0.016300737312559547,0.00019977853684876576,0.009946515829521446,4.852629959901266e-05,0.009885839078086925,4.6160464015562714e-05,0.00012782700371471344,0.00012713005474976734,1.0,0.0,1.0,1.0,1.0,1.0,1000.0,1.0,0.0,0.0,nan,0.0,1.0,0.0,0.0,4474.673803172487,0.0,stable
design_search,0.95,0.0,1000,0.05,0.1,well_specified,0,oracle_weighted_fqe_clipped,0.010013608063523933,4.5369562478771526e-05,0.009950526238888396,4.4416383343145756e-05,-11.714636114650546,-11.831586406340458,0.11695029168991233,0.11695029168991233,0.013677370726355578,0.016300737312559547,0.00019977853684876576,0.009946515829521446,4.852629959901266e-05,0.009885839078086925,4.6160464015562714e-05,0.00012782700371471344,0.00012713005474976734,1.0,0.0,1.0,1.0,1.0,1.0,1000.0,1.0,0.0,0.0,1.0,0.0,1.0,0.0,0.0,4474.673803172487,0.0,stable
design_search,0.95,0.0,1000,0.05,0.1,well_specified,0,estimated_weighted_fqe,0.009755330580105245,4.047744581326944e-05,0.009695664611934666,3.944368763075149e-05,-11.716883738566235,-11.831586406340458,0.11470266777422289,0.11470266777422289,0.01315670199452375,0.015418333507381216,0.0001776125892274558,0.009687048743156408,4.2582448168929255e-05,0.0096394249883036,4.108151913292274e-05,0.00012106287249607395,0.00012242100312805467,1.0,0.16140576686885466,1.4179879845107737,1.18558755008644,1.2346802312511047,1.3382271346891734,974.6096434598752,0.9746096434598752,0.0,0.0,nan,0.17353709562539893,nan,0.1281358179594288,0.02605182157852306,3971.638252945794,0.0,stable
design_search,0.95,0.0,1000,0.05,0.1,well_specified,0,estimated_weighted_fqe_clipped,0.009769006061066307,4.139346391324702e-05,0.009708446225553736,4.033374305174181e-05,-11.716581067352946,-11.831586406340458,0.11500533898751186,0.11500533898751186,0.013226227995632516,0.01555463016141469,0.00018157377191149816,0.009699664435904054,4.357448930234842e-05,0.009651158907577765,4.194451709164326e-05,0.00012238171695478395,0.00012366192962005095,1.0,0.160564443466437,1.3387604995203393,1.1860600787679265,1.235172326349175,1.3387439030972734,974.8670115736626,0.9748670115736626,0.01,0.0,1.3381203592279414,0.17297992148613084,nan,0.12782158085856285,0.025780940505686644,3971.7894426929774,0.0,stable
design_search,0.95,0.0,1000,0.05,0.1,well_specified,0,estimated_weighted_fqe_clip95,0.009767481625261342,4.2486969283783214e-05,0.009705950104635316,4.139972918032454e-05,-11.716114164969598,-11.831586406340458,0.11547224137085976,0.11547224137085976,0.013333838527210097,0.015734630461821823,0.00018596149193815615,0.009696742310645873,4.469417083646107e-05,0.009646947609284178,4.2884883751627446e-05,0.00012455190328773672,0.00012573125963973416,1.0,0.15647954265063094,1.2383686463554675,1.189129308443462,1.2382944549877002,1.2383686463554675,976.0993796708432,0.9760993796708431,0.05,0.0,1.2345817176671632,0.1699013596172793,nan,0.1257859503271647,0.024485847268150628,3973.380401002033,0.0,stable
design_search,0.95,0.0,1000,0.05,0.1,well_specified,0,estimated_weighted_fqe_clip99_ess40,0.009769006061066307,4.139346391324702e-05,0.009708446225553736,4.033374305174181e-05,-11.716581067352946,-11.831586406340458,0.11500533898751186,0.11500533898751186,0.013226227995632516,0.01555463016141469,0.00018157377191149816,0.009699664435904054,4.357448930234842e-05,0.009651158907577765,4.194451709164326e-05,0.00012238171695478395,0.00012366192962005095,1.0,0.160564443466437,1.3387604995203393,1.1860600787679265,1.235172326349175,1.3387439030972734,974.8670115736626,0.9748670115736626,0.01,0.0,1.3381203592279414,0.17297992148613084,nan,0.12782158085856285,0.025780940505686644,3971.7894426929774,0.0,stable
design_search,0.95,0.0,1000,0.05,0.1,well_specified,1,standard_fqe,0.0035855642101135453,2.5479650561092703e-05,0.0036031934117718833,2.6737889427427208e-05,-11.860192438529328,-11.831586406340458,-0.028606032188870145,0.028606032188870145,0.0008183050775906748,0.003027396435799879,7.239465211154097e-05,0.0034828114777087946,2.82641346585902e-05,0.0034637055462636225,2.9170196180345488e-05,0.0003071814296208695,0.000306599336490255,1.0,0.0,1.0,1.0,1.0,1.0,1000.0,1.0,0.0,0.0,nan,0.0,1.0,0.0,0.0,4575.980869350114,0.0,stable
design_search,0.95,0.0,1000,0.05,0.1,well_specified,1,oracle_weighted_fqe,0.0035855642101135453,2.5479650561092703e-05,0.0036031934117718833,2.6737889427427208e-05,-11.860192438529328,-11.831586406340458,-0.028606032188870145,0.028606032188870145,0.0008183050775906748,0.003027396435799879,7.239465211154097e-05,0.0034828114777087946,2.82641346585902e-05,0.0034637055462636225,2.9170196180345488e-05,0.0003071814296208695,0.000306599336490255,1.0,0.0,1.0,1.0,1.0,1.0,1000.0,1.0,0.0,0.0,nan,0.0,1.0,0.0,0.0,4575.980869350114,0.0,stable
design_search,0.95,0.0,1000,0.05,0.1,well_specified,1,oracle_weighted_fqe_clipped,0.0035855642101135453,2.5479650561092703e-05,0.0036031934117718833,2.6737889427427208e-05,-11.860192438529328,-11.831586406340458,-0.028606032188870145,0.028606032188870145,0.0008183050775906748,0.003027396435799879,7.239465211154097e-05,0.0034828114777087946,2.82641346585902e-05,0.0034637055462636225,2.9170196180345488e-05,0.0003071814296208695,0.000306599336490255,1.0,0.0,1.0,1.0,1.0,1.0,1000.0,1.0,0.0,0.0,1.0,0.0,1.0,0.0,0.0,4575.980869350114,0.0,stable
design_search,0.95,0.0,1000,0.05,0.1,well_specified,1,estimated_weighted_fqe,0.0026581052371008706,1.751989749053359e-05,0.0026776654683571253,2.0271068048811526e-05,-11.855552632862276,-11.831586406340458,-0.0239662265218179,0.0239662265218179,0.0005743800136950878,0.002754422785113319,7.200925573608741e-05,0.002603614947702141,1.8439768329265608e-05,0.002595231584532847,1.945143648720663e-05,0.00023798991556942938,0.00024181626256841816,1.0,0.09294992547042083,1.6190051085039918,1.091746296593375,1.1224273200051689,1.3463236006677057,991.4343161961395,0.9914343161961395,0.0,0.0,nan,0.09618520664886483,nan,0.06209469559171426,0.008639688644956787,3997.3297284586497,0.0,stable
design_search,0.95,0.0,1000,0.05,0.1,well_specified,1,estimated_weighted_fqe_clipped,0.002668896476788181,1.7438577656664444e-05,0.002688800806235192,2.019346004376893e-05,-11.85492582678893,-11.831586406340458,-0.02333942044847248,0.02333942044847248,0.0005447285468705754,0.002674479047878556,6.944577588031812e-05,0.002610791891948029,1.8000141689455657e-05,0.0026032014325005123,1.9113777305244176e-05,0.0002337125752339614,0.00023714099398531463,0.9999999999999999,0.08838352079896784,1.3476579050025868,1.0928282963558487,1.1235397268870875,1.3476538101724775,992.2489020899671,0.9922489020899672,0.01,0.0,1.3462732118724345,0.09355715067629307,nan,0.061119818622625596,0.0078116467488215805,3934.1380461511553,0.0,stable
design_search,0.95,0.0,1000,0.05,0.1,well_specified,1,estimated_weighted_fqe_clip95,0.0026870949756322275,1.7308966872177046e-05,0.002708414969877594,2.0129132489818876e-05,-11.854211987538898,-11.831586406340458,-0.02262558119844016,0.02262558119844016,0.0005119169245672088,0.0025855089201891166,6.622394050804196e-05,0.002625202947094559,1.7483293551095753e-05,0.00261909780345898,1.8776540233710195e-05,0.00022465298164249962,0.00022645644778582653,1.0,0.07817363917171864,1.1281919325557839,1.0973533361684635,1.1281825795897489,1.1281919325557839,993.9260010620496,0.9939260010620496,0.05,0.0,1.1223853109663269,0.08622114791416434,nan,0.05720122443222964,0.0061111178613500634,3795.8927966531865,0.0,stable
design_search,0.95,0.0,1000,0.05,0.1,well_specified,1,estimated_weighted_fqe_clip99_ess40,0.002668896476788181,1.7438577656664444e-05,0.002688800806235192,2.019346004376893e-05,-11.85492582678893,-11.831586406340458,-0.02333942044847248,0.02333942044847248,0.0005447285468705754,0.002674479047878556,6.944577588031812e-05,0.002610791891948029,1.8000141689455657e-05,0.0026032014325005123,1.9113777305244176e-05,0.0002337125752339614,0.00023714099398531463,0.9999999999999999,0.08838352079896784,1.3476579050025868,1.0928282963558487,1.1235397268870875,1.3476538101724775,992.2489020899671,0.9922489020899672,0.01,0.0,1.3462732118724345,0.09355715067629307,nan,0.061119818622625596,0.0078116467488215805,3934.1380461511553,0.0,stable
design_search,0.95,0.0,1000,0.05,0.1,well_specified,2,standard_fqe,0.013972711916959032,0.00024157669534435977,0.014823548701718488,0.00029897682935007565,-11.660094483907319,-11.831586406340458,0.17149192243313927,0.17149192243313927,0.029409479459813856,0.051339949633373634,0.0010046816561009064,0.014338775360596188,0.0002612184531190997,0.014213351918228303,0.00025407607098843166,0.0010995336697542431,0.000980692209027848,1.0,0.0,1.0,1.0,1.0,1.0,1000.0,1.0,0.0,0.0,nan,0.0,1.0,0.0,0.0,2999.613862088343,0.0,stable
design_search,0.95,0.0,1000,0.05,0.1,well_specified,2,oracle_weighted_fqe,0.013972711916959032,0.00024157669534435977,0.014823548701718488,0.00029897682935007565,-11.660094483907319,-11.831586406340458,0.17149192243313927,0.17149192243313927,0.029409479459813856,0.051339949633373634,0.0010046816561009064,0.014338775360596188,0.0002612184531190997,0.014213351918228303,0.00025407607098843166,0.0010995336697542431,0.000980692209027848,1.0,0.0,1.0,1.0,1.0,1.0,1000.0,1.0,0.0,0.0,nan,0.0,1.0,0.0,0.0,2999.613862088343,0.0,stable
design_search,0.95,0.0,1000,0.05,0.1,well_specified,2,oracle_weighted_fqe_clipped,0.013972711916959032,0.00024157669534435977,0.014823548701718488,0.00029897682935007565,-11.660094483907319,-11.831586406340458,0.17149192243313927,0.17149192243313927,0.029409479459813856,0.051339949633373634,0.0010046816561009064,0.014338775360596188,0.0002612184531190997,0.014213351918228303,0.00025407607098843166,0.0010995336697542431,0.000980692209027848,1.0,0.0,1.0,1.0,1.0,1.0,1000.0,1.0,0.0,0.0,1.0,0.0,1.0,0.0,0.0,2999.613862088343,0.0,stable
design_search,0.95,0.0,1000,0.05,0.1,well_specified,2,estimated_weighted_fqe,0.018867567734451363,0.00024629833835970076,0.01976777795162924,0.00030203103212597275,-11.68530092511153,-11.831586406340458,0.1462854812289276,0.1462854812289276,0.021399442018378928,0.047272742047403504,0.0010087437894644828,0.018988390250218562,0.00025606915684066767,0.019022352586061175,0.0002548517803042672,0.0012920430750296115,0.0012468180258166108,1.0,0.20070129835921888,2.6336925633773043,1.2233097534287585,1.2892622031482277,1.5165912909734827,961.2787211043673,0.9612787211043673,0.0,0.0,nan,0.2050061595311074,nan,0.1487126958576643,0.04028101116307619,3954.4268908070594,0.0,stable
design_search,0.95,0.0,1000,0.05,0.1,well_specified,2,estimated_weighted_fqe_clipped,0.018724385112741247,0.000246109252045944,0.019675196272678917,0.0003041019401709762,-11.679494827488998,-11.831586406340458,0.15209157885145963,0.15209157885145963,0.023131848357529763,0.04680438100413707,0.001013937092066533,0.018883654124311873,0.0002578466153473073,0.01889133954364571,0.0002527944943861031,0.0012306514289285955,0.001128463506636471,0.9999999999999999,0.18771194244919592,1.5213617530981183,1.2271576937935507,1.2933175979968259,1.5210969210793128,965.9635280720306,0.9659635280720306,0.01,0.0,1.5164623405480677,0.19971819994119314,nan,0.14606809801583262,0.03523577333805023,3510.7349911218394,0.0,stable
design_search,0.95,0.0,1000,0.05,0.1,well_specified,2,estimated_weighted_fqe_clip95,0.018330852802607107,0.0002409309304493732,0.019262946573371444,0.0002975684559552021,-11.678184823689072,-11.831586406340458,0.15340158265138548,0.15340158265138548,0.023532045559949852,0.04627033050132174,0.0009908450473323574,0.0184961643150069,0.0002522210482961934,0.01849463233187071,0.0002469110712831774,0.0011921150999239013,0.0010872645139433925,1.0,0.1773542412048384,1.3003287104697827,1.2338101514934745,1.30020698389142,1.3003287104697827,969.5046887149817,0.9695046887149817,0.05,0.0,1.289152581715903,0.1928087813686421,nan,0.14163021695306469,0.031454526873344,3257.5991068976364,0.0,stable
design_search,0.95,0.0,1000,0.05,0.1,well_specified,2,estimated_weighted_fqe_clip99_ess40,0.018724385112741247,0.000246109252045944,0.019675196272678917,0.0003041019401709762,-11.679494827488998,-11.831586406340458,0.15209157885145963,0.15209157885145963,0.023131848357529763,0.04680438100413707,0.001013937092066533,0.018883654124311873,0.0002578466153473073,0.01889133954364571,0.0002527944943861031,0.0012306514289285955,0.001128463506636471,0.9999999999999999,0.18771194244919592,1.5213617530981183,1.2271576937935507,1.2933175979968259,1.5210969210793128,965.9635280720306,0.9659635280720306,0.01,0.0,1.5164623405480677,0.19971819994119314,nan,0.14606809801583262,0.03523577333805023,3510.7349911218394,0.0,stable
design_search,0.95,0.0,1000,0.05,0.1,misspecified_affine,0,standard_fqe,2.785030704817412,0.040327577154188506,2.6864548456721695,0.03465633466615593,-12.317964813518397,-11.831586406340458,-0.48637840717793956,0.48637840717793956,0.23656395496894958,5.380212407592464,0.1324202161645346,2.5482821244639546,0.033465696204830635,2.5447283637628946,0.034942606941045326,0.33267832130154906,0.3734946673229384,1.0,0.0,1.0,1.0,1.0,1.0,1000.0,1.0,0.0,0.0,nan,0.0,1.0,0.0,0.0,195.5298618647551,0.0,stable
design_search,0.95,0.0,1000,0.05,0.1,misspecified_affine,0,oracle_weighted_fqe,2.785030704817412,0.040327577154188506,2.6864548456721695,0.03465633466615593,-12.317964813518397,-11.831586406340458,-0.48637840717793956,0.48637840717793956,0.23656395496894958,5.380212407592464,0.1324202161645346,2.5482821244639546,0.033465696204830635,2.5447283637628946,0.034942606941045326,0.33267832130154906,0.3734946673229384,1.0,0.0,1.0,1.0,1.0,1.0,1000.0,1.0,0.0,0.0,nan,0.0,1.0,0.0,0.0,195.5298618647551,0.0,stable
design_search,0.95,0.0,1000,0.05,0.1,misspecified_affine,0,oracle_weighted_fqe_clipped,2.785030704817412,0.040327577154188506,2.6864548456721695,0.03465633466615593,-12.317964813518397,-11.831586406340458,-0.48637840717793956,0.48637840717793956,0.23656395496894958,5.380212407592464,0.1324202161645346,2.5482821244639546,0.033465696204830635,2.5447283637628946,0.034942606941045326,0.33267832130154906,0.3734946673229384,1.0,0.0,1.0,1.0,1.0,1.0,1000.0,1.0,0.0,0.0,1.0,0.0,1.0,0.0,0.0,195.5298618647551,0.0,stable
design_search,0.95,0.0,1000,0.05,0.1,misspecified_affine,0,estimated_weighted_fqe,2.971417863268263,0.042946304024548354,2.862818182278659,0.03633486675625983,-12.096632963008009,-11.831586406340458,-0.26504655666755106,0.26504655666755106,0.07024967720132536,5.250640656124601,0.14280425973228353,2.7439200639430927,0.03531656596283242,2.7380028779855277,0.03703731007562344,0.32641130209674724,0.3733349859109448,1.0,0.16140576686885466,1.4179879845107737,1.18558755008644,1.2346802312511047,1.3382271346891734,974.6096434598752,0.9746096434598752,0.0,0.0,nan,0.17353709562539893,nan,0.1281358179594288,0.02605182157852306,206.74838912791074,0.0,stable
design_search,0.95,0.0,1000,0.05,0.1,misspecified_affine,0,estimated_weighted_fqe_clipped,2.968761114066432,0.04294315962736158,2.860239478935737,0.03632623109027763,-12.095545696181702,-11.831586406340458,-0.26395928984124417,0.26395928984124417,0.06967450669349395,5.252773656241721,0.14289493842834733,2.741306517636304,0.03530373880083411,2.7354130763761946,0.03702687838614934,0.32641754177327736,0.3733320785458762,1.0,0.160564443466437,1.3387604995203393,1.1860600787679265,1.235172326349175,1.3387439030972734,974.8670115736626,0.9748670115736626,0.01,0.0,1.3381203592279414,0.17297992148613084,nan,0.12782158085856285,0.025780940505686644,206.72818463815733,0.0,stable
design_search,0.95,0.0,1000,0.05,0.1,misspecified_affine,0,estimated_weighted_fqe_clip95,2.96403264362954,0.042957971423022615,2.8557430074341097,0.03632779096444594,-12.090622851502985,-11.831586406340458,-0.25903644516252733,0.25903644516252733,0.06709987992243903,5.25946251965997,0.14324078737520982,2.736466949089684,0.03529321228963681,2.7306397693082016,0.0370219823683317,0.32643721478716425,0.37330005689086343,1.0,0.15647954265063094,1.2383686463554675,1.189129308443462,1.2382944549877002,1.2383686463554675,976.0993796708432,0.9760993796708431,0.05,0.0,1.2345817176671632,0.1699013596172793,nan,0.1257859503271647,0.024485847268150628,206.4952566974194,0.0,stable
design_search,0.95,0.0,1000,0.05,0.1,misspecified_affine,0,estimated_weighted_fqe_clip99_ess40,2.968761114066432,0.04294315962736158,2.860239478935737,0.03632623109027763,-12.095545696181702,-11.831586406340458,-0.26395928984124417,0.26395928984124417,0.06967450669349395,5.252773656241721,0.14289493842834733,2.741306517636304,0.03530373880083411,2.7354130763761946,0.03702687838614934,0.32641754177327736,0.3733320785458762,1.0,0.160564443466437,1.3387604995203393,1.1860600787679265,1.235172326349175,1.3387439030972734,974.8670115736626,0.9748670115736626,0.01,0.0,1.3381203592279414,0.17297992148613084,nan,0.12782158085856285,0.025780940505686644,206.72818463815733,0.0,stable
design_search,0.95,0.0,1000,0.05,0.1,misspecified_affine,1,standard_fqe,2.473669720512874,0.03292812186719542,2.4695397988194765,0.03653029032894039,-13.127552870985545,-11.831586406340458,-1.2959664646450868,1.2959664646450868,1.679529077484685,6.479689630700818,0.12994809200788127,2.31197487277817,0.034910497570603466,2.2982820152153276,0.03797413172541279,0.3667524367193367,0.3696364164727283,1.0,0.0,1.0,1.0,1.0,1.0,1000.0,1.0,0.0,0.0,nan,0.0,1.0,0.0,0.0,197.00629893877428,0.0,stable
design_search,0.95,0.0,1000,0.05,0.1,misspecified_affine,1,oracle_weighted_fqe,2.473669720512874,0.03292812186719542,2.4695397988194765,0.03653029032894039,-13.127552870985545,-11.831586406340458,-1.2959664646450868,1.2959664646450868,1.679529077484685,6.479689630700818,0.12994809200788127,2.31197487277817,0.034910497570603466,2.2982820152153276,0.03797413172541279,0.3667524367193367,0.3696364164727283,1.0,0.0,1.0,1.0,1.0,1.0,1000.0,1.0,0.0,0.0,nan,0.0,1.0,0.0,0.0,197.00629893877428,0.0,stable
design_search,0.95,0.0,1000,0.05,0.1,misspecified_affine,1,oracle_weighted_fqe_clipped,2.473669720512874,0.03292812186719542,2.4695397988194765,0.03653029032894039,-13.127552870985545,-11.831586406340458,-1.2959664646450868,1.2959664646450868,1.679529077484685,6.479689630700818,0.12994809200788127,2.31197487277817,0.034910497570603466,2.2982820152153276,0.03797413172541279,0.3667524367193367,0.3696364164727283,1.0,0.0,1.0,1.0,1.0,1.0,1000.0,1.0,0.0,0.0,1.0,0.0,1.0,0.0,0.0,197.00629893877428,0.0,stable
design_search,0.95,0.0,1000,0.05,0.1,misspecified_affine,1,estimated_weighted_fqe,2.7585167457513,0.03695299377420412,2.7594646853811824,0.04230832480724466,-12.299977093342582,-11.831586406340458,-0.46839068700212394,0.46839068700212394,0.21938983567032164,5.588938777172769,0.1681190083231576,2.6298879194423415,0.041300888083144666,2.6277309331057035,0.045648419346811166,0.34988421741701076,0.355226012477655,1.0,0.09294992547042083,1.6190051085039918,1.091746296593375,1.1224273200051689,1.3463236006677057,991.4343161961395,0.9914343161961395,0.0,0.0,nan,0.09618520664886483,nan,0.06209469559171426,0.008639688644956787,197.2017802237023,0.0,stable
design_search,0.95,0.0,1000,0.05,0.1,misspecified_affine,1,estimated_weighted_fqe_clipped,2.768790716386787,0.036951497217560865,2.769493651310714,0.042243831823611105,-12.309338913478433,-11.831586406340458,-0.4777525071379749,0.4777525071379749,0.22824745807662075,5.580724664146459,0.16744210686555566,2.639601250387673,0.041272417812531006,2.6372364448468546,0.045587262953153476,0.34989912130511325,0.3552881181650766,0.9999999999999999,0.08838352079896784,1.3476579050025868,1.0928282963558487,1.1235397268870875,1.3476538101724775,992.2489020899671,0.9922489020899672,0.01,0.0,1.3462732118724345,0.09355715067629307,nan,0.061119818622625596,0.0078116467488215805,196.89718115822998,0.0,stable
design_search,0.95,0.0,1000,0.05,0.1,misspecified_affine,1,estimated_weighted_fqe_clip95,2.724348815642569,0.036363065821253586,2.7247928038431604,0.04155007625728638,-12.383966941629588,-11.831586406340458,-0.5523805352891298,0.5523805352891298,0.30512425576630553,5.6096119585085376,0.16346553611962564,2.591657821412537,0.040406067633868656,2.5885420780792407,0.04463930676203606,0.35026950651206007,0.355351905224819,1.0,0.07817363917171864,1.1281919325557839,1.0973533361684635,1.1281825795897489,1.1281919325557839,993.9260010620496,0.9939260010620496,0.05,0.0,1.1223853109663269,0.08622114791416434,nan,0.05720122443222964,0.0061111178613500634,196.1209361613814,0.0,stable
design_search,0.95,0.0,1000,0.05,0.1,misspecified_affine,1,estimated_weighted_fqe_clip99_ess40,2.768790716386787,0.036951497217560865,2.769493651310714,0.042243831823611105,-12.309338913478433,-11.831586406340458,-0.4777525071379749,0.4777525071379749,0.22824745807662075,5.580724664146459,0.16744210686555566,2.639601250387673,0.041272417812531006,2.6372364448468546,0.045587262953153476,0.34989912130511325,0.3552881181650766,0.9999999999999999,0.08838352079896784,1.3476579050025868,1.0928282963558487,1.1235397268870875,1.3476538101724775,992.2489020899671,0.9922489020899672,0.01,0.0,1.3462732118724345,0.09355715067629307,nan,0.061119818622625596,0.0078116467488215805,196.89718115822998,0.0,stable
design_search,0.95,0.0,1000,0.05,0.1,misspecified_affine,2,standard_fqe,1.366018323769294,0.029439831575386894,1.4390903715861614,0.040261408935897476,-12.578417297759671,-11.831586406340458,-0.7468308914192132,0.7468308914192132,0.5577563803780167,5.984184475743978,0.13946391720238271,1.3536464749605985,0.03960739478712717,1.3201847901843313,0.03903417360741441,0.4027581603583088,0.3871175070866841,1.0,0.0,1.0,1.0,1.0,1.0,1000.0,1.0,0.0,0.0,nan,0.0,1.0,0.0,0.0,201.10070986509524,0.0,stable
design_search,0.95,0.0,1000,0.05,0.1,misspecified_affine,2,oracle_weighted_fqe,1.366018323769294,0.029439831575386894,1.4390903715861614,0.040261408935897476,-12.578417297759671,-11.831586406340458,-0.7468308914192132,0.7468308914192132,0.5577563803780167,5.984184475743978,0.13946391720238271,1.3536464749605985,0.03960739478712717,1.3201847901843313,0.03903417360741441,0.4027581603583088,0.3871175070866841,1.0,0.0,1.0,1.0,1.0,1.0,1000.0,1.0,0.0,0.0,nan,0.0,1.0,0.0,0.0,201.10070986509524,0.0,stable
design_search,0.95,0.0,1000,0.05,0.1,misspecified_affine,2,oracle_weighted_fqe_clipped,1.366018323769294,0.029439831575386894,1.4390903715861614,0.040261408935897476,-12.578417297759671,-11.831586406340458,-0.7468308914192132,0.7468308914192132,0.5577563803780167,5.984184475743978,0.13946391720238271,1.3536464749605985,0.03960739478712717,1.3201847901843313,0.03903417360741441,0.4027581603583088,0.3871175070866841,1.0,0.0,1.0,1.0,1.0,1.0,1000.0,1.0,0.0,0.0,1.0,0.0,1.0,0.0,0.0,201.10070986509524,0.0,stable
design_search,0.95,0.0,1000,0.05,0.1,misspecified_affine,2,estimated_weighted_fqe,2.6241967259048975,0.03798834636398225,2.767156587814323,0.04959084780001499,-11.866000935029778,-11.831586406340458,-0.03441452868931982,0.03441452868931982,0.0011843597849080171,5.390179945482323,0.1602382161125501,2.5653460485261026,0.047598832718301794,2.5708240253989487,0.047725818483322566,0.37779819816663235,0.3620394921030844,1.0,0.20070129835921888,2.6336925633773043,1.2233097534287585,1.2892622031482277,1.5165912909734827,961.2787211043673,0.9612787211043673,0.0,0.0,nan,0.2050061595311074,nan,0.1487126958576643,0.04028101116307619,207.96941196723617,0.0,stable
design_search,0.95,0.0,1000,0.05,0.1,misspecified_affine,2,estimated_weighted_fqe_clipped,2.6524650213663317,0.03931234915712827,2.798375540102218,0.05121585661103734,-11.72634298244022,-11.831586406340458,0.10524342390023733,0.10524342390023733,0.011076178274245046,5.446989902387972,0.16816467891127526,2.5988775297241546,0.04975833324103335,2.6056117436899053,0.049640011995695045,0.38537434015294597,0.36882972232222877,0.9999999999999999,0.18771194244919592,1.5213617530981183,1.2271576937935507,1.2933175979968259,1.5210969210793128,965.9635280720306,0.9659635280720306,0.01,0.0,1.5164623405480677,0.19971819994119314,nan,0.14606809801583262,0.03523577333805023,206.00730845038566,0.0,stable
design_search,0.95,0.0,1000,0.05,0.1,misspecified_affine,2,estimated_weighted_fqe_clip95,2.559711756906107,0.039264446513087845,2.7037171292368383,0.05137482188667581,-11.69904621924681,-11.831586406340458,0.1325401870936478,0.1325401870936478,0.01756690119481916,5.496150682653402,0.17076643681456086,2.5107391508406183,0.050083864288866284,2.515497079929162,0.049861521945498075,0.3900860969410378,0.37324803612884433,1.0,0.1773542412048384,1.3003287104697827,1.2338101514934745,1.30020698389142,1.3003287104697827,969.5046887149817,0.9695046887149817,0.05,0.0,1.289152581715903,0.1928087813686421,nan,0.14163021695306469,0.031454526873344,203.9106732077796,0.0,stable
design_search,0.95,0.0,1000,0.05,0.1,misspecified_affine,2,estimated_weighted_fqe_clip99_ess40,2.6524650213663317,0.03931234915712827,2.798375540102218,0.05121585661103734,-11.72634298244022,-11.831586406340458,0.10524342390023733,0.10524342390023733,0.011076178274245046,5.446989902387972,0.16816467891127526,2.5988775297241546,0.04975833324103335,2.6056117436899053,0.049640011995695045,0.38537434015294597,0.36882972232222877,0.9999999999999999,0.18771194244919592,1.5213617530981183,1.2271576937935507,1.2933175979968259,1.5210969210793128,965.9635280720306,0.9659635280720306,0.01,0.0,1.5164623405480677,0.19971819994119314,nan,0.14606809801583262,0.03523577333805023,206.00730845038566,0.0,stable
design_search,0.95,0.0,1000,0.05,0.2,well_specified,0,standard_fqe,0.012778838531033154,5.702115803274275e-05,0.012743727104129078,5.78522059706056e-05,-11.70322909164748,-11.831586406340458,0.12835731469297862,0.12835731469297862,0.016475600235192345,0.019614402330496564,0.0002484468971531159,0.012750241781712003,6.430631349238729e-05,0.012633458064193004,5.918145115435488e-05,0.00013853337277580763,0.00012394301546631118,1.0,0.0,1.0,1.0,1.0,1.0,1000.0,1.0,0.0,0.0,nan,2.7581436473465524,nan,0.8783643985488384,0.5202297036169513,3247.6931521207557,0.0,stable
design_search,0.95,0.0,1000,0.05,0.2,well_specified,0,oracle_weighted_fqe,0.015285457226481312,0.00010790542804476916,0.013996899993244853,0.00011214374245563961,-11.632673041753161,-11.831586406340458,0.19891336458729647,0.19891336458729647,0.03956652661143873,0.04353791999261747,0.0003392230719502982,0.01526711958265266,0.00012323938410244655,0.015276737247576975,0.00011740003914184242,0.00033509323224673515,0.0002710337305512411,1.0,1.0413120512933085,3.7292762225681324,2.6993472503954816,3.1436193564957953,3.4934847140454806,479.7702963830487,0.4797702963830487,0.0,0.0,nan,0.0,1.0,0.0,0.0,3939.378646555133,0.0,stable
design_search,0.95,0.0,1000,0.05,0.2,well_specified,0,oracle_weighted_fqe_clipped,0.015278978627435045,0.00010736590722352413,0.013993807733439499,0.0001116317084910109,-11.633023545122365,-11.831586406340458,0.1985628612180932,0.1985628612180932,0.03942720985511573,0.04339140096624281,0.00033855953076799807,0.01525976150492859,0.00012259741752422546,0.01526894839661232,0.00011675766136779748,0.0003340635435764965,0.0002704088839600619,1.0,1.0395441349541996,3.4977813988915125,2.7026672146644883,3.147485737131852,3.4975945918479576,480.6185733636606,0.4806185733636606,0.01,0.0,3.339817111122666,0.004069528368391144,0.999910372187878,0.002370872121415188,9.45953111266609e-05,3944.0216940388696,0.0,stable
design_search,0.95,0.0,1000,0.05,0.2,well_specified,0,estimated_weighted_fqe,0.009640565724589238,5.925480600956756e-05,0.009768970076516574,6.0739201847748845e-05,-11.699521404165086,-11.831586406340458,0.13206500217537176,0.13206500217537176,0.01744116479958095,0.020961549518113874,0.0002481566329966495,0.009696234652729757,6.78198677073015e-05,0.00959405592894258,6.313345985216669e-05,0.00020492905378999076,0.00014486104571459333,1.0000000000000002,0.510704040851561,2.185663006123159,1.6279171757438353,1.720609749647843,1.8656105554839837,793.1354964507622,0.7931354964507622,0.0,0.0,nan,3.9914702539351143,0.5358831642622507,0.679878134241368,0.3719091235125144,3882.1287981965397,0.0,stable
design_search,0.95,0.0,1000,0.05,0.2,well_specified,0,estimated_weighted_fqe_clipped,0.009606368228943929,5.7270020666750774e-05,0.009732256650989684,5.8818146618535175e-05,-11.70049971148553,-11.831586406340458,0.1310866948549272,0.1310866948549272,0.017183721567988794,0.020581421005617436,0.00024083698364218533,0.009659830415449018,6.562193090845387e-05,0.009559906700154698,6.104586379927356e-05,0.00020175204886229808,0.00014255768341706754,1.0,0.5093139256070404,1.86750342403668,1.629568878034703,1.7223554988220195,1.867501202342252,794.0284771922213,0.7940284771922214,0.01,0.0,1.910815442804265,3.9910706088351016,0.5388110973765033,0.6790627227719553,0.3704831501360188,3883.290763220867,0.0,stable
design_search,0.95,0.0,1000,0.05,0.2,well_specified,0,estimated_weighted_fqe_clip95,0.009720130619895262,5.774349309324924e-05,0.009842246154845023,5.92426986733295e-05,-11.700227737070128,-11.831586406340458,0.13135866927033035,0.13135866927033035,0.01725509999247203,0.02072462392194272,0.00024504283736705374,0.009769008824677707,6.606697966352261e-05,0.009669332315948199,6.138692572031284e-05,0.00020138810883104025,0.00014354925862141503,1.0,0.5058627315664697,1.728124620924061,1.6350272063748734,1.7280999597587117,1.728124620924061,796.2435755776992,0.7962435755776992,0.05,0.0,1.762301178561757,3.990570877011247,0.5413897035841222,0.6789668086956099,0.36935690686300804,3886.422095999895,0.0,stable
design_search,0.95,0.0,1000,0.05,0.2,well_specified,0,estimated_weighted_fqe_clip99_ess40,0.009606368228943929,5.7270020666750774e-05,0.009732256650989684,5.8818146618535175e-05,-11.70049971148553,-11.831586406340458,0.1310866948549272,0.1310866948549272,0.017183721567988794,0.020581421005617436,0.00024083698364218533,0.009659830415449018,6.562193090845387e-05,0.009559906700154698,6.104586379927356e-05,0.00020175204886229808,0.00014255768341706754,1.0,0.5093139256070404,1.86750342403668,1.629568878034703,1.7223554988220195,1.867501202342252,794.0284771922213,0.7940284771922214,0.01,0.0,1.910815442804265,3.9910706088351016,0.5388110973765033,0.6790627227719553,0.3704831501360188,3883.290763220867,0.0,stable
design_search,0.95,0.0,1000,0.05,0.2,well_specified,1,standard_fqe,0.002040752691617091,2.5090127097333477e-05,0.00226107140024222,3.100982463279208e-05,-11.898320101144085,-11.831586406340458,-0.06673369480362723,0.06673369480362723,0.004453386022143664,0.006147749068932916,8.253089972486325e-05,0.0020170063651766203,2.9155799449484244e-05,0.001986323815288426,2.9356129679740638e-05,0.00033232227908320064,0.0002399562521129014,1.0,0.0,1.0,1.0,1.0,1.0,1000.0,1.0,0.0,0.0,nan,3.0195042689014255,nan,0.8761442644877211,0.5190396599489238,3230.9018974579158,0.0,stable
design_search,0.95,0.0,1000,0.05,0.2,well_specified,1,oracle_weighted_fqe,0.005642974599629855,9.138830337558342e-05,0.006887567647667524,0.00013810163389881824,-11.94381716461121,-11.831586406340458,-0.11223075827075135,0.11223075827075135,0.012595743102027823,0.016817058101213322,0.0002004348582226888,0.005365235810027535,7.274680048435548e-05,0.005379224337396934,7.411220376534928e-05,0.0015246048601449307,0.000577069750790303,1.0,1.0388327648555908,3.5931767456024595,2.708078747821688,3.1364271761903426,3.4639054369395157,480.96034005107595,0.48096034005107596,0.0,0.0,nan,0.0,1.0,0.0,0.0,5936.311641473831,0.0,stable
design_search,0.95,0.0,1000,0.05,0.2,well_specified,1,oracle_weighted_fqe_clipped,0.0056352473287386165,9.138692040700367e-05,0.006879620943073471,0.00013809262873733312,-11.943839513463127,-11.831586406340458,-0.1122531071226689,0.1122531071226689,0.012600760058693377,0.01682041576342326,0.00020043607800352694,0.005357594492654417,7.273722952291523e-05,0.005371617698088041,7.410495035369063e-05,0.0015245390595150284,0.0005769817604024321,1.0,1.0377780822364582,3.4665488626657726,2.710145376129257,3.138820691959468,3.466348313721603,481.46750958653365,0.48146750958653367,0.01,0.0,3.4602771194554194,0.0024923221027820363,0.9999676185185888,0.0014722366150903639,3.411541762949668e-05,5940.7366336708765,0.0,stable
design_search,0.95,0.0,1000,0.05,0.2,well_specified,1,estimated_weighted_fqe,0.0019497511412340084,4.200033717072054e-05,0.0022720158221384485,4.5527474426002274e-05,-11.933622801285178,-11.831586406340458,-0.1020363949447205,0.1020363949447205,0.010411425893314983,0.012417086163525564,0.0001291516292352557,0.0019307526042929189,4.917383804585768e-05,0.001890842183328482,4.781031952169292e-05,0.00044177471982147356,0.000303513423969174,1.0,0.48743289928503536,1.8867145454043779,1.6147558526761925,1.7003669989909354,1.8259839084401894,808.0215000827021,0.8080215000827021,0.0,0.0,nan,3.566292192343423,0.4783312154470575,0.7265665353316558,0.4003261580790937,4077.9368250026077,0.0,stable
design_search,0.95,0.0,1000,0.05,0.2,well_specified,1,estimated_weighted_fqe_clipped,0.001946450058033255,4.189261892140958e-05,0.00226885597104194,4.542334360445637e-05,-11.933442950555907,-11.831586406340458,-0.10185654421544932,0.10185654421544932,0.010374755599513782,0.012378167848266761,0.0001289058926322383,0.0019274719309183618,4.905283251827103e-05,0.0018874411301499769,4.768539560246417e-05,0.00044142955217157985,0.000303306284788553,1.0000000000000002,0.48700911106188516,1.8265996352793186,1.6153003528289802,1.700940367459742,1.8265824509340043,808.291209217048,0.808291209217048,0.01,0.0,1.8626847708615044,3.56631666633587,0.4781768828470962,0.7267239095032882,0.400405213099518,4078.5229947578628,0.0,stable
design_search,0.95,0.0,1000,0.05,0.2,well_specified,1,estimated_weighted_fqe_clip95,0.001967961430569733,4.230982268659108e-05,0.0022913125150134175,4.58748992812337e-05,-11.93405861414647,-11.831586406340458,-0.10247220780601296,0.10247220780601296,0.010500553372638704,0.012519995290476827,0.00013017275641199778,0.0019486090095528978,4.9532309884594736e-05,0.0019094641786226612,4.820831948150971e-05,0.00044327486927983996,0.00030442483841414646,1.0,0.4833159801837134,1.7068393467320295,1.6209023265854658,1.7067946085436727,1.7068393467320295,810.6392598026549,0.8106392598026549,0.05,0.0,1.7345430588166864,3.5666239083501927,0.4753314939964316,0.7285994503783222,0.40182058712594293,4087.1258745089845,0.0,stable
design_search,0.95,0.0,1000,0.05,0.2,well_specified,1,estimated_weighted_fqe_clip99_ess40,0.001946450058033255,4.189261892140958e-05,0.00226885597104194,4.542334360445637e-05,-11.933442950555907,-11.831586406340458,-0.10185654421544932,0.10185654421544932,0.010374755599513782,0.012378167848266761,0.0001289058926322383,0.0019274719309183618,4.905283251827103e-05,0.0018874411301499769,4.768539560246417e-05,0.00044142955217157985,0.000303306284788553,1.0000000000000002,0.48700911106188516,1.8265996352793186,1.6153003528289802,1.700940367459742,1.8265824509340043,808.291209217048,0.808291209217048,0.01,0.0,1.8626847708615044,3.56631666633587,0.4781768828470962,0.7267239095032882,0.400405213099518,4078.5229947578628,0.0,stable
design_search,0.95,0.0,1000,0.05,0.2,well_specified,2,standard_fqe,0.009443544852082496,0.00020247216249983646,0.010893920909840345,0.00028129359517335695,-11.688045921280604,-11.831586406340458,0.1435404850598534,0.1435404850598534,0.020603870851217995,0.04242645350724032,0.0009769692142420846,0.01003566329536387,0.00024775937499453934,0.009909118786100884,0.0002386121032566239,0.001011560638892445,0.0006544770330044306,1.0,0.0,1.0,1.0,1.0,1.0,1000.0,1.0,0.0,0.0,nan,2.5842932475603493,nan,0.8756080812279887,0.5238712531146804,2229.698504555725,0.0,stable
design_search,0.95,0.0,1000,0.05,0.2,well_specified,2,oracle_weighted_fqe,0.010189368126226107,0.00012143519973044004,0.011770634089301164,0.00016700246001530208,-11.702987331406321,-11.831586406340458,0.12859907493413658,0.12859907493413658,0.016537722073915677,0.033375642349442944,0.0005820294746214431,0.010413931474567106,0.00015380207223551797,0.010515910698204654,0.0001651130768265584,0.0010878425504141278,0.0006712063307230754,1.0,1.0489386357311004,3.8008770205429996,2.7714177190296128,3.168114676643277,3.68977009188859,476.12874688531963,0.47612874688531964,0.0,0.0,nan,0.0,1.0,0.0,0.0,3419.060590961056,0.0,stable
design_search,0.95,0.0,1000,0.05,0.2,well_specified,2,oracle_weighted_fqe_clipped,0.010183511157871099,0.00012141804140153388,0.01176525793473938,0.00016699008285864708,-11.703036122463821,-11.831586406340458,0.12855028387663658,0.12855028387663658,0.01652517548476385,0.033364195744089886,0.0005819887790945418,0.010408006619612624,0.000153776476180088,0.010509935516659465,0.00016508997500157526,0.0010880287420876567,0.0006712063213255013,1.0,1.0479547594983558,3.6921026625970965,2.7731697327408886,3.170117471210931,3.6919978425981546,476.59690487795797,0.47659690487795797,0.01,0.0,3.46951652249734,0.0019645716911721282,0.9999780949236492,0.0012168945495629026,2.3390250838131192e-05,3421.118290392499,0.0,stable
design_search,0.95,0.0,1000,0.05,0.2,well_specified,2,estimated_weighted_fqe,0.012201220520000682,0.0002075478652865344,0.013668095255644292,0.00030099236829947044,-11.716182977444385,-11.831586406340458,0.11540342889607302,0.11540342889607302,0.013317951400970982,0.039659104196014726,0.0009645846481592839,0.012437310925030694,0.0002364227296926337,0.012523010952207491,0.00023275173154373245,0.0014689378175449478,0.00095219826493317,1.0,0.3495693607535991,2.801586407852981,1.3798933636742807,1.4610785518633156,1.6686520098107545,891.1077567259656,0.8911077567259656,0.0,0.0,nan,2.791340018131058,0.45931463888417695,0.7529547260711494,0.42167435341070686,3251.063038934555,0.0,stable
design_search,0.95,0.0,1000,0.05,0.2,well_specified,2,estimated_weighted_fqe_clipped,0.012640395367373745,0.00020555261189027693,0.01408358343263686,0.0002927470591167612,-11.708796229264326,-11.831586406340458,0.12279017707613171,0.12279017707613171,0.015077427586387781,0.03965550924950952,0.0009698086503239325,0.01296633020331287,0.0002391701290714975,0.013012758456773518,0.00023286099621941454,0.001301761673909199,0.0008452697935469097,1.0,0.33881457228362194,1.6753996092883192,1.3854732974681936,1.466986777673892,1.6745394546218706,897.0256576164661,0.8970256576164661,0.01,0.0,1.68154594433423,2.7909957362559696,0.47835096434134045,0.7510455638787908,0.41664113976552297,2845.4301254998227,0.0,stable
design_search,0.95,0.0,1000,0.05,0.2,well_specified,2,estimated_weighted_fqe_clip95,0.012306541261777028,0.00019959447062876758,0.013736272595277573,0.00028435448239004713,-11.708571498235262,-11.831586406340458,0.12301490810519589,0.12301490810519589,0.015132667616129789,0.03858299163228358,0.0009437933963715232,0.012644491206444985,0.0002330011094173578,0.01267358368322858,0.0002265846604997796,0.0012479722128062307,0.0007995082021635845,1.0,0.33384826155621616,1.4726901018014027,1.39085971499133,1.472634349478209,1.4726901018014027,899.7218100023874,0.8997218100023874,0.05,0.0,1.4723685338791086,2.7914112492114804,0.4815614775680151,0.7517045936105085,0.4163528875015308,2690.900345668495,0.0,stable
design_search,0.95,0.0,1000,0.05,0.2,well_specified,2,estimated_weighted_fqe_clip99_ess40,0.012640395367373745,0.00020555261189027693,0.01408358343263686,0.0002927470591167612,-11.708796229264326,-11.831586406340458,0.12279017707613171,0.12279017707613171,0.015077427586387781,0.03965550924950952,0.0009698086503239325,0.01296633020331287,0.0002391701290714975,0.013012758456773518,0.00023286099621941454,0.001301761673909199,0.0008452697935469097,1.0,0.33881457228362194,1.6753996092883192,1.3854732974681936,1.466986777673892,1.6745394546218706,897.0256576164661,0.8970256576164661,0.01,0.0,1.68154594433423,2.7909957362559696,0.47835096434134045,0.7510455638787908,0.41664113976552297,2845.4301254998227,0.0,stable
design_search,0.95,0.0,1000,0.05,0.2,misspecified_affine,0,standard_fqe,3.0492405153076265,0.03873415078565432,3.717913446284107,0.04839523737965481,-13.068108158614537,-11.831586406340458,-1.2365217522740792,1.2365217522740792,1.5289860438469594,5.730781449034786,0.10106443719692947,3.19990417318653,0.042515847082672094,2.8266910500578604,0.032941473777330754,0.5804330659482227,0.4033150577136045,1.0,0.0,1.0,1.0,1.0,1.0,1000.0,1.0,0.0,0.0,nan,2.7581436473465524,nan,0.8783643985488384,0.5202297036169513,60.145839615909416,0.0,stable
design_search,0.95,0.0,1000,0.05,0.2,misspecified_affine,0,oracle_weighted_fqe,4.972167173252184,0.05390864060194286,5.774982611624652,0.06868248703680292,-12.065369674661607,-11.831586406340458,-0.23378326832114915,0.23378326832114915,0.05465461654691842,4.483152169559162,0.13176276995851402,5.149881633663082,0.06386401135660692,4.681123038214477,0.05112868710564284,0.5999253727439855,0.384560989877132,1.0,1.0413120512933085,3.7292762225681324,2.6993472503954816,3.1436193564957953,3.4934847140454806,479.7702963830487,0.4797702963830487,0.0,0.0,nan,0.0,1.0,0.0,0.0,198.4089254263825,0.0,stable
design_search,0.95,0.0,1000,0.05,0.2,misspecified_affine,0,oracle_weighted_fqe_clipped,5.00878101118449,0.054130264298399365,5.812425791099654,0.06897470331289257,-12.0609626976621,-11.831586406340458,-0.2293762913216426,0.2293762913216426,0.05261348302047106,4.475697111224229,0.13181213516188273,5.186293118334999,0.06418249994463009,4.716820392568158,0.051410747250931324,0.599907384757583,0.3846152157063539,1.0,1.0395441349541996,3.4977813988915125,2.7026672146644883,3.147485737131852,3.4975945918479576,480.6185733636606,0.4806185733636606,0.01,0.0,3.339817111122666,0.004069528368391144,0.999910372187878,0.002370872121415188,9.45953111266609e-05,198.28620271354734,0.0,stable
design_search,0.95,0.0,1000,0.05,0.2,misspecified_affine,0,estimated_weighted_fqe,5.609997902741448,0.05688750088046536,6.384127827288343,0.0714689268401088,-11.861175945857827,-11.831586406340458,-0.02958953951736909,0.02958953951736909,0.000875540848849947,4.47832417953318,0.1388358735425325,5.842920566581644,0.07002425992172052,5.337496022696577,0.055904949888770414,0.6447353747800453,0.38289926786979367,1.0000000000000002,0.510704040851561,2.185663006123159,1.6279171757438353,1.720609749647843,1.8656105554839837,793.1354964507622,0.7931354964507622,0.0,0.0,nan,3.9914702539351143,0.5358831642622507,0.679878134241368,0.3719091235125144,89.20672261842877,0.0,stable
design_search,0.95,0.0,1000,0.05,0.2,misspecified_affine,0,estimated_weighted_fqe_clipped,5.5927612944855465,0.056792181623063945,6.366859143889927,0.07134093193596219,-11.859364305096154,-11.831586406340458,-0.02777789875569603,0.02777789875569603,0.000771611659281699,4.484919339627806,0.139028712810751,5.826154938376772,0.06988566131589366,5.320786066344691,0.05577667789536231,0.6451114756811369,0.3828402602721183,1.0,0.5093139256070404,1.86750342403668,1.629568878034703,1.7223554988220195,1.867501202342252,794.0284771922213,0.7940284771922214,0.01,0.0,1.910815442804265,3.9910706088351016,0.5388110973765033,0.6790627227719553,0.3704831501360188,89.14210834075458,0.0,stable
design_search,0.95,0.0,1000,0.05,0.2,misspecified_affine,0,estimated_weighted_fqe_clip95,5.570663882642048,0.056645519957906114,6.344792123765773,0.07118545992155853,-11.86483660754425,-11.831586406340458,-0.033250201203792074,0.033250201203792074,0.0011055758800926558,4.485830530902084,0.13880776209451925,5.804522186777762,0.06971418784815771,5.299230415180039,0.05560950049427639,0.6454572971628901,0.38277058071135434,1.0,0.5058627315664697,1.728124620924061,1.6350272063748734,1.7280999597587117,1.728124620924061,796.2435755776992,0.7962435755776992,0.05,0.0,1.762301178561757,3.990570877011247,0.5413897035841222,0.6789668086956099,0.36935690686300804,88.70738674481049,0.0,stable
design_search,0.95,0.0,1000,0.05,0.2,misspecified_affine,0,estimated_weighted_fqe_clip99_ess40,5.5927612944855465,0.056792181623063945,6.366859143889927,0.07134093193596219,-11.859364305096154,-11.831586406340458,-0.02777789875569603,0.02777789875569603,0.000771611659281699,4.484919339627806,0.139028712810751,5.826154938376772,0.06988566131589366,5.320786066344691,0.05577667789536231,0.6451114756811369,0.3828402602721183,1.0,0.5093139256070404,1.86750342403668,1.629568878034703,1.7223554988220195,1.867501202342252,794.0284771922213,0.7940284771922214,0.01,0.0,1.910815442804265,3.9910706088351016,0.5388110973765033,0.6790627227719553,0.3704831501360188,89.14210834075458,0.0,stable
design_search,0.95,0.0,1000,0.05,0.2,misspecified_affine,1,standard_fqe,2.7525711731729117,0.03620614075023388,3.4275634061572573,0.04705588412798663,-14.16728890897813,-11.831586406340458,-2.3357025026376714,2.3357025026376714,5.455506180827881,9.545451446417928,0.11099675977202861,2.976324296305096,0.04603940111989835,2.641468872445478,0.04169617201775974,0.622217580267351,0.3988401993751438,1.0,0.0,1.0,1.0,1.0,1.0,1000.0,1.0,0.0,0.0,nan,3.0195042689014255,nan,0.8761442644877211,0.5190396599489238,59.68319503501807,0.0,stable
design_search,0.95,0.0,1000,0.05,0.2,misspecified_affine,1,oracle_weighted_fqe,1.6993447751532356,0.031079243277200533,2.830168654540504,0.05168676269621217,-13.046160348645007,-11.831586406340458,-1.2145739423045487,1.2145739423045487,1.4751898613252132,7.218549007824164,0.14831940720041528,2.1109428345040913,0.04215694689140365,1.5351619830942715,0.03763612423982585,0.8030435814316375,0.3912229587995289,1.0,1.0388327648555908,3.5931767456024595,2.708078747821688,3.1364271761903426,3.4639054369395157,480.96034005107595,0.48096034005107596,0.0,0.0,nan,0.0,1.0,0.0,0.0,216.82667216965586,0.0,stable
design_search,0.95,0.0,1000,0.05,0.2,misspecified_affine,1,oracle_weighted_fqe_clipped,1.6955509967598268,0.031066246895417683,2.825998796837033,0.05164282128093447,-13.048363062778096,-11.831586406340458,-1.2167766564376379,1.2167766564376379,1.4805454316515574,7.224919078504364,0.14829689865779255,2.106988762970607,0.04211964874425753,1.5313539309247566,0.037625511412663806,0.8030571335026154,0.39123533140449973,1.0,1.0377780822364582,3.4665488626657726,2.710145376129257,3.138820691959468,3.466348313721603,481.46750958653365,0.48146750958653367,0.01,0.0,3.4602771194554194,0.0024923221027820363,0.9999676185185888,0.0014722366150903639,3.411541762949668e-05,216.75626440718892,0.0,stable
design_search,0.95,0.0,1000,0.05,0.2,misspecified_affine,1,estimated_weighted_fqe,6.748296662046991,0.060486303685077604,7.65363633940293,0.08240627416086702,-12.534048117803346,-11.831586406340458,-0.7024617114628882,0.7024617114628882,0.49345245607136995,4.455359223235976,0.13071703304898605,7.145933277877391,0.0832007302368403,6.617642395334692,0.06894884862433173,0.6484597398975335,0.37606288231910445,1.0,0.48743289928503536,1.8867145454043779,1.6147558526761925,1.7003669989909354,1.8259839084401894,808.0215000827021,0.8080215000827021,0.0,0.0,nan,3.566292192343423,0.4783312154470575,0.7265665353316558,0.4003261580790937,92.49577681403082,0.0,stable
design_search,0.95,0.0,1000,0.05,0.2,misspecified_affine,1,estimated_weighted_fqe_clipped,6.749699371598943,0.06049652301090898,7.655102595861676,0.08241789264810924,-12.533717503282077,-11.831586406340458,-0.7021310969416188,0.7021310969416188,0.4929880772924409,4.454886578997875,0.1307262066085387,7.147360523354294,0.08321325234595617,6.619035177188592,0.06896026332503068,0.6484628046363196,0.37606023114480625,1.0000000000000002,0.48700911106188516,1.8265996352793186,1.6153003528289802,1.700940367459742,1.8265824509340043,808.291209217048,0.808291209217048,0.01,0.0,1.8626847708615044,3.56631666633587,0.4781768828470962,0.7267239095032882,0.400405213099518,92.46065701557593,0.0,stable
design_search,0.95,0.0,1000,0.05,0.2,misspecified_affine,1,estimated_weighted_fqe_clip95,6.747995545193929,0.060479765971409895,7.6533549560835725,0.08240065899103892,-12.53859344492454,-11.831586406340458,-0.7070070385840825,0.7070070385840825,0.49985895260743435,4.458578438404459,0.13050952901408266,7.145319221899595,0.08318698105540576,6.6171032326264925,0.06893081352103368,0.6483860133926743,0.37613824097467874,1.0,0.4833159801837134,1.7068393467320295,1.6209023265854658,1.7067946085436727,1.7068393467320295,810.6392598026549,0.8106392598026549,0.05,0.0,1.7345430588166864,3.5666239083501927,0.4753314939964316,0.7285994503783222,0.40182058712594293,92.19337694655249,0.0,stable
design_search,0.95,0.0,1000,0.05,0.2,misspecified_affine,1,estimated_weighted_fqe_clip99_ess40,6.749699371598943,0.06049652301090898,7.655102595861676,0.08241789264810924,-12.533717503282077,-11.831586406340458,-0.7021310969416188,0.7021310969416188,0.4929880772924409,4.454886578997875,0.1307262066085387,7.147360523354294,0.08321325234595617,6.619035177188592,0.06896026332503068,0.6484628046363196,0.37606023114480625,1.0000000000000002,0.48700911106188516,1.8265996352793186,1.6153003528289802,1.700940367459742,1.8265824509340043,808.291209217048,0.808291209217048,0.01,0.0,1.8626847708615044,3.56631666633587,0.4781768828470962,0.7267239095032882,0.400405213099518,92.46065701557593,0.0,stable
design_search,0.95,0.0,1000,0.05,0.2,misspecified_affine,2,standard_fqe,1.8419244459870219,0.035518337872038445,2.2842003056355504,0.04575422925276993,-13.008186203726375,-11.831586406340458,-1.1765997973859168,1.1765997973859168,1.3843870832085805,6.831885032389121,0.13018819931806228,2.0877735371606887,0.0470250663998944,1.845054938467196,0.04482718708574067,0.6665655878502257,0.5049585463411848,1.0,0.0,1.0,1.0,1.0,1.0,1000.0,1.0,0.0,0.0,nan,2.5842932475603493,nan,0.8756080812279887,0.5238712531146804,61.85711468835386,0.0,stable
design_search,0.95,0.0,1000,0.05,0.2,misspecified_affine,2,oracle_weighted_fqe,1.5204432073227276,0.030477208530723592,2.3330222396050693,0.04954534020664727,-12.388578612295998,-11.831586406340458,-0.5569922059555399,0.5569922059555399,0.3102403174952186,5.707474289338832,0.1443651863285529,1.8729734885254894,0.044923114714937366,1.4793597113035613,0.040230003331344695,0.6423772167928522,0.3825516089449834,1.0,1.0489386357311004,3.8008770205429996,2.7714177190296128,3.168114676643277,3.68977009188859,476.12874688531963,0.47612874688531964,0.0,0.0,nan,0.0,1.0,0.0,0.0,197.61408236005502,0.0,stable
design_search,0.95,0.0,1000,0.05,0.2,misspecified_affine,2,oracle_weighted_fqe_clipped,1.521509155047483,0.03048127442003731,2.334228377578775,0.04955237547488226,-12.388253637858215,-11.831586406340458,-0.556667231517757,0.556667231517757,0.30987840664564403,5.706368980512724,0.14436083821504841,1.8740709552705412,0.04492992964304462,1.4804482263402552,0.040232176402433394,0.6423646831478831,0.38254879177345574,1.0,1.0479547594983558,3.6921026625970965,2.7731697327408886,3.170117471210931,3.6919978425981546,476.59690487795797,0.47659690487795797,0.01,0.0,3.46951652249734,0.0019645716911721282,0.9999780949236492,0.0012168945495629026,2.3390250838131192e-05,197.5544865503956,0.0,stable
design_search,0.95,0.0,1000,0.05,0.2,misspecified_affine,2,estimated_weighted_fqe,2.6378712225352543,0.03517097003629748,3.4870832184022946,0.05479440318675744,-12.30366807060268,-11.831586406340458,-0.4720816642622214,0.4720816642622214,0.22286109773258875,4.983949174678367,0.13416919471985772,3.030622959205147,0.0519758495400024,2.634283349852468,0.043546729407534034,0.6402677665534243,0.3828955910722858,1.0,0.3495693607535991,2.801586407852981,1.3798933636742807,1.4610785518633156,1.6686520098107545,891.1077567259656,0.8911077567259656,0.0,0.0,nan,2.791340018131058,0.45931463888417695,0.7529547260711494,0.42167435341070686,72.75338273204089,1.0,finite_sample_variance_or_clipping
design_search,0.95,0.0,1000,0.05,0.2,misspecified_affine,2,estimated_weighted_fqe_clipped,2.576297245873564,0.03659182670745613,3.371981004796497,0.05558156356762365,-12.083766372701728,-11.831586406340458,-0.25217996636127005,0.25217996636127005,0.06359473543397129,5.058594383205452,0.14760996376790486,2.9424621831045292,0.053408302602013215,2.575585590585606,0.04593049252690645,0.6409573553478655,0.4032116525077321,1.0,0.33881457228362194,1.6753996092883192,1.3854732974681936,1.466986777673892,1.6745394546218706,897.0256576164661,0.8970256576164661,0.01,0.0,1.68154594433423,2.7909957362559696,0.47835096434134045,0.7510455638787908,0.41664113976552297,72.07391893940064,0.0,stable
design_search,0.95,0.0,1000,0.05,0.2,misspecified_affine,2,estimated_weighted_fqe_clip95,2.527491580191715,0.037083411837028464,3.303096343850541,0.055835313493551204,-12.009918627167108,-11.831586406340458,-0.17833222082665046,0.17833222082665046,0.031802380984965226,5.126551946792606,0.15281898586848794,2.8836418288109513,0.05386533865030183,2.526898932112477,0.04676682928041935,0.643014747821637,0.41234886370034207,1.0,0.33384826155621616,1.4726901018014027,1.39085971499133,1.472634349478209,1.4726901018014027,899.7218100023874,0.8997218100023874,0.05,0.0,1.4723685338791086,2.7914112492114804,0.4815614775680151,0.7517045936105085,0.4163528875015308,71.53796528104958,0.0,stable
design_search,0.95,0.0,1000,0.05,0.2,misspecified_affine,2,estimated_weighted_fqe_clip99_ess40,2.576297245873564,0.03659182670745613,3.371981004796497,0.05558156356762365,-12.083766372701728,-11.831586406340458,-0.25217996636127005,0.25217996636127005,0.06359473543397129,5.058594383205452,0.14760996376790486,2.9424621831045292,0.053408302602013215,2.575585590585606,0.04593049252690645,0.6409573553478655,0.4032116525077321,1.0,0.33881457228362194,1.6753996092883192,1.3854732974681936,1.466986777673892,1.6745394546218706,897.0256576164661,0.8970256576164661,0.01,0.0,1.68154594433423,2.7909957362559696,0.47835096434134045,0.7510455638787908,0.41664113976552297,72.07391893940064,0.0,stable
design_search,0.95,0.0,1000,0.12,0.1,well_specified,0,standard_fqe,0.040315726575489194,0.000259531268305019,0.040336508422829306,0.00025639077075748616,-12.245081305120125,-12.521693769832098,0.2766124647119721,0.2766124647119721,0.076514455634032,0.09069783412965605,0.001076548711415485,0.040085260714786755,0.000282621122737121,0.039991703106563754,0.0002654647642661565,0.0007645841673358902,0.0007621652369099509,1.0,0.0,1.0,1.0,1.0,1.0,1000.0,1.0,0.0,0.0,nan,0.0,1.0,0.0,0.0,4501.212610711564,0.0,stable
design_search,0.95,0.0,1000,0.12,0.1,well_specified,0,oracle_weighted_fqe,0.040315726575489194,0.000259531268305019,0.040336508422829306,0.00025639077075748616,-12.245081305120125,-12.521693769832098,0.2766124647119721,0.2766124647119721,0.076514455634032,0.09069783412965605,0.001076548711415485,0.040085260714786755,0.000282621122737121,0.039991703106563754,0.0002654647642661565,0.0007645841673358902,0.0007621652369099509,1.0,0.0,1.0,1.0,1.0,1.0,1000.0,1.0,0.0,0.0,nan,0.0,1.0,0.0,0.0,4501.212610711564,0.0,stable
design_search,0.95,0.0,1000,0.12,0.1,well_specified,0,oracle_weighted_fqe_clipped,0.040315726575489194,0.000259531268305019,0.040336508422829306,0.00025639077075748616,-12.245081305120125,-12.521693769832098,0.2766124647119721,0.2766124647119721,0.076514455634032,0.09069783412965605,0.001076548711415485,0.040085260714786755,0.000282621122737121,0.039991703106563754,0.0002654647642661565,0.0007645841673358902,0.0007621652369099509,1.0,0.0,1.0,1.0,1.0,1.0,1000.0,1.0,0.0,0.0,1.0,0.0,1.0,0.0,0.0,4501.212610711564,0.0,stable
design_search,0.95,0.0,1000,0.12,0.1,well_specified,0,estimated_weighted_fqe,0.046372747207436275,0.0003033899694875976,0.046371408707926935,0.00029897911121453937,-12.218854469938996,-12.521693769832098,0.3028392998931011,0.3028392998931011,0.09171164155974362,0.10718134167850722,0.0012114524185536572,0.04614247755522626,0.0003295660976864264,0.046088135262624806,0.00030948333000287804,0.000822649373801317,0.0008297100651516627,1.0,0.16197018638761296,1.6722964227546395,1.1904436174785902,1.2332181145688776,1.3392084719600477,974.4363054097796,0.9744363054097797,0.0,0.0,nan,0.17380637615720188,nan,0.12595311117374594,0.026234341278438083,4060.9419366099246,0.0,stable
design_search,0.95,0.0,1000,0.12,0.1,well_specified,0,estimated_weighted_fqe_clipped,0.04614547722923608,0.0002809052678918634,0.04614527730179523,0.00027689517092742026,-12.225537246720979,-12.521693769832098,0.29615652311111873,0.29615652311111873,0.0877086861812666,0.1021492666493131,0.0011405674511147086,0.04591512690089191,0.00030570201658975847,0.045851413430286744,0.0002874583772518307,0.0007850681791470428,0.0007903646206045592,1.0,0.1588892191331339,1.3408347910534857,1.1918892782739803,1.2347157202128753,1.3407971135674968,975.3758714721987,0.9753758714721987,0.01,0.0,1.3390640130491163,0.17196057793863048,nan,0.12499726247182205,0.02524578395673704,4059.9497130017935,0.0,stable
design_search,0.95,0.0,1000,0.12,0.1,well_specified,0,estimated_weighted_fqe_clip95,0.046037645108804884,0.00026727836520134423,0.04604090625850138,0.0002634871556505074,-12.230897676302416,-12.521693769832098,0.29079609352968205,0.29079609352968205,0.08456236801212359,0.0983556858504484,0.001095309104471137,0.04579964543945349,0.00029111797215284507,0.04573688223041356,0.0002741403283614684,0.0007598238766633164,0.0007641627433491462,1.0,0.15504531331064453,1.237670183214811,1.1947412649438003,1.237644075460081,1.237670183214811,976.525261220405,0.9765252612204051,0.05,0.0,1.2330850887185325,0.16909278993144236,nan,0.12312856638282381,0.024039049179595928,4061.4353852931154,0.0,stable
design_search,0.95,0.0,1000,0.12,0.1,well_specified,0,estimated_weighted_fqe_clip99_ess40,0.04614547722923608,0.0002809052678918634,0.04614527730179523,0.00027689517092742026,-12.225537246720979,-12.521693769832098,0.29615652311111873,0.29615652311111873,0.0877086861812666,0.1021492666493131,0.0011405674511147086,0.04591512690089191,0.00030570201658975847,0.045851413430286744,0.0002874583772518307,0.0007850681791470428,0.0007903646206045592,1.0,0.1588892191331339,1.3408347910534857,1.1918892782739803,1.2347157202128753,1.3407971135674968,975.3758714721987,0.9753758714721987,0.01,0.0,1.3390640130491163,0.17196057793863048,nan,0.12499726247182205,0.02524578395673704,4059.9497130017935,0.0,stable
design_search,0.95,0.0,1000,0.12,0.1,well_specified,1,standard_fqe,0.028967142129743474,0.00015690235391985991,0.029072207480319526,0.0001610496458102826,-12.552550484631121,-12.521693769832098,-0.03085671479902352,0.03085671479902352,0.0009521368481882772,0.011550208511443418,0.0002830008295632556,0.02821690975953689,0.00016305000905560106,0.028065012057415867,0.00016393542199347403,0.0017611988547743434,0.0017702041875526941,1.0,0.0,1.0,1.0,1.0,1.0,1000.0,1.0,0.0,0.0,nan,0.0,1.0,0.0,0.0,4599.94888938867,0.0,stable
design_search,0.95,0.0,1000,0.12,0.1,well_specified,1,oracle_weighted_fqe,0.028967142129743474,0.00015690235391985991,0.029072207480319526,0.0001610496458102826,-12.552550484631121,-12.521693769832098,-0.03085671479902352,0.03085671479902352,0.0009521368481882772,0.011550208511443418,0.0002830008295632556,0.02821690975953689,0.00016305000905560106,0.028065012057415867,0.00016393542199347403,0.0017611988547743434,0.0017702041875526941,1.0,0.0,1.0,1.0,1.0,1.0,1000.0,1.0,0.0,0.0,nan,0.0,1.0,0.0,0.0,4599.94888938867,0.0,stable
design_search,0.95,0.0,1000,0.12,0.1,well_specified,1,oracle_weighted_fqe_clipped,0.028967142129743474,0.00015690235391985991,0.029072207480319526,0.0001610496458102826,-12.552550484631121,-12.521693769832098,-0.03085671479902352,0.03085671479902352,0.0009521368481882772,0.011550208511443418,0.0002830008295632556,0.02821690975953689,0.00016305000905560106,0.028065012057415867,0.00016393542199347403,0.0017611988547743434,0.0017702041875526941,1.0,0.0,1.0,1.0,1.0,1.0,1000.0,1.0,0.0,0.0,1.0,0.0,1.0,0.0,0.0,4599.94888938867,0.0,stable
design_search,0.95,0.0,1000,0.12,0.1,well_specified,1,estimated_weighted_fqe,0.024389472577790356,0.00010399745046814754,0.024518967479649063,0.00011652769703228584,-12.542119042573116,-12.521693769832098,-0.020425272741018574,0.020425272741018574,0.0004171917665449964,0.012538447687938799,0.00032298905580627413,0.023865453176593356,9.761989773568905e-05,0.02388597126626854,0.00010262924068417365,0.0014248142540822428,0.001437426846617186,1.0,0.19738513000175695,1.4659761614742757,1.215778867939794,1.2632349636715217,1.3355572624689556,962.5001384192215,0.9625001384192214,0.0,0.0,nan,0.21788026829824786,nan,0.16445117900025832,0.03896088954581049,4217.897399621622,0.0,stable
design_search,0.95,0.0,1000,0.12,0.1,well_specified,1,estimated_weighted_fqe_clipped,0.024317820291740493,0.00010428737762510786,0.02444704305985969,0.00011664233113689175,-12.542975903837947,-12.521693769832098,-0.02128213400584933,0.02128213400584933,0.0004529292278429284,0.012496354741043955,0.0003216508258402897,0.023788477096190794,9.776067472540126e-05,0.023806497589168942,0.00010287012965556452,0.0014244284010321057,0.0014363327952247513,1.0000000000000002,0.1960649789357551,1.3365690717918406,1.2166999339455105,1.2641919821005738,1.3363986199450153,962.9815672285699,0.96298156722857,0.01,0.0,1.3354702198295787,0.2169906079343691,nan,0.16397272180272637,0.0384414759650781,4197.249996275191,0.0,stable
design_search,0.95,0.0,1000,0.12,0.1,well_specified,1,estimated_weighted_fqe_clip95,0.02412304428871366,0.00010446569667971835,0.02425381472831939,0.00011707480631962883,-12.542929746101123,-12.521693769832098,-0.021235976269025514,0.021235976269025514,0.0004509666880986148,0.012499421900169878,0.00032192389544118366,0.02358487657307263,9.752401859982463e-05,0.023603331857658116,0.00010282958226537186,0.0014134427692897979,0.0014236779641011083,1.0,0.19328948649466318,1.2668713855081142,1.2192786798916373,1.266821465907722,1.2668713855081142,963.9847344648433,0.9639847344648433,0.05,0.0,1.263152634513139,0.21483219160131314,nan,0.1626401593847018,0.03736082558937058,4170.086072516238,0.0,stable
design_search,0.95,0.0,1000,0.12,0.1,well_specified,1,estimated_weighted_fqe_clip99_ess40,0.024317820291740493,0.00010428737762510786,0.02444704305985969,0.00011664233113689175,-12.542975903837947,-12.521693769832098,-0.02128213400584933,0.02128213400584933,0.0004529292278429284,0.012496354741043955,0.0003216508258402897,0.023788477096190794,9.776067472540126e-05,0.023806497589168942,0.00010287012965556452,0.0014244284010321057,0.0014363327952247513,1.0000000000000002,0.1960649789357551,1.3365690717918406,1.2166999339455105,1.2641919821005738,1.3363986199450153,962.9815672285699,0.96298156722857,0.01,0.0,1.3354702198295787,0.2169906079343691,nan,0.16397272180272637,0.0384414759650781,4197.249996275191,0.0,stable
design_search,0.95,0.0,1000,0.12,0.1,well_specified,2,standard_fqe,0.0633708572635153,0.0012803427582263253,0.067344938236146,0.001549149863985639,-12.087514924171227,-12.521693769832098,0.4341788456608704,0.4341788456608704,0.1885112700194059,0.2948337267353068,0.00511323494496354,0.0662489581313242,0.001451476846483708,0.06498249529827121,0.0013986543490404676,0.005149061435849555,0.004643788844535078,1.0,0.0,1.0,1.0,1.0,1.0,1000.0,1.0,0.0,0.0,nan,0.0,1.0,0.0,0.0,3039.7970826156793,0.0,stable
design_search,0.95,0.0,1000,0.12,0.1,well_specified,2,oracle_weighted_fqe,0.0633708572635153,0.0012803427582263253,0.067344938236146,0.001549149863985639,-12.087514924171227,-12.521693769832098,0.4341788456608704,0.4341788456608704,0.1885112700194059,0.2948337267353068,0.00511323494496354,0.0662489581313242,0.001451476846483708,0.06498249529827121,0.0013986543490404676,0.005149061435849555,0.004643788844535078,1.0,0.0,1.0,1.0,1.0,1.0,1000.0,1.0,0.0,0.0,nan,0.0,1.0,0.0,0.0,3039.7970826156793,0.0,stable
design_search,0.95,0.0,1000,0.12,0.1,well_specified,2,oracle_weighted_fqe_clipped,0.0633708572635153,0.0012803427582263253,0.067344938236146,0.001549149863985639,-12.087514924171227,-12.521693769832098,0.4341788456608704,0.4341788456608704,0.1885112700194059,0.2948337267353068,0.00511323494496354,0.0662489581313242,0.001451476846483708,0.06498249529827121,0.0013986543490404676,0.005149061435849555,0.004643788844535078,1.0,0.0,1.0,1.0,1.0,1.0,1000.0,1.0,0.0,0.0,1.0,0.0,1.0,0.0,0.0,3039.7970826156793,0.0,stable
design_search,0.95,0.0,1000,0.12,0.1,well_specified,2,estimated_weighted_fqe,0.09206018110414885,0.0012961198157495344,0.09661864402828146,0.0015788585007292062,-12.13078391687123,-12.521693769832098,0.390909852960867,0.390909852960867,0.15281051314188665,0.2817075991866273,0.005281982796400411,0.09353031647486951,0.0014096848336743353,0.09309436086744927,0.0013959164938919769,0.006273080608818026,0.005993420851408764,0.9999999999999998,0.23581520967121036,2.4960021511969916,1.2813235712076774,1.3345138020335738,1.4923054596966625,947.3206244382101,0.9473206244382101,0.0,0.0,nan,0.29761700934910124,nan,0.1826651160041886,0.0556088131122769,3923.8363971251415,0.0,stable
design_search,0.95,0.0,1000,0.12,0.1,well_specified,2,estimated_weighted_fqe_clipped,0.0907242973665187,0.0012826338116831652,0.09539561840740464,0.0015700207654252825,-12.119076784961957,-12.521693769832098,0.4026169848701411,0.4026169848701411,0.1621004365059234,0.2786967166560242,0.005229424962063337,0.09232608025491774,0.0014033601376468936,0.0917406395191723,0.0013699231730187294,0.005938849539503376,0.005422291485491408,1.0000000000000002,0.22696234655827238,1.4964148171167944,1.2848519483845606,1.3381886490020825,1.4964091032578322,951.0115801596645,0.9510115801596645,0.01,0.0,1.4922705457775667,0.2943579542002252,nan,0.180563055970363,0.051511906755237334,3520.8901490056323,0.0,stable
design_search,0.95,0.0,1000,0.12,0.1,well_specified,2,estimated_weighted_fqe_clip95,0.08990982664908424,0.0012660908545147655,0.09452670773160267,0.001549806748198153,-12.118831537623045,-12.521693769832098,0.4028622322090527,0.4028622322090527,0.1622979781404607,0.2760037598605091,0.005162358930053028,0.09153772689340195,0.0013875719501688045,0.09093484728560336,0.0013521786671206535,0.0057934711367546915,0.005268541132405826,1.0,0.22136077706309298,1.3430060295380752,1.289477320728285,1.3428869315794552,1.3430060295380752,953.2883070611166,0.9532883070611166,0.05,0.0,1.3344825798018158,0.29102051012762115,nan,0.1778467332833474,0.04900059362197635,3362.122716178446,0.0,stable
design_search,0.95,0.0,1000,0.12,0.1,well_specified,2,estimated_weighted_fqe_clip99_ess40,0.0907242973665187,0.0012826338116831652,0.09539561840740464,0.0015700207654252825,-12.119076784961957,-12.521693769832098,0.4026169848701411,0.4026169848701411,0.1621004365059234,0.2786967166560242,0.005229424962063337,0.09232608025491774,0.0014033601376468936,0.0917406395191723,0.0013699231730187294,0.005938849539503376,0.005422291485491408,1.0000000000000002,0.22696234655827238,1.4964148171167944,1.2848519483845606,1.3381886490020825,1.4964091032578322,951.0115801596645,0.9510115801596645,0.01,0.0,1.4922705457775667,0.2943579542002252,nan,0.180563055970363,0.051511906755237334,3520.8901490056323,0.0,stable
design_search,0.95,0.0,1000,0.12,0.1,misspecified_affine,0,standard_fqe,1.880611781540812,0.039938835360680436,1.8679895682700853,0.033841908892151835,-13.416783782891903,-12.521693769832098,-0.8950900130598054,0.8950900130598054,0.8011861314794027,6.319463274807668,0.13082815355810878,1.7118962419436463,0.03290073466897574,1.7591155472293043,0.03486407576118789,0.5027022913860191,0.5568314229327036,1.0,0.0,1.0,1.0,1.0,1.0,1000.0,1.0,0.0,0.0,nan,0.0,1.0,0.0,0.0,195.62021603083926,0.0,stable
design_search,0.95,0.0,1000,0.12,0.1,misspecified_affine,0,oracle_weighted_fqe,1.880611781540812,0.039938835360680436,1.8679895682700853,0.033841908892151835,-13.416783782891903,-12.521693769832098,-0.8950900130598054,0.8950900130598054,0.8011861314794027,6.319463274807668,0.13082815355810878,1.7118962419436463,0.03290073466897574,1.7591155472293043,0.03486407576118789,0.5027022913860191,0.5568314229327036,1.0,0.0,1.0,1.0,1.0,1.0,1000.0,1.0,0.0,0.0,nan,0.0,1.0,0.0,0.0,195.62021603083926,0.0,stable
design_search,0.95,0.0,1000,0.12,0.1,misspecified_affine,0,oracle_weighted_fqe_clipped,1.880611781540812,0.039938835360680436,1.8679895682700853,0.033841908892151835,-13.416783782891903,-12.521693769832098,-0.8950900130598054,0.8950900130598054,0.8011861314794027,6.319463274807668,0.13082815355810878,1.7118962419436463,0.03290073466897574,1.7591155472293043,0.03486407576118789,0.5027022913860191,0.5568314229327036,1.0,0.0,1.0,1.0,1.0,1.0,1000.0,1.0,0.0,0.0,1.0,0.0,1.0,0.0,0.0,195.62021603083926,0.0,stable
design_search,0.95,0.0,1000,0.12,0.1,misspecified_affine,0,estimated_weighted_fqe,4.366044391760001,0.06379398465370743,4.377358692071483,0.05968241256869262,-12.467280642420885,-12.521693769832098,0.054413127411212514,0.054413127411212514,0.0029607884346688467,5.121968313115935,0.1578913441474448,4.131513138946785,0.06199626073052052,4.2437843387464875,0.06367813648374462,0.4928336680976533,0.5533314756716216,1.0,0.16197018638761296,1.6722964227546395,1.1904436174785902,1.2332181145688776,1.3392084719600477,974.4363054097796,0.9744363054097797,0.0,0.0,nan,0.17380637615720188,nan,0.12595311117374594,0.026234341278438083,204.64628026188424,0.0,stable
design_search,0.95,0.0,1000,0.12,0.1,misspecified_affine,0,estimated_weighted_fqe_clipped,4.341194172739822,0.06363777565004673,4.352327763380945,0.05947175793235301,-12.45914880015738,-12.521693769832098,0.06254496967471823,0.06254496967471823,0.003911873231611423,5.1407383609850985,0.15857420123931362,4.107150130911408,0.061739378547584677,4.218894544273008,0.06343255392865285,0.4928884342695057,0.553315688753471,1.0,0.1588892191331339,1.3408347910534857,1.1918892782739803,1.2347157202128753,1.3407971135674968,975.3758714721987,0.9753758714721987,0.01,0.0,1.3390640130491163,0.17196057793863048,nan,0.12499726247182205,0.02524578395673704,204.25269171245674,0.0,stable
design_search,0.95,0.0,1000,0.12,0.1,misspecified_affine,0,estimated_weighted_fqe_clip95,4.3090663006747985,0.06340921307640666,4.320002944762608,0.05919717971754232,-12.456454468537132,-12.521693769832098,0.06523930129496591,0.06523930129496591,0.004256166433455341,5.155753530095215,0.15896113626795835,4.0755526168040594,0.06141092438612419,4.186677285166291,0.06311216613876995,0.4929460050534116,0.5532831291199671,1.0,0.15504531331064453,1.237670183214811,1.1947412649438003,1.237644075460081,1.237670183214811,976.525261220405,0.9765252612204051,0.05,0.0,1.2330850887185325,0.16909278993144236,nan,0.12312856638282381,0.024039049179595928,203.85551423274072,0.0,stable
design_search,0.95,0.0,1000,0.12,0.1,misspecified_affine,0,estimated_weighted_fqe_clip99_ess40,4.341194172739822,0.06363777565004673,4.352327763380945,0.05947175793235301,-12.45914880015738,-12.521693769832098,0.06254496967471823,0.06254496967471823,0.003911873231611423,5.1407383609850985,0.15857420123931362,4.107150130911408,0.061739378547584677,4.218894544273008,0.06343255392865285,0.4928884342695057,0.553315688753471,1.0,0.1588892191331339,1.3408347910534857,1.1918892782739803,1.2347157202128753,1.3407971135674968,975.3758714721987,0.9753758714721987,0.01,0.0,1.3390640130491163,0.17196057793863048,nan,0.12499726247182205,0.02524578395673704,204.25269171245674,0.0,stable
design_search,0.95,0.0,1000,0.12,0.1,misspecified_affine,1,standard_fqe,2.799919662348433,0.04273579396806846,2.871575342686222,0.045663780696823225,-13.937744792217247,-12.521693769832098,-1.4160510223851492,1.4160510223851492,2.0052004979980262,6.706594480485387,0.12828554164756018,2.8064084464819534,0.0494136814262948,2.7247287722585387,0.050612523957551704,0.547611215787273,0.5449687632927388,1.0,0.0,1.0,1.0,1.0,1.0,1000.0,1.0,0.0,0.0,nan,0.0,1.0,0.0,0.0,196.28338661428373,0.0,stable
design_search,0.95,0.0,1000,0.12,0.1,misspecified_affine,1,oracle_weighted_fqe,2.799919662348433,0.04273579396806846,2.871575342686222,0.045663780696823225,-13.937744792217247,-12.521693769832098,-1.4160510223851492,1.4160510223851492,2.0052004979980262,6.706594480485387,0.12828554164756018,2.8064084464819534,0.0494136814262948,2.7247287722585387,0.050612523957551704,0.547611215787273,0.5449687632927388,1.0,0.0,1.0,1.0,1.0,1.0,1000.0,1.0,0.0,0.0,nan,0.0,1.0,0.0,0.0,196.28338661428373,0.0,stable
design_search,0.95,0.0,1000,0.12,0.1,misspecified_affine,1,oracle_weighted_fqe_clipped,2.799919662348433,0.04273579396806846,2.871575342686222,0.045663780696823225,-13.937744792217247,-12.521693769832098,-1.4160510223851492,1.4160510223851492,2.0052004979980262,6.706594480485387,0.12828554164756018,2.8064084464819534,0.0494136814262948,2.7247287722585387,0.050612523957551704,0.547611215787273,0.5449687632927388,1.0,0.0,1.0,1.0,1.0,1.0,1000.0,1.0,0.0,0.0,1.0,0.0,1.0,0.0,0.0,196.28338661428373,0.0,stable
design_search,0.95,0.0,1000,0.12,0.1,misspecified_affine,1,estimated_weighted_fqe,4.083838048593329,0.05697243201010055,4.170905516687686,0.06081979162420038,-12.903952072527687,-12.521693769832098,-0.3822583026955897,0.3822583026955897,0.14612140997971307,5.235942895485033,0.16770583522107982,4.132212873878873,0.0670041138822455,4.029966967195289,0.06812514440547728,0.5254654984471497,0.5262279080729836,1.0,0.19738513000175695,1.4659761614742757,1.215778867939794,1.2632349636715217,1.3355572624689556,962.5001384192215,0.9625001384192214,0.0,0.0,nan,0.21788026829824786,nan,0.16445117900025832,0.03896088954581049,198.3730327956542,0.0,stable
design_search,0.95,0.0,1000,0.12,0.1,misspecified_affine,1,estimated_weighted_fqe_clipped,4.09455226183347,0.0570614159333537,4.181663038739461,0.06088815866749784,-12.907530992478398,-12.521693769832098,-0.38583722264630005,0.38583722264630005,0.1488703623794105,5.231272499617261,0.16743663773895487,4.143075272789097,0.06710987024512437,4.040521868094164,0.06821077467535032,0.5254234111028657,0.5262233142735727,1.0000000000000002,0.1960649789357551,1.3365690717918406,1.2166999339455105,1.2641919821005738,1.3363986199450153,962.9815672285699,0.96298156722857,0.01,0.0,1.3354702198295787,0.2169906079343691,nan,0.16397272180272637,0.0384414759650781,198.22991483602885,0.0,stable
design_search,0.95,0.0,1000,0.12,0.1,misspecified_affine,1,estimated_weighted_fqe_clip95,4.074592792406708,0.05685425638893914,4.1615518490764405,0.060669320798890765,-12.921844630212366,-12.521693769832098,-0.40015086038026837,0.40015086038026837,0.16012071106306902,5.235186974461313,0.16672566112623083,4.122778091948299,0.06686316222398295,4.020450188900806,0.0679598645134747,0.5255621536101077,0.5263150116942629,1.0,0.19328948649466318,1.2668713855081142,1.2192786798916373,1.266821465907722,1.2668713855081142,963.9847344648433,0.9639847344648433,0.05,0.0,1.263152634513139,0.21483219160131314,nan,0.1626401593847018,0.03736082558937058,198.20369101614432,0.0,stable
design_search,0.95,0.0,1000,0.12,0.1,misspecified_affine,1,estimated_weighted_fqe_clip99_ess40,4.09455226183347,0.0570614159333537,4.181663038739461,0.06088815866749784,-12.907530992478398,-12.521693769832098,-0.38583722264630005,0.38583722264630005,0.1488703623794105,5.231272499617261,0.16743663773895487,4.143075272789097,0.06710987024512437,4.040521868094164,0.06821077467535032,0.5254234111028657,0.5262233142735727,1.0000000000000002,0.1960649789357551,1.3365690717918406,1.2166999339455105,1.2641919821005738,1.3363986199450153,962.9815672285699,0.96298156722857,0.01,0.0,1.3354702198295787,0.2169906079343691,nan,0.16397272180272637,0.0384414759650781,198.22991483602885,0.0,stable
design_search,0.95,0.0,1000,0.12,0.1,misspecified_affine,2,standard_fqe,1.8174438528676653,0.036073723685055646,1.852262339670827,0.04628799884407059,-13.355189880410418,-12.521693769832098,-0.8334961105783201,0.8334961105783201,0.6947157663491872,6.8132713617903375,0.1523381698506858,1.8678754288424515,0.04785971920021382,1.8005557100769092,0.0469554238095604,0.5941342782682147,0.5840879477255364,1.0,0.0,1.0,1.0,1.0,1.0,1000.0,1.0,0.0,0.0,nan,0.0,1.0,0.0,0.0,199.97102406438458,0.0,stable
design_search,0.95,0.0,1000,0.12,0.1,misspecified_affine,2,oracle_weighted_fqe,1.8174438528676653,0.036073723685055646,1.852262339670827,0.04628799884407059,-13.355189880410418,-12.521693769832098,-0.8334961105783201,0.8334961105783201,0.6947157663491872,6.8132713617903375,0.1523381698506858,1.8678754288424515,0.04785971920021382,1.8005557100769092,0.0469554238095604,0.5941342782682147,0.5840879477255364,1.0,0.0,1.0,1.0,1.0,1.0,1000.0,1.0,0.0,0.0,nan,0.0,1.0,0.0,0.0,199.97102406438458,0.0,stable
design_search,0.95,0.0,1000,0.12,0.1,misspecified_affine,2,oracle_weighted_fqe_clipped,1.8174438528676653,0.036073723685055646,1.852262339670827,0.04628799884407059,-13.355189880410418,-12.521693769832098,-0.8334961105783201,0.8334961105783201,0.6947157663491872,6.8132713617903375,0.1523381698506858,1.8678754288424515,0.04785971920021382,1.8005557100769092,0.0469554238095604,0.5941342782682147,0.5840879477255364,1.0,0.0,1.0,1.0,1.0,1.0,1000.0,1.0,0.0,0.0,1.0,0.0,1.0,0.0,0.0,199.97102406438458,0.0,stable
design_search,0.95,0.0,1000,0.12,0.1,misspecified_affine,2,estimated_weighted_fqe,3.477952845403086,0.0537431964165113,3.6199406265649134,0.06326602950720776,-12.236894022027455,-12.521693769832098,0.2847997478046427,0.2847997478046427,0.08111089634958807,5.53731288543054,0.17769541810203368,3.400716256288622,0.06618987026003119,3.4279559891736437,0.06567468898585552,0.5509980110248386,0.5428075508315708,0.9999999999999998,0.23581520967121036,2.4960021511969916,1.2813235712076774,1.3345138020335738,1.4923054596966625,947.3206244382101,0.9473206244382101,0.0,0.0,nan,0.29761700934910124,nan,0.1826651160041886,0.0556088131122769,206.50362380805834,0.0,stable
design_search,0.95,0.0,1000,0.12,0.1,misspecified_affine,2,estimated_weighted_fqe_clipped,3.5044177551992397,0.05542935128333758,3.650839522377161,0.06543299770891192,-12.058242504953277,-12.521693769832098,0.46345126487882027,0.46345126487882027,0.21478707491777843,5.80759850697551,0.19012945902550954,3.4321962171682183,0.06883594182168344,3.4566650313552065,0.0680453986649115,0.5596959539422287,0.5503471161879909,1.0000000000000002,0.22696234655827238,1.4964148171167944,1.2848519483845606,1.3381886490020825,1.4964091032578322,951.0115801596645,0.9510115801596645,0.01,0.0,1.4922705457775667,0.2943579542002252,nan,0.180563055970363,0.051511906755237334,204.58318109118582,0.0,stable
design_search,0.95,0.0,1000,0.12,0.1,misspecified_affine,2,estimated_weighted_fqe_clip95,3.4113310927169813,0.05518690865488237,3.5565997720576252,0.06541340198304854,-12.030163880323197,-12.521693769832098,0.4915298895089002,0.4915298895089002,0.24160163228063164,5.8958799198649405,0.19324322156686952,3.3439130492170333,0.0688308393281849,3.364917629574038,0.06795726129782904,0.563991001488492,0.5543075977745286,1.0,0.22136077706309298,1.3430060295380752,1.289477320728285,1.3428869315794552,1.3430060295380752,953.2883070611166,0.9532883070611166,0.05,0.0,1.3344825798018158,0.29102051012762115,nan,0.1778467332833474,0.04900059362197635,203.34527704615533,0.0,stable
design_search,0.95,0.0,1000,0.12,0.1,misspecified_affine,2,estimated_weighted_fqe_clip99_ess40,3.5044177551992397,0.05542935128333758,3.650839522377161,0.06543299770891192,-12.058242504953277,-12.521693769832098,0.46345126487882027,0.46345126487882027,0.21478707491777843,5.80759850697551,0.19012945902550954,3.4321962171682183,0.06883594182168344,3.4566650313552065,0.0680453986649115,0.5596959539422287,0.5503471161879909,1.0000000000000002,0.22696234655827238,1.4964148171167944,1.2848519483845606,1.3381886490020825,1.4964091032578322,951.0115801596645,0.9510115801596645,0.01,0.0,1.4922705457775667,0.2943579542002252,nan,0.180563055970363,0.051511906755237334,204.58318109118582,0.0,stable
design_search,0.95,0.0,1000,0.12,0.2,well_specified,0,standard_fqe,0.09454105853920171,0.00041116174872510227,0.09373374352527129,0.0004156364275276647,-12.187344204472765,-12.521693769832098,0.33434956535933225,0.33434956535933225,0.11178963185597439,0.12815580775333751,0.0014402516678915537,0.09427943510512633,0.00047139553047252566,0.09400003668519855,0.0004479632316659742,0.0008332173875476138,0.0008091070357907669,1.0,0.0,1.0,1.0,1.0,1.0,1000.0,1.0,0.0,0.0,nan,2.362887686568832,nan,0.7448171993303523,0.4238008247252134,3240.803178661562,0.0,stable
design_search,0.95,0.0,1000,0.12,0.2,well_specified,0,oracle_weighted_fqe,0.0938618570011065,0.0005438077636477934,0.08408295464593622,0.0005770943781274404,-12.07102527617765,-12.521693769832098,0.4506684936544474,0.4506684936544474,0.20310209117276867,0.22655719959952914,0.0020000919597450654,0.09352026475590117,0.0006083237943994351,0.0934177201877483,0.0005693276626780883,0.002377479454846582,0.0014953768993549632,1.0000000000000002,0.8576193724835797,2.8789377393946527,2.365299886103558,2.562059124507576,2.7804436019327237,576.1991752747867,0.5761991752747867,0.0,0.0,nan,0.0,1.0,0.0,0.0,3891.837999113395,0.0,stable
design_search,0.95,0.0,1000,0.12,0.2,well_specified,0,oracle_weighted_fqe_clipped,0.09390370341449415,0.00054311065510677,0.08412560983090205,0.0005764561446645967,-12.07120881707069,-12.521693769832098,0.450484952761407,0.450484952761407,0.20293669266444708,0.22637650280224986,0.0019989543014259504,0.09356064284650577,0.0006074883138432355,0.09345796641106544,0.0005684975377087766,0.002375997396427458,0.0014946075173730697,1.0,0.8569835925387008,2.781844241827752,2.366491398631228,2.5633497538951713,2.7817707807198406,576.5613253122274,0.5765613253122274,0.01,0.0,2.7162971516227596,0.0021541415490890026,0.9999762133791592,0.0009789737716337239,2.0379541658220056e-05,3893.7038338916936,0.0,stable
design_search,0.95,0.0,1000,0.12,0.2,well_specified,0,estimated_weighted_fqe,0.07628007640930226,0.00035570330336234443,0.07736551098025167,0.0003606491844034649,-12.1884106918277,-12.521693769832098,0.3332830780043974,0.3332830780043974,0.11107761008408523,0.12864182507535785,0.0014549299157083945,0.07622602034333598,0.00040373860591820564,0.07594779870526853,0.0003775281108949376,0.00102283885689127,0.0008545166177336759,0.9999999999999999,0.39198610746866924,2.120698160367322,1.3963248450486976,1.5106842236596485,1.7182806056067583,866.8116894730264,0.8668116894730263,0.0,0.0,nan,2.779048741851501,0.495636952268245,0.6094729865947827,0.32032220764602903,3755.1535224189074,0.0,stable
design_search,0.95,0.0,1000,0.12,0.2,well_specified,0,estimated_weighted_fqe_clipped,0.07712145356730218,0.00040170266267925846,0.07837240817922629,0.0004062598144798374,-12.18462032318668,-12.521693769832098,0.3370734466454177,0.3370734466454177,0.11361850843342126,0.13425391712241996,0.0016415963153451221,0.07709066973892337,0.0004563272826661074,0.07676792401818214,0.0004249693403724835,0.0010948634532209514,0.0009161071806919347,1.0,0.38828192938921774,1.7217594628945632,1.399151865762014,1.5137427781261898,1.7217224389743842,868.9887705240742,0.8689887705240742,0.01,0.0,1.7276567454472809,2.7784276453388883,0.5028558826419187,0.6077309315071685,0.3177010902839965,3622.702044429143,0.0,stable
design_search,0.95,0.0,1000,0.12,0.2,well_specified,0,estimated_weighted_fqe_clip95,0.07735870501130172,0.00040860323031925884,0.07864941803825977,0.00041350943374174234,-12.189743836656616,-12.521693769832098,0.3319499331754816,0.3319499331754816,0.1101907581352067,0.13126663052439938,0.0016550931837195871,0.07730903127623026,0.00046477683990088693,0.07697944373555725,0.00043303803121881346,0.001092375721646728,0.0009150532673162449,1.0,0.3815743405538375,1.5224943761649266,1.4072409644525161,1.522416226188115,1.5224943761649266,872.90580714076,0.8729058071407599,0.05,0.0,1.518927572557195,2.7775221828203356,0.5135159916104073,0.6054398043889807,0.31403910810959396,3516.5697945928614,0.0,stable
design_search,0.95,0.0,1000,0.12,0.2,well_specified,0,estimated_weighted_fqe_clip99_ess40,0.07712145356730218,0.00040170266267925846,0.07837240817922629,0.0004062598144798374,-12.18462032318668,-12.521693769832098,0.3370734466454177,0.3370734466454177,0.11361850843342126,0.13425391712241996,0.0016415963153451221,0.07709066973892337,0.0004563272826661074,0.07676792401818214,0.0004249693403724835,0.0010948634532209514,0.0009161071806919347,1.0,0.38828192938921774,1.7217594628945632,1.399151865762014,1.5137427781261898,1.7217224389743842,868.9887705240742,0.8689887705240742,0.01,0.0,1.7276567454472809,2.7784276453388883,0.5028558826419187,0.6077309315071685,0.3177010902839965,3622.702044429143,0.0,stable
design_search,0.95,0.0,1000,0.12,0.2,well_specified,1,standard_fqe,0.019937124713916454,0.0001492886360590598,0.02138826017944654,0.00017777583281214718,-12.621477813466312,-12.521693769832098,-0.09978404363421411,0.09978404363421411,0.009956855363994746,0.019888421514281596,0.00037386416329722514,0.01966420532910963,0.0001747484491928352,0.019534159356115723,0.00017481470298970732,0.0019248818998366661,0.0013755595893256785,1.0,0.0,1.0,1.0,1.0,1.0,1000.0,1.0,0.0,0.0,nan,2.6623923786694985,nan,0.7431412334777394,0.4258116527035338,3155.1428225491572,0.0,stable
design_search,0.95,0.0,1000,0.12,0.2,well_specified,1,oracle_weighted_fqe,0.04536560697076136,0.0005233262083690247,0.05320523456084486,0.0007571977282637656,-12.736622475651897,-12.521693769832098,-0.2149287058197995,0.2149287058197995,0.04619434858537392,0.09136393206488355,0.0018250870210810026,0.04368351695300206,0.0005094878463817672,0.04423197227004418,0.0005241109033097719,0.007798256841308808,0.00335408797684539,1.0,0.8611555081152367,2.8370953706161557,2.346225010311625,2.601647501606811,2.7863787111503466,574.1883472964663,0.5741883472964663,0.0,0.0,nan,0.0,1.0,0.0,0.0,6020.253265574395,0.0,stable
design_search,0.95,0.0,1000,0.12,0.2,well_specified,1,oracle_weighted_fqe_clipped,0.04534769527597693,0.0005232203588798909,0.05318645169492129,0.0007570949778479488,-12.736572512253751,-12.521693769832098,-0.2148787424216536,0.2148787424216536,0.04617287394471136,0.0913418809429887,0.0018250357320203886,0.043665710592669355,0.0005093603521256947,0.04421421765043546,0.0005239844823409466,0.007797810623984202,0.0033537313963478447,1.0,0.8607723066655598,2.7872426902340415,2.346952509888922,2.6024542006443614,2.7871259136167583,574.405975616018,0.574405975616018,0.01,0.0,2.762562069462119,0.001221959767582195,0.9999925575616665,0.0006026729518621756,6.4196492900934245e-06,6022.072337199878,0.0,stable
design_search,0.95,0.0,1000,0.12,0.2,well_specified,1,estimated_weighted_fqe,0.012287526963555721,0.0001777324050429219,0.014678527906540442,0.00022370032030604014,-12.692377135736152,-12.521693769832098,-0.17068336590405409,0.17068336590405409,0.02913281139633721,0.040400898356834455,0.0005652299779181686,0.012050371889349498,0.0002082523411278009,0.01184103980690792,0.0002068568388478579,0.0023755601754907175,0.001529562966741496,1.0,0.4352467727069203,1.920828004065542,1.5534225507309296,1.6302825453191088,1.756943209553411,840.7319474148982,0.8407319474148982,0.0,0.0,nan,3.1342143055357257,0.32831501515946404,0.6770616125545746,0.3932694512347354,3940.6710506090226,0.0,stable
design_search,0.95,0.0,1000,0.12,0.2,well_specified,1,estimated_weighted_fqe_clipped,0.012377993231437208,0.00017648781957719766,0.014719130531311983,0.0002206677717660905,-12.693120091244776,-12.521693769832098,-0.1714263214126781,0.1714263214126781,0.02938698367308282,0.04037556704614245,0.0005575901542476343,0.012143635492153112,0.00020726823185544512,0.011940606714439118,0.0002054934995249338,0.002320899431999876,0.0014924540421087978,1.0,0.4345479186990945,1.7578138023951742,1.5541922959028542,1.6310903758205666,1.75769917523261,841.161820560991,0.841161820560991,0.01,0.0,1.7664162381326591,3.1342004683516285,0.3291483252316949,0.6768015413784474,0.3927892250193411,3915.0188114446087,0.0,stable
design_search,0.95,0.0,1000,0.12,0.2,well_specified,1,estimated_weighted_fqe_clip95,0.012845808353304384,0.00017543642103850759,0.015163095559283898,0.00021863326278102446,-12.691811315535173,-12.521693769832098,-0.17011754570307502,0.17011754570307502,0.02893997935603782,0.0395594536044036,0.0005436870775771149,0.012603218110826583,0.00020640986569856395,0.012405324399889102,0.0002037543383698913,0.002276484183646059,0.0014572240493280094,1.0,0.4307342651751014,1.6365364672700375,1.559381630288628,1.6364601603507007,1.6365364672700375,843.5031647650222,0.8435031647650222,0.05,0.0,1.6390726490971261,3.134081784903181,0.3336372771503527,0.6751263536322611,0.3902236889607855,3884.7698293753137,0.0,stable
design_search,0.95,0.0,1000,0.12,0.2,well_specified,1,estimated_weighted_fqe_clip99_ess40,0.012377993231437208,0.00017648781957719766,0.014719130531311983,0.0002206677717660905,-12.693120091244776,-12.521693769832098,-0.1714263214126781,0.1714263214126781,0.02938698367308282,0.04037556704614245,0.0005575901542476343,0.012143635492153112,0.00020726823185544512,0.011940606714439118,0.0002054934995249338,0.002320899431999876,0.0014924540421087978,1.0,0.4345479186990945,1.7578138023951742,1.5541922959028542,1.6310903758205666,1.75769917523261,841.161820560991,0.841161820560991,0.01,0.0,1.7664162381326591,3.1342004683516285,0.3291483252316949,0.6768015413784474,0.3927892250193411,3915.0188114446087,0.0,stable
design_search,0.95,0.0,1000,0.12,0.2,well_specified,2,standard_fqe,0.06430701299806058,0.0011197629060581205,0.07226372995809074,0.0014989811218507456,-12.160815735892612,-12.521693769832098,0.3608780339394855,0.3608780339394855,0.13023295538002844,0.23622188773677688,0.005112658001300682,0.06783551376140966,0.001381986640561704,0.0665542797505924,0.0013181905295115513,0.0052331077871709715,0.003403958675894222,1.0,0.0,1.0,1.0,1.0,1.0,1000.0,1.0,0.0,0.0,nan,2.2270647276774476,nan,0.7611194587950033,0.43673191815746354,2258.2371848971475,0.0,stable
design_search,0.95,0.0,1000,0.12,0.2,well_specified,2,oracle_weighted_fqe,0.07917388356098773,0.0007483706927896254,0.08864577685905863,0.0009858470477038218,-12.232441466181356,-12.521693769832098,0.2892523036507413,0.2892523036507413,0.08366689516726064,0.17250326421566675,0.0033849076628735355,0.08032726487502675,0.0009329897292823298,0.08060335348403999,0.0009042388314813028,0.005368217197244892,0.003475890338312866,1.0,0.8805416344841442,2.9560200825712135,2.4129348933608927,2.621701910907353,2.877634755513229,563.2680818425365,0.5632680818425365,0.0,0.0,nan,0.0,1.0,0.0,0.0,3436.2286506760975,0.0,stable
design_search,0.95,0.0,1000,0.12,0.2,well_specified,2,oracle_weighted_fqe_clipped,0.07918404149812927,0.0007483641092125974,0.08865453395877868,0.0009858271841752225,-12.232412439232327,-12.521693769832098,0.28928133059977057,0.28928133059977057,0.08368368823357375,0.17251693452348266,0.003384896654386096,0.08033739052913472,0.0009329875895817197,0.08061366028825194,0.0009042381638267897,0.005367824984202208,0.003475854899239338,1.0,0.8800507684435223,2.8787360035030907,2.4138583044004243,2.6227052154281476,2.8786808159876562,563.5424056846857,0.5635424056846857,0.01,0.0,2.736393497624007,0.0015501774423256405,0.9999876603430101,0.0007430663778743658,1.0907954847277295e-05,3437.4906350353012,0.0,stable
design_search,0.95,0.0,1000,0.12,0.2,well_specified,2,estimated_weighted_fqe,0.07415258059077694,0.0011368677776057293,0.08280495543005723,0.0016021198337232677,-12.258432142863306,-12.521693769832098,0.2632616269687915,0.2632616269687915,0.06930668423425514,0.1961479273911495,0.0047341847943228365,0.0751654512933556,0.001297804554115975,0.07488398052435988,0.0012565133248979498,0.008426193885358186,0.005194672989745246,1.0,0.32700023455767585,3.167742930960715,1.3287570552321162,1.378480825068085,1.5090864686228882,903.4001832255833,0.9034001832255834,0.0,0.0,nan,2.6145534067481075,0.41553344049911356,0.6673999940063686,0.3621743651552543,3141.2547251160554,0.0,stable
design_search,0.95,0.0,1000,0.12,0.2,well_specified,2,estimated_weighted_fqe_clipped,0.07853132440150806,0.0011432726097856125,0.08670658712946375,0.0015560277101482048,-12.231619133526412,-12.521693769832098,0.2900746363056861,0.2900746363056861,0.08414329462787605,0.20236841357393856,0.004849729743352139,0.08025171693719148,0.0013411379212073578,0.07972478367919596,0.0012883055160049493,0.00706806419621773,0.004518785461655491,1.0,0.3128485843580557,1.5162517024893463,1.3350660741322276,1.3850259354361172,1.515828242526668,910.8511399029411,0.9108511399029411,0.01,0.0,1.5165576147276614,2.6136967647131253,0.44244350949062694,0.6648287637736989,0.35455612933368846,2642.8096851831588,0.0,stable
design_search,0.95,0.0,1000,0.12,0.2,well_specified,2,estimated_weighted_fqe_clip95,0.0782018057176676,0.0011288417186210398,0.086312511507121,0.0015311540656994037,-12.229402225953084,-12.521693769832098,0.29229154387901346,0.29229154387901346,0.08543434662317725,0.2000207098415624,0.004792978145896606,0.08000997076026835,0.0013284159690551524,0.07942701939798026,0.0012748600925354006,0.006810349727073899,0.0043366142803238006,1.0,0.3097814889390811,1.3889553850272767,1.3388537828710665,1.388921230120974,1.3889553850272767,912.4382544488237,0.9124382544488238,0.05,0.0,1.3853053721439792,2.613575586209118,0.4470030399575669,0.6641685943169764,0.35342547948059516,2547.906983321133,0.0,stable
design_search,0.95,0.0,1000,0.12,0.2,well_specified,2,estimated_weighted_fqe_clip99_ess40,0.07853132440150806,0.0011432726097856125,0.08670658712946375,0.0015560277101482048,-12.231619133526412,-12.521693769832098,0.2900746363056861,0.2900746363056861,0.08414329462787605,0.20236841357393856,0.004849729743352139,0.08025171693719148,0.0013411379212073578,0.07972478367919596,0.0012883055160049493,0.00706806419621773,0.004518785461655491,1.0,0.3128485843580557,1.5162517024893463,1.3350660741322276,1.3850259354361172,1.515828242526668,910.8511399029411,0.9108511399029411,0.01,0.0,1.5165576147276614,2.6136967647131253,0.44244350949062694,0.6648287637736989,0.35455612933368846,2642.8096851831588,0.0,stable
design_search,0.95,0.0,1000,0.12,0.2,misspecified_affine,0,standard_fqe,2.9242318467767077,0.047653035212056924,3.5647400146631734,0.05468489835022678,-13.70669274038773,-12.521693769832098,-1.1849989705556325,1.1849989705556325,1.4042225602179088,6.106507083302097,0.11295748000352457,3.106329609311114,0.05218111740000836,2.827035079442226,0.04457968283232837,0.717650123647133,0.5704419953549029,1.0,0.0,1.0,1.0,1.0,1.0,1000.0,1.0,0.0,0.0,nan,2.362887686568832,nan,0.7448171993303523,0.4238008247252134,59.65132743667706,0.0,stable
design_search,0.95,0.0,1000,0.12,0.2,misspecified_affine,0,oracle_weighted_fqe,4.877935181303432,0.06929376231876784,5.6466262664174085,0.07985251198797191,-12.468750863271756,-12.521693769832098,0.052942906560341285,0.052942906560341285,0.002802951355057028,4.994069225431146,0.1585116123423866,5.073346179840812,0.07942317027822128,4.755971853831604,0.06994593226635118,0.7260440718006114,0.5650706237989042,1.0000000000000002,0.8576193724835797,2.8789377393946527,2.365299886103558,2.562059124507576,2.7804436019327237,576.1991752747867,0.5761991752747867,0.0,0.0,nan,0.0,1.0,0.0,0.0,198.9176010227301,0.0,stable
design_search,0.95,0.0,1000,0.12,0.2,misspecified_affine,0,oracle_weighted_fqe_clipped,4.899397217023628,0.06946139309685122,5.66884768297393,0.08005975402350152,-12.46631607516333,-12.521693769832098,0.055377694668766964,0.055377694668766964,0.003066689066827181,4.990683526579278,0.1585367037743787,5.094827602141675,0.07965810615446857,4.77734380758501,0.07016334641600622,0.7260372343826974,0.5651010068536579,1.0,0.8569835925387008,2.781844241827752,2.366491398631228,2.5633497538951713,2.7817707807198406,576.5613253122274,0.5765613253122274,0.01,0.0,2.7162971516227596,0.0021541415490890026,0.9999762133791592,0.0009789737716337239,2.0379541658220056e-05,198.8608701085323,0.0,stable
design_search,0.95,0.0,1000,0.12,0.2,misspecified_affine,0,estimated_weighted_fqe,5.892743337675307,0.07507518791149473,6.71956030111256,0.08921832258849276,-12.681095183099515,-12.521693769832098,-0.15940141326741752,0.15940141326741752,0.02540881055165003,4.497377929964836,0.13701231436592345,6.137348254697283,0.09125080585222527,5.783911071035233,0.07954698475820647,0.7669479559287888,0.5609669240949617,0.9999999999999999,0.39198610746866924,2.120698160367322,1.3963248450486976,1.5106842236596485,1.7182806056067583,866.8116894730264,0.8668116894730263,0.0,0.0,nan,2.779048741851501,0.495636952268245,0.6094729865947827,0.32032220764602903,79.25802519916303,1.0,finite_sample_variance_or_clipping
design_search,0.95,0.0,1000,0.12,0.2,misspecified_affine,0,estimated_weighted_fqe_clipped,5.546195185737447,0.07273617456862704,6.347666768400317,0.08565755551341736,-12.601555510830522,-12.521693769832098,-0.07986174099842458,0.07986174099842458,0.00637789767529945,4.641917763438789,0.1438696037445971,5.784856317148032,0.08729862771282867,5.438153583099703,0.07612875807962156,0.7612785310595659,0.5607685985084268,1.0,0.38828192938921774,1.7217594628945632,1.399151865762014,1.5137427781261898,1.7217224389743842,868.9887705240742,0.8689887705240742,0.01,0.0,1.7276567454472809,2.7784276453388883,0.5028558826419187,0.6077309315071685,0.3177010902839965,78.78436694897175,0.0,stable
design_search,0.95,0.0,1000,0.12,0.2,misspecified_affine,0,estimated_weighted_fqe_clip95,5.24752326931793,0.0706955486260027,6.02768275139831,0.08267529860826986,-12.57853175560609,-12.521693769832098,-0.05683798577399202,0.05683798577399202,0.003230556626844519,4.743506645859616,0.14729115836440324,5.481090875597651,0.08397790404188576,5.140310257665524,0.07324656846719614,0.7567299236878006,0.5611800384078548,1.0,0.3815743405538375,1.5224943761649266,1.4072409644525161,1.522416226188115,1.5224943761649266,872.90580714076,0.8729058071407599,0.05,0.0,1.518927572557195,2.7775221828203356,0.5135159916104073,0.6054398043889807,0.31403910810959396,77.98233758345879,0.0,stable
design_search,0.95,0.0,1000,0.12,0.2,misspecified_affine,0,estimated_weighted_fqe_clip99_ess40,5.546195185737447,0.07273617456862704,6.347666768400317,0.08565755551341736,-12.601555510830522,-12.521693769832098,-0.07986174099842458,0.07986174099842458,0.00637789767529945,4.641917763438789,0.1438696037445971,5.784856317148032,0.08729862771282867,5.438153583099703,0.07612875807962156,0.7612785310595659,0.5607685985084268,1.0,0.38828192938921774,1.7217594628945632,1.399151865762014,1.5137427781261898,1.7217224389743842,868.9887705240742,0.8689887705240742,0.01,0.0,1.7276567454472809,2.7784276453388883,0.5028558826419187,0.6077309315071685,0.3177010902839965,78.78436694897175,0.0,stable
design_search,0.95,0.0,1000,0.12,0.2,misspecified_affine,1,standard_fqe,3.35257218239955,0.05027511677584292,3.9191440666439368,0.057647713468799475,-15.142416531212552,-12.521693769832098,-2.6207227613804545,2.6207227613804545,6.868187792017594,11.324331581581315,0.12040809636076757,3.601348300362751,0.061356537615688544,3.3195361982552263,0.05824703911816595,0.7552350045957754,0.5667889290736388,1.0,0.0,1.0,1.0,1.0,1.0,1000.0,1.0,0.0,0.0,nan,2.6623923786694985,nan,0.7431412334777394,0.4258116527035338,59.42424543970135,0.0,stable
