Larsvanderlaan/rl-eval-kit/submission_bundles/neurips_bellman/fqe_stationary_weighting/code/FQE_neurips/results/final_results.csv
study_stage,gamma,shift,sample_size,process_noise_sd,behavior_action_sd,feature_regime,seed,estimator,target_q_mse,target_q_mse_se,behavior_q_mse,behavior_q_mse_se,policy_value_estimate,policy_value_true,policy_value_error,policy_value_absolute_error,policy_value_squared_error,initial_v_mse,initial_v_mse_se,behavior_v_mse,behavior_v_mse_se,target_v_mse,target_v_mse_se,behavior_bellman_residual_mse,target_bellman_residual_mse,weight_mean,weight_std,weight_max,weight_q90,weight_q95,weight_q99,effective_sample_size,effective_sample_size_fraction,fraction_clipped,chosen_uniform_mix,clip_level,oracle_log_ratio_rmse,oracle_estimated_weight_corr,oracle_estimated_weight_mae,oracle_estimated_weight_rel_mse,weighted_design_condition_number,unstable_run_flag,unstable_reason
final,0.95,0.0,1000,0.05,0.1,well_specified,0,standard_fqe,0.010013608063523933,4.5369562478771526e-05,0.009950526238888396,4.4416383343145756e-05,-11.714636114650546,-11.831586406340458,0.11695029168991233,0.11695029168991233,0.013677370726355578,0.016300737312559547,0.00019977853684876576,0.009946515829521446,4.852629959901266e-05,0.009885839078086925,4.6160464015562714e-05,0.00012782700371471344,0.00012713005474976734,1.0,0.0,1.0,1.0,1.0,1.0,1000.0,1.0,0.0,0.0,nan,0.0,1.0,0.0,0.0,4474.673803172487,0.0,stable
final,0.95,0.0,1000,0.05,0.1,well_specified,0,oracle_weighted_fqe,0.010013608063523933,4.5369562478771526e-05,0.009950526238888396,4.4416383343145756e-05,-11.714636114650546,-11.831586406340458,0.11695029168991233,0.11695029168991233,0.013677370726355578,0.016300737312559547,0.00019977853684876576,0.009946515829521446,4.852629959901266e-05,0.009885839078086925,4.6160464015562714e-05,0.00012782700371471344,0.00012713005474976734,1.0,0.0,1.0,1.0,1.0,1.0,1000.0,1.0,0.0,0.0,nan,0.0,1.0,0.0,0.0,4474.673803172487,0.0,stable
final,0.95,0.0,1000,0.05,0.1,well_specified,0,oracle_weighted_fqe_clipped,0.010013608063523933,4.5369562478771526e-05,0.009950526238888396,4.4416383343145756e-05,-11.714636114650546,-11.831586406340458,0.11695029168991233,0.11695029168991233,0.013677370726355578,0.016300737312559547,0.00019977853684876576,0.009946515829521446,4.852629959901266e-05,0.009885839078086925,4.6160464015562714e-05,0.00012782700371471344,0.00012713005474976734,1.0,0.0,1.0,1.0,1.0,1.0,1000.0,1.0,0.0,0.0,1.0,0.0,1.0,0.0,0.0,4474.673803172487,0.0,stable
final,0.95,0.0,1000,0.05,0.1,well_specified,0,estimated_weighted_fqe,0.009755330580105245,4.047744581326944e-05,0.009695664611934666,3.944368763075149e-05,-11.716883738566235,-11.831586406340458,0.11470266777422289,0.11470266777422289,0.01315670199452375,0.015418333507381216,0.0001776125892274558,0.009687048743156408,4.2582448168929255e-05,0.0096394249883036,4.108151913292274e-05,0.00012106287249607395,0.00012242100312805467,1.0,0.16140576686885466,1.4179879845107737,1.18558755008644,1.2346802312511047,1.3382271346891734,974.6096434598752,0.9746096434598752,0.0,0.0,nan,0.17353709562539893,nan,0.1281358179594288,0.02605182157852306,3971.638252945794,0.0,stable
final,0.95,0.0,1000,0.05,0.1,well_specified,0,estimated_weighted_fqe_clipped,0.009769006061066307,4.139346391324702e-05,0.009708446225553736,4.033374305174181e-05,-11.716581067352946,-11.831586406340458,0.11500533898751186,0.11500533898751186,0.013226227995632516,0.01555463016141469,0.00018157377191149816,0.009699664435904054,4.357448930234842e-05,0.009651158907577765,4.194451709164326e-05,0.00012238171695478395,0.00012366192962005095,1.0,0.160564443466437,1.3387604995203393,1.1860600787679265,1.235172326349175,1.3387439030972734,974.8670115736626,0.9748670115736626,0.01,0.0,1.3381203592279414,0.17297992148613084,nan,0.12782158085856285,0.025780940505686644,3971.7894426929774,0.0,stable
final,0.95,0.0,1000,0.05,0.1,well_specified,0,estimated_weighted_fqe_clip95,0.009767481625261342,4.2486969283783214e-05,0.009705950104635316,4.139972918032454e-05,-11.716114164969598,-11.831586406340458,0.11547224137085976,0.11547224137085976,0.013333838527210097,0.015734630461821823,0.00018596149193815615,0.009696742310645873,4.469417083646107e-05,0.009646947609284178,4.2884883751627446e-05,0.00012455190328773672,0.00012573125963973416,1.0,0.15647954265063094,1.2383686463554675,1.189129308443462,1.2382944549877002,1.2383686463554675,976.0993796708432,0.9760993796708431,0.05,0.0,1.2345817176671632,0.1699013596172793,nan,0.1257859503271647,0.024485847268150628,3973.380401002033,0.0,stable
final,0.95,0.0,1000,0.05,0.1,well_specified,0,estimated_weighted_fqe_clip99_ess40,0.009769006061066307,4.139346391324702e-05,0.009708446225553736,4.033374305174181e-05,-11.716581067352946,-11.831586406340458,0.11500533898751186,0.11500533898751186,0.013226227995632516,0.01555463016141469,0.00018157377191149816,0.009699664435904054,4.357448930234842e-05,0.009651158907577765,4.194451709164326e-05,0.00012238171695478395,0.00012366192962005095,1.0,0.160564443466437,1.3387604995203393,1.1860600787679265,1.235172326349175,1.3387439030972734,974.8670115736626,0.9748670115736626,0.01,0.0,1.3381203592279414,0.17297992148613084,nan,0.12782158085856285,0.025780940505686644,3971.7894426929774,0.0,stable
final,0.95,0.0,1000,0.05,0.1,well_specified,1,standard_fqe,0.0035855642101135453,2.5479650561092703e-05,0.0036031934117718833,2.6737889427427208e-05,-11.860192438529328,-11.831586406340458,-0.028606032188870145,0.028606032188870145,0.0008183050775906748,0.003027396435799879,7.239465211154097e-05,0.0034828114777087946,2.82641346585902e-05,0.0034637055462636225,2.9170196180345488e-05,0.0003071814296208695,0.000306599336490255,1.0,0.0,1.0,1.0,1.0,1.0,1000.0,1.0,0.0,0.0,nan,0.0,1.0,0.0,0.0,4575.980869350114,0.0,stable
final,0.95,0.0,1000,0.05,0.1,well_specified,1,oracle_weighted_fqe,0.0035855642101135453,2.5479650561092703e-05,0.0036031934117718833,2.6737889427427208e-05,-11.860192438529328,-11.831586406340458,-0.028606032188870145,0.028606032188870145,0.0008183050775906748,0.003027396435799879,7.239465211154097e-05,0.0034828114777087946,2.82641346585902e-05,0.0034637055462636225,2.9170196180345488e-05,0.0003071814296208695,0.000306599336490255,1.0,0.0,1.0,1.0,1.0,1.0,1000.0,1.0,0.0,0.0,nan,0.0,1.0,0.0,0.0,4575.980869350114,0.0,stable
final,0.95,0.0,1000,0.05,0.1,well_specified,1,oracle_weighted_fqe_clipped,0.0035855642101135453,2.5479650561092703e-05,0.0036031934117718833,2.6737889427427208e-05,-11.860192438529328,-11.831586406340458,-0.028606032188870145,0.028606032188870145,0.0008183050775906748,0.003027396435799879,7.239465211154097e-05,0.0034828114777087946,2.82641346585902e-05,0.0034637055462636225,2.9170196180345488e-05,0.0003071814296208695,0.000306599336490255,1.0,0.0,1.0,1.0,1.0,1.0,1000.0,1.0,0.0,0.0,1.0,0.0,1.0,0.0,0.0,4575.980869350114,0.0,stable
final,0.95,0.0,1000,0.05,0.1,well_specified,1,estimated_weighted_fqe,0.0026581052371008706,1.751989749053359e-05,0.0026776654683571253,2.0271068048811526e-05,-11.855552632862276,-11.831586406340458,-0.0239662265218179,0.0239662265218179,0.0005743800136950878,0.002754422785113319,7.200925573608741e-05,0.002603614947702141,1.8439768329265608e-05,0.002595231584532847,1.945143648720663e-05,0.00023798991556942938,0.00024181626256841816,1.0,0.09294992547042083,1.6190051085039918,1.091746296593375,1.1224273200051689,1.3463236006677057,991.4343161961395,0.9914343161961395,0.0,0.0,nan,0.09618520664886483,nan,0.06209469559171426,0.008639688644956787,3997.3297284586497,0.0,stable
final,0.95,0.0,1000,0.05,0.1,well_specified,1,estimated_weighted_fqe_clipped,0.002668896476788181,1.7438577656664444e-05,0.002688800806235192,2.019346004376893e-05,-11.85492582678893,-11.831586406340458,-0.02333942044847248,0.02333942044847248,0.0005447285468705754,0.002674479047878556,6.944577588031812e-05,0.002610791891948029,1.8000141689455657e-05,0.0026032014325005123,1.9113777305244176e-05,0.0002337125752339614,0.00023714099398531463,0.9999999999999999,0.08838352079896784,1.3476579050025868,1.0928282963558487,1.1235397268870875,1.3476538101724775,992.2489020899671,0.9922489020899672,0.01,0.0,1.3462732118724345,0.09355715067629307,nan,0.061119818622625596,0.0078116467488215805,3934.1380461511553,0.0,stable
final,0.95,0.0,1000,0.05,0.1,well_specified,1,estimated_weighted_fqe_clip95,0.0026870949756322275,1.7308966872177046e-05,0.002708414969877594,2.0129132489818876e-05,-11.854211987538898,-11.831586406340458,-0.02262558119844016,0.02262558119844016,0.0005119169245672088,0.0025855089201891166,6.622394050804196e-05,0.002625202947094559,1.7483293551095753e-05,0.00261909780345898,1.8776540233710195e-05,0.00022465298164249962,0.00022645644778582653,1.0,0.07817363917171864,1.1281919325557839,1.0973533361684635,1.1281825795897489,1.1281919325557839,993.9260010620496,0.9939260010620496,0.05,0.0,1.1223853109663269,0.08622114791416434,nan,0.05720122443222964,0.0061111178613500634,3795.8927966531865,0.0,stable
final,0.95,0.0,1000,0.05,0.1,well_specified,1,estimated_weighted_fqe_clip99_ess40,0.002668896476788181,1.7438577656664444e-05,0.002688800806235192,2.019346004376893e-05,-11.85492582678893,-11.831586406340458,-0.02333942044847248,0.02333942044847248,0.0005447285468705754,0.002674479047878556,6.944577588031812e-05,0.002610791891948029,1.8000141689455657e-05,0.0026032014325005123,1.9113777305244176e-05,0.0002337125752339614,0.00023714099398531463,0.9999999999999999,0.08838352079896784,1.3476579050025868,1.0928282963558487,1.1235397268870875,1.3476538101724775,992.2489020899671,0.9922489020899672,0.01,0.0,1.3462732118724345,0.09355715067629307,nan,0.061119818622625596,0.0078116467488215805,3934.1380461511553,0.0,stable
final,0.95,0.0,1000,0.05,0.1,well_specified,2,standard_fqe,0.013972711916959032,0.00024157669534435977,0.014823548701718488,0.00029897682935007565,-11.660094483907319,-11.831586406340458,0.17149192243313927,0.17149192243313927,0.029409479459813856,0.051339949633373634,0.0010046816561009064,0.014338775360596188,0.0002612184531190997,0.014213351918228303,0.00025407607098843166,0.0010995336697542431,0.000980692209027848,1.0,0.0,1.0,1.0,1.0,1.0,1000.0,1.0,0.0,0.0,nan,0.0,1.0,0.0,0.0,2999.613862088343,0.0,stable
final,0.95,0.0,1000,0.05,0.1,well_specified,2,oracle_weighted_fqe,0.013972711916959032,0.00024157669534435977,0.014823548701718488,0.00029897682935007565,-11.660094483907319,-11.831586406340458,0.17149192243313927,0.17149192243313927,0.029409479459813856,0.051339949633373634,0.0010046816561009064,0.014338775360596188,0.0002612184531190997,0.014213351918228303,0.00025407607098843166,0.0010995336697542431,0.000980692209027848,1.0,0.0,1.0,1.0,1.0,1.0,1000.0,1.0,0.0,0.0,nan,0.0,1.0,0.0,0.0,2999.613862088343,0.0,stable
final,0.95,0.0,1000,0.05,0.1,well_specified,2,oracle_weighted_fqe_clipped,0.013972711916959032,0.00024157669534435977,0.014823548701718488,0.00029897682935007565,-11.660094483907319,-11.831586406340458,0.17149192243313927,0.17149192243313927,0.029409479459813856,0.051339949633373634,0.0010046816561009064,0.014338775360596188,0.0002612184531190997,0.014213351918228303,0.00025407607098843166,0.0010995336697542431,0.000980692209027848,1.0,0.0,1.0,1.0,1.0,1.0,1000.0,1.0,0.0,0.0,1.0,0.0,1.0,0.0,0.0,2999.613862088343,0.0,stable
final,0.95,0.0,1000,0.05,0.1,well_specified,2,estimated_weighted_fqe,0.018867567734451363,0.00024629833835970076,0.01976777795162924,0.00030203103212597275,-11.68530092511153,-11.831586406340458,0.1462854812289276,0.1462854812289276,0.021399442018378928,0.047272742047403504,0.0010087437894644828,0.018988390250218562,0.00025606915684066767,0.019022352586061175,0.0002548517803042672,0.0012920430750296115,0.0012468180258166108,1.0,0.20070129835921888,2.6336925633773043,1.2233097534287585,1.2892622031482277,1.5165912909734827,961.2787211043673,0.9612787211043673,0.0,0.0,nan,0.2050061595311074,nan,0.1487126958576643,0.04028101116307619,3954.4268908070594,0.0,stable
final,0.95,0.0,1000,0.05,0.1,well_specified,2,estimated_weighted_fqe_clipped,0.018724385112741247,0.000246109252045944,0.019675196272678917,0.0003041019401709762,-11.679494827488998,-11.831586406340458,0.15209157885145963,0.15209157885145963,0.023131848357529763,0.04680438100413707,0.001013937092066533,0.018883654124311873,0.0002578466153473073,0.01889133954364571,0.0002527944943861031,0.0012306514289285955,0.001128463506636471,0.9999999999999999,0.18771194244919592,1.5213617530981183,1.2271576937935507,1.2933175979968259,1.5210969210793128,965.9635280720306,0.9659635280720306,0.01,0.0,1.5164623405480677,0.19971819994119314,nan,0.14606809801583262,0.03523577333805023,3510.7349911218394,0.0,stable
final,0.95,0.0,1000,0.05,0.1,well_specified,2,estimated_weighted_fqe_clip95,0.018330852802607107,0.0002409309304493732,0.019262946573371444,0.0002975684559552021,-11.678184823689072,-11.831586406340458,0.15340158265138548,0.15340158265138548,0.023532045559949852,0.04627033050132174,0.0009908450473323574,0.0184961643150069,0.0002522210482961934,0.01849463233187071,0.0002469110712831774,0.0011921150999239013,0.0010872645139433925,1.0,0.1773542412048384,1.3003287104697827,1.2338101514934745,1.30020698389142,1.3003287104697827,969.5046887149817,0.9695046887149817,0.05,0.0,1.289152581715903,0.1928087813686421,nan,0.14163021695306469,0.031454526873344,3257.5991068976364,0.0,stable
final,0.95,0.0,1000,0.05,0.1,well_specified,2,estimated_weighted_fqe_clip99_ess40,0.018724385112741247,0.000246109252045944,0.019675196272678917,0.0003041019401709762,-11.679494827488998,-11.831586406340458,0.15209157885145963,0.15209157885145963,0.023131848357529763,0.04680438100413707,0.001013937092066533,0.018883654124311873,0.0002578466153473073,0.01889133954364571,0.0002527944943861031,0.0012306514289285955,0.001128463506636471,0.9999999999999999,0.18771194244919592,1.5213617530981183,1.2271576937935507,1.2933175979968259,1.5210969210793128,965.9635280720306,0.9659635280720306,0.01,0.0,1.5164623405480677,0.19971819994119314,nan,0.14606809801583262,0.03523577333805023,3510.7349911218394,0.0,stable
final,0.95,0.0,1000,0.05,0.1,well_specified,3,standard_fqe,0.010069165739137175,9.026711795812776e-05,0.009946946428681056,8.097221849328667e-05,-11.69207441017847,-11.831586406340458,0.13951199616198728,0.13951199616198728,0.019463597073102353,0.02111502731136934,0.00018980417412034107,0.009797760602511562,7.876595291912281e-05,0.0098968703026051,8.0670996298481e-05,0.0003337367449303316,0.00033977725519784407,1.0,0.0,1.0,1.0,1.0,1.0,1000.0,1.0,0.0,0.0,nan,0.0,1.0,0.0,0.0,3441.931149482604,0.0,stable
final,0.95,0.0,1000,0.05,0.1,well_specified,3,oracle_weighted_fqe,0.010069165739137175,9.026711795812776e-05,0.009946946428681056,8.097221849328667e-05,-11.69207441017847,-11.831586406340458,0.13951199616198728,0.13951199616198728,0.019463597073102353,0.02111502731136934,0.00018980417412034107,0.009797760602511562,7.876595291912281e-05,0.0098968703026051,8.0670996298481e-05,0.0003337367449303316,0.00033977725519784407,1.0,0.0,1.0,1.0,1.0,1.0,1000.0,1.0,0.0,0.0,nan,0.0,1.0,0.0,0.0,3441.931149482604,0.0,stable
final,0.95,0.0,1000,0.05,0.1,well_specified,3,oracle_weighted_fqe_clipped,0.010069165739137175,9.026711795812776e-05,0.009946946428681056,8.097221849328667e-05,-11.69207441017847,-11.831586406340458,0.13951199616198728,0.13951199616198728,0.019463597073102353,0.02111502731136934,0.00018980417412034107,0.009797760602511562,7.876595291912281e-05,0.0098968703026051,8.0670996298481e-05,0.0003337367449303316,0.00033977725519784407,1.0,0.0,1.0,1.0,1.0,1.0,1000.0,1.0,0.0,0.0,1.0,0.0,1.0,0.0,0.0,3441.931149482604,0.0,stable
final,0.95,0.0,1000,0.05,0.1,well_specified,3,estimated_weighted_fqe,0.009526023654577201,7.799206831184176e-05,0.009437126367668788,7.07450357795931e-05,-11.699925086617828,-11.831586406340458,0.13166131972262995,0.13166131972262995,0.017334703111104587,0.01883426573303439,0.0001811080861030572,0.009309032660089289,6.996436657768357e-05,0.009402672352066072,7.042170957667262e-05,0.0003292271767857956,0.0003309708637793337,1.0,0.09470989120268065,1.5764295126145762,1.1002967958826568,1.1749976565653517,1.3834061415548764,991.109781444254,0.9911097814442541,0.0,0.0,nan,0.08904878149555497,nan,0.05891489914383001,0.008969963491623606,3779.421516505788,0.0,stable
final,0.95,0.0,1000,0.05,0.1,well_specified,3,estimated_weighted_fqe_clipped,0.009527123585874389,7.771382322251443e-05,0.009438632574644047,7.043401334698314e-05,-11.699840670226617,-11.831586406340458,0.13174573611384055,0.13174573611384055,0.01735693898417771,0.018827371372563358,0.00017880502811806108,0.009311366456535635,6.949413296770824e-05,0.009404344351794552,7.000543866229418e-05,0.00032780291984512875,0.0003295052350462553,1.0,0.09000342833993619,1.3847643801228584,1.1013770755630083,1.1761512781132812,1.3847131302723141,991.9644755935763,0.9919644755935763,0.01,0.0,1.3833010782165314,0.08613852300876375,nan,0.05777871919960207,0.008100617112942028,3776.216833106078,0.0,stable
final,0.95,0.0,1000,0.05,0.1,well_specified,3,estimated_weighted_fqe_clip95,0.00975230101886108,8.562538965921332e-05,0.009647270265251513,7.75187944338235e-05,-11.69450172954651,-11.831586406340458,0.13708467679394865,0.13708467679394865,0.01879220861170136,0.020344095416323774,0.00018657196136658238,0.009514316380159099,7.736169654462109e-05,0.009615761601243469,7.875573514956995e-05,0.00033912678048992056,0.00034081306099998965,1.0,0.07534463345585968,1.181799293612192,1.1066660166275486,1.1817698276068378,1.181799293612192,994.3552305146612,0.9943552305146612,0.05,0.0,1.1749084208936007,0.07518142395521203,nan,0.05246373107198639,0.0056768137905978495,3663.9110539637436,0.0,stable
final,0.95,0.0,1000,0.05,0.1,well_specified,3,estimated_weighted_fqe_clip99_ess40,0.009527123585874389,7.771382322251443e-05,0.009438632574644047,7.043401334698314e-05,-11.699840670226617,-11.831586406340458,0.13174573611384055,0.13174573611384055,0.01735693898417771,0.018827371372563358,0.00017880502811806108,0.009311366456535635,6.949413296770824e-05,0.009404344351794552,7.000543866229418e-05,0.00032780291984512875,0.0003295052350462553,1.0,0.09000342833993619,1.3847643801228584,1.1013770755630083,1.1761512781132812,1.3847131302723141,991.9644755935763,0.9919644755935763,0.01,0.0,1.3833010782165314,0.08613852300876375,nan,0.05777871919960207,0.008100617112942028,3776.216833106078,0.0,stable
final,0.95,0.0,1000,0.05,0.1,well_specified,4,standard_fqe,0.004171171011828954,1.9286648047539423e-05,0.004165134933563838,2.066655453923242e-05,-11.769999325655325,-11.831586406340458,0.061587080685132634,0.061587080685132634,0.003792968507317037,0.0057071272725446225,5.747050256955242e-05,0.004070121363095854,1.8824414556689752e-05,0.004102491420533374,1.8760331877386294e-05,0.00033417984352092643,0.0002851293815293522,1.0,0.0,1.0,1.0,1.0,1.0,1000.0,1.0,0.0,0.0,nan,0.0,1.0,0.0,0.0,3142.2560119049654,0.0,stable
final,0.95,0.0,1000,0.05,0.1,well_specified,4,oracle_weighted_fqe,0.004171171011828954,1.9286648047539423e-05,0.004165134933563838,2.066655453923242e-05,-11.769999325655325,-11.831586406340458,0.061587080685132634,0.061587080685132634,0.003792968507317037,0.0057071272725446225,5.747050256955242e-05,0.004070121363095854,1.8824414556689752e-05,0.004102491420533374,1.8760331877386294e-05,0.00033417984352092643,0.0002851293815293522,1.0,0.0,1.0,1.0,1.0,1.0,1000.0,1.0,0.0,0.0,nan,0.0,1.0,0.0,0.0,3142.2560119049654,0.0,stable
final,0.95,0.0,1000,0.05,0.1,well_specified,4,oracle_weighted_fqe_clipped,0.004171171011828954,1.9286648047539423e-05,0.004165134933563838,2.066655453923242e-05,-11.769999325655325,-11.831586406340458,0.061587080685132634,0.061587080685132634,0.003792968507317037,0.0057071272725446225,5.747050256955242e-05,0.004070121363095854,1.8824414556689752e-05,0.004102491420533374,1.8760331877386294e-05,0.00033417984352092643,0.0002851293815293522,1.0,0.0,1.0,1.0,1.0,1.0,1000.0,1.0,0.0,0.0,1.0,0.0,1.0,0.0,0.0,3142.2560119049654,0.0,stable
final,0.95,0.0,1000,0.05,0.1,well_specified,4,estimated_weighted_fqe,0.006764335714787124,8.927059282034744e-05,0.006704438250513183,7.640083547227409e-05,-11.738223842913504,-11.831586406340458,0.09336256342695393,0.09336256342695393,0.008716568249651994,0.013720632665691094,0.00025487050934123974,0.006359952650493312,6.0056429676282166e-05,0.006541882492103228,8.978914179305817e-05,0.0008531707286900476,0.0008118800688819356,1.0,0.17025558475740218,2.0238077116600333,1.2138195268413405,1.2822607976191485,1.524937661000944,971.8296099452722,0.9718296099452722,0.0,0.0,nan,0.609539956745067,nan,0.12829306372568045,0.02898696414108496,3762.6400454783497,0.0,stable
final,0.95,0.0,1000,0.05,0.1,well_specified,4,estimated_weighted_fqe_clipped,0.006185670483126038,7.306003079656759e-05,0.006137173122033852,6.311887284295894e-05,-11.740314505653119,-11.831586406340458,0.09127190068733881,0.09127190068733881,0.008330559855079439,0.01222758963292392,0.00020924298685145496,0.0058445020905773274,5.01136720394827e-05,0.0060047815333526605,7.383367903172117e-05,0.0007089441525367184,0.0006746174332816868,0.9999999999999998,0.16240012242622145,1.5280141192364443,1.216268325356364,1.2848476717529447,1.5276244413741944,974.3039039284567,0.9743039039284568,0.01,0.0,1.52579395584113,0.608425026986342,nan,0.1261708706534378,0.026373799764051718,3518.19203585347,0.0,stable
final,0.95,0.0,1000,0.05,0.1,well_specified,4,estimated_weighted_fqe_clip95,0.005950908725001289,6.30391117720244e-05,0.005912150229534701,5.4985718885740754e-05,-11.740436866208052,-11.831586406340458,0.09114954013240606,0.09114954013240606,0.008308238666349103,0.011700918688919973,0.00018514962551148894,0.005655363352172761,4.492762554875774e-05,0.005802663335700759,6.47557152077108e-05,0.0006255726394011891,0.0005911409874527658,1.0,0.1516991458370374,1.2910016998281253,1.2220938793000342,1.2909720866908496,1.2910016998281253,977.5050374220519,0.977505037422052,0.05,0.0,1.2829808226620434,0.6063757926511952,nan,0.12116545095788916,0.02301263084768674,3213.213618558313,0.0,stable
final,0.95,0.0,1000,0.05,0.1,well_specified,4,estimated_weighted_fqe_clip99_ess40,0.006185670483126038,7.306003079656759e-05,0.006137173122033852,6.311887284295894e-05,-11.740314505653119,-11.831586406340458,0.09127190068733881,0.09127190068733881,0.008330559855079439,0.01222758963292392,0.00020924298685145496,0.0058445020905773274,5.01136720394827e-05,0.0060047815333526605,7.383367903172117e-05,0.0007089441525367184,0.0006746174332816868,0.9999999999999998,0.16240012242622145,1.5280141192364443,1.216268325356364,1.2848476717529447,1.5276244413741944,974.3039039284567,0.9743039039284568,0.01,0.0,1.52579395584113,0.608425026986342,nan,0.1261708706534378,0.026373799764051718,3518.19203585347,0.0,stable
final,0.95,0.0,1000,0.05,0.1,well_specified,5,standard_fqe,0.0044038971571126965,9.508205319421305e-05,0.004294912843666693,8.755785592274125e-05,-11.690146724851274,-11.831586406340458,0.1414396814891834,0.1414396814891834,0.020005183499761648,0.022614398548130875,0.0002253744796431504,0.003977629724934106,9.105912400680629e-05,0.004195331682446413,9.555169928507855e-05,0.0003301354522526624,0.00036582822579459467,1.0,0.0,1.0,1.0,1.0,1.0,1000.0,1.0,0.0,0.0,nan,0.0,1.0,0.0,0.0,5703.324287574908,0.0,stable
final,0.95,0.0,1000,0.05,0.1,well_specified,5,oracle_weighted_fqe,0.0044038971571126965,9.508205319421305e-05,0.004294912843666693,8.755785592274125e-05,-11.690146724851274,-11.831586406340458,0.1414396814891834,0.1414396814891834,0.020005183499761648,0.022614398548130875,0.0002253744796431504,0.003977629724934106,9.105912400680629e-05,0.004195331682446413,9.555169928507855e-05,0.0003301354522526624,0.00036582822579459467,1.0,0.0,1.0,1.0,1.0,1.0,1000.0,1.0,0.0,0.0,nan,0.0,1.0,0.0,0.0,5703.324287574908,0.0,stable
final,0.95,0.0,1000,0.05,0.1,well_specified,5,oracle_weighted_fqe_clipped,0.0044038971571126965,9.508205319421305e-05,0.004294912843666693,8.755785592274125e-05,-11.690146724851274,-11.831586406340458,0.1414396814891834,0.1414396814891834,0.020005183499761648,0.022614398548130875,0.0002253744796431504,0.003977629724934106,9.105912400680629e-05,0.004195331682446413,9.555169928507855e-05,0.0003301354522526624,0.00036582822579459467,1.0,0.0,1.0,1.0,1.0,1.0,1000.0,1.0,0.0,0.0,1.0,0.0,1.0,0.0,0.0,5703.324287574908,0.0,stable
final,0.95,0.0,1000,0.05,0.1,well_specified,5,estimated_weighted_fqe,0.004838756844258583,9.369418781080283e-05,0.004726534021779868,8.472392593491596e-05,-11.696698307681952,-11.831586406340458,0.13488809865850548,0.13488809865850548,0.018194799159706707,0.02105125250538584,0.00023971788257519185,0.004429919501283859,8.690492682767656e-05,0.004615567094446031,9.051714934206038e-05,0.0003345721749762142,0.00037479707811511145,1.0,0.2080632208346445,1.4580402580821972,1.2795017107591327,1.3341860241972776,1.4093849443359985,958.5059846681701,0.95850598466817,0.0,0.0,nan,0.21945259433850317,nan,0.17279510303926943,0.04329030386408605,3986.2451270571164,0.0,stable
final,0.95,0.0,1000,0.05,0.1,well_specified,5,estimated_weighted_fqe_clipped,0.004843041085700708,9.376668392849719e-05,0.00473075149203323,8.47956801544229e-05,-11.69662163667121,-11.831586406340458,0.13496476966924753,0.13496476966924753,0.01821548905187304,0.021072260959345907,0.00023981151696205366,0.004433884962023631,8.69782003911613e-05,0.004619740109386727,9.05933540293088e-05,0.0003345834953136927,0.0003747994696562831,1.0,0.2076368151803238,1.4097134617469544,1.2797999533301359,1.3344970132852227,1.409603509884163,958.6688641835435,0.9586688641835435,0.01,0.0,1.4092072762618701,0.2191646461056665,nan,0.17260275376141812,0.04311304701822795,3987.103679960838,0.0,stable
final,0.95,0.0,1000,0.05,0.1,well_specified,5,estimated_weighted_fqe_clip95,0.004826961539280136,9.322211089593006e-05,0.004714748721069444,8.43843221959502e-05,-11.696519812907681,-11.831586406340458,0.13506659343277683,0.13506659343277683,0.018242984661535032,0.021056889754891832,0.0002369863028250728,0.004417839989454609,8.642204255763163e-05,0.004604227201224715,9.007939925644551e-05,0.00033298116103579883,0.0003730056053217222,1.0,0.2044685032715935,1.3372109441652613,1.2824026482624116,1.3370689214715246,1.3372109441652613,959.8703463989967,0.9598703463989967,0.05,0.0,1.334017835752807,0.21683527033283534,nan,0.1709301987986842,0.04180736883012564,3994.0100582232335,0.0,stable
final,0.95,0.0,1000,0.05,0.1,well_specified,5,estimated_weighted_fqe_clip99_ess40,0.004843041085700708,9.376668392849719e-05,0.00473075149203323,8.47956801544229e-05,-11.69662163667121,-11.831586406340458,0.13496476966924753,0.13496476966924753,0.01821548905187304,0.021072260959345907,0.00023981151696205366,0.004433884962023631,8.69782003911613e-05,0.004619740109386727,9.05933540293088e-05,0.0003345834953136927,0.0003747994696562831,1.0,0.2076368151803238,1.4097134617469544,1.2797999533301359,1.3344970132852227,1.409603509884163,958.6688641835435,0.9586688641835435,0.01,0.0,1.4092072762618701,0.2191646461056665,nan,0.17260275376141812,0.04311304701822795,3987.103679960838,0.0,stable
final,0.95,0.0,1000,0.05,0.1,well_specified,6,standard_fqe,0.014192312097448603,9.936350270694712e-05,0.014319503414562583,9.94337804825042e-05,-11.795327188931342,-11.831586406340458,0.03625921740911586,0.03625921740911586,0.0013147308471215308,0.002236765944939905,6.589174201749153e-05,0.014179285112041513,0.00011460290511818674,0.014210005068944128,0.00011440961908868533,0.00020715886573725766,0.00016897618330251438,1.0,0.0,1.0,1.0,1.0,1.0,1000.0,1.0,0.0,0.0,nan,0.0,1.0,0.0,0.0,3697.8619374613836,0.0,stable
final,0.95,0.0,1000,0.05,0.1,well_specified,6,oracle_weighted_fqe,0.014192312097448603,9.936350270694712e-05,0.014319503414562583,9.94337804825042e-05,-11.795327188931342,-11.831586406340458,0.03625921740911586,0.03625921740911586,0.0013147308471215308,0.002236765944939905,6.589174201749153e-05,0.014179285112041513,0.00011460290511818674,0.014210005068944128,0.00011440961908868533,0.00020715886573725766,0.00016897618330251438,1.0,0.0,1.0,1.0,1.0,1.0,1000.0,1.0,0.0,0.0,nan,0.0,1.0,0.0,0.0,3697.8619374613836,0.0,stable
final,0.95,0.0,1000,0.05,0.1,well_specified,6,oracle_weighted_fqe_clipped,0.014192312097448603,9.936350270694712e-05,0.014319503414562583,9.94337804825042e-05,-11.795327188931342,-11.831586406340458,0.03625921740911586,0.03625921740911586,0.0013147308471215308,0.002236765944939905,6.589174201749153e-05,0.014179285112041513,0.00011460290511818674,0.014210005068944128,0.00011440961908868533,0.00020715886573725766,0.00016897618330251438,1.0,0.0,1.0,1.0,1.0,1.0,1000.0,1.0,0.0,0.0,1.0,0.0,1.0,0.0,0.0,3697.8619374613836,0.0,stable
final,0.95,0.0,1000,0.05,0.1,well_specified,6,estimated_weighted_fqe,0.013098890266922602,7.837764722408236e-05,0.013184296452457748,7.866297587391348e-05,-11.801950184796421,-11.831586406340458,0.029636221544036445,0.029636221544036445,0.00087830562740721,0.0013340322613929457,2.4118315595011433e-05,0.013034369577440278,9.101360103105994e-05,0.013068008067830145,9.034739409354634e-05,0.0002132529871257478,0.00017716620858330696,1.0,0.1394791127547871,2.4557924327216187,1.1601783058636805,1.212847299699043,1.371205442618517,980.9168291804361,0.9809168291804361,0.0,0.0,nan,0.13289655335588668,nan,0.10447795019459977,0.019454422894862614,4138.075549124134,0.0,stable
final,0.95,0.0,1000,0.05,0.1,well_specified,6,estimated_weighted_fqe_clipped,0.013315838397959802,8.106979888102177e-05,0.013395732478379564,8.12894962168579e-05,-11.806749724440804,-11.831586406340458,0.024836681899653712,0.024836681899653712,0.0006168607677845863,0.0010512590685930138,2.333248677670517e-05,0.013269400277794427,9.420258341635572e-05,0.013297487602489597,9.359283761669502e-05,0.00019101335300803312,0.00015996983113982454,1.0,0.1272508538038318,1.374245170872784,1.162750223000756,1.2155359749991983,1.374201335769701,984.0652481342272,0.9840652481342272,0.01,0.0,1.3710714869721714,0.12757024032811382,nan,0.10227933495637465,0.016192779793804176,4026.523020010461,0.0,stable
final,0.95,0.0,1000,0.05,0.1,well_specified,6,estimated_weighted_fqe_clip95,0.013210052345162161,7.982966457230379e-05,0.013287485828760381,8.003856102447242e-05,-11.803291954803372,-11.831586406340458,0.028294451537085763,0.028294451537085763,0.0008005759877844949,0.001187450031134776,2.3440402555751018e-05,0.01316871842241061,9.27136866275858e-05,0.013197656068391609,9.208281089278653e-05,0.0001787356555278576,0.0001495772037518157,0.9999999999999998,0.11913703483760145,1.2201603422265528,1.1671737728877494,1.220107424957231,1.2201603422265528,986.0050067294026,0.9860050067294026,0.05,0.0,1.2127288143584076,0.1215130304616504,nan,0.09854078826012926,0.01419363306989586,3906.860652601772,0.0,stable
final,0.95,0.0,1000,0.05,0.1,well_specified,6,estimated_weighted_fqe_clip99_ess40,0.013315838397959802,8.106979888102177e-05,0.013395732478379564,8.12894962168579e-05,-11.806749724440804,-11.831586406340458,0.024836681899653712,0.024836681899653712,0.0006168607677845863,0.0010512590685930138,2.333248677670517e-05,0.013269400277794427,9.420258341635572e-05,0.013297487602489597,9.359283761669502e-05,0.00019101335300803312,0.00015996983113982454,1.0,0.1272508538038318,1.374245170872784,1.162750223000756,1.2155359749991983,1.374201335769701,984.0652481342272,0.9840652481342272,0.01,0.0,1.3710714869721714,0.12757024032811382,nan,0.10227933495637465,0.016192779793804176,4026.523020010461,0.0,stable
final,0.95,0.0,1000,0.05,0.1,well_specified,7,standard_fqe,0.00821731706646002,0.00016541123184173203,0.008020326859245553,0.00016161336297518706,-11.66572358280761,-11.831586406340458,0.16586282353284787,0.16586282353284787,0.027510476230288634,0.036478217193182484,0.0003382287527686201,0.007650561952784744,0.0001574611300380549,0.008091499711465503,0.00017409290771916962,0.000925163993499114,0.0010049597690607519,1.0,0.0,1.0,1.0,1.0,1.0,1000.0,1.0,0.0,0.0,nan,0.0,1.0,0.0,0.0,5065.9724543283555,0.0,stable
final,0.95,0.0,1000,0.05,0.1,well_specified,7,oracle_weighted_fqe,0.00821731706646002,0.00016541123184173203,0.008020326859245553,0.00016161336297518706,-11.66572358280761,-11.831586406340458,0.16586282353284787,0.16586282353284787,0.027510476230288634,0.036478217193182484,0.0003382287527686201,0.007650561952784744,0.0001574611300380549,0.008091499711465503,0.00017409290771916962,0.000925163993499114,0.0010049597690607519,1.0,0.0,1.0,1.0,1.0,1.0,1000.0,1.0,0.0,0.0,nan,0.0,1.0,0.0,0.0,5065.9724543283555,0.0,stable
final,0.95,0.0,1000,0.05,0.1,well_specified,7,oracle_weighted_fqe_clipped,0.00821731706646002,0.00016541123184173203,0.008020326859245553,0.00016161336297518706,-11.66572358280761,-11.831586406340458,0.16586282353284787,0.16586282353284787,0.027510476230288634,0.036478217193182484,0.0003382287527686201,0.007650561952784744,0.0001574611300380549,0.008091499711465503,0.00017409290771916962,0.000925163993499114,0.0010049597690607519,1.0,0.0,1.0,1.0,1.0,1.0,1000.0,1.0,0.0,0.0,1.0,0.0,1.0,0.0,0.0,5065.9724543283555,0.0,stable
final,0.95,0.0,1000,0.05,0.1,well_specified,7,estimated_weighted_fqe,0.0063286048143086256,0.0001172250885223001,0.0061591073434227005,0.00011597264851722593,-11.687880550014402,-11.831586406340458,0.14370585632605604,0.14370585632605604,0.02065137314240506,0.027309835282337085,0.00022897459797955572,0.005991337885327284,0.0001268114325852995,0.0063155862936352825,0.000137703561376483,0.0006878380384245515,0.0007289626720914975,1.0,0.12159603074683309,1.9768754242303082,1.1083028885890638,1.1523624559540517,1.279406703814551,985.4298338775175,0.9854298338775175,0.0,0.0,nan,0.16716040722617764,nan,0.07281898660644404,0.01478559469338478,4153.012777780499,0.0,stable
final,0.95,0.0,1000,0.05,0.1,well_specified,7,estimated_weighted_fqe_clipped,0.006243517897395107,0.00011900610998784238,0.006075507215657767,0.00011811545625909305,-11.68925684970046,-11.831586406340458,0.14232955663999824,0.14232955663999824,0.02025770269333847,0.027730393476092005,0.00023408951611489457,0.005890104603013443,0.00012881823038618056,0.006221985895662953,0.00014100432816683875,0.0007376133029966967,0.0007763672171187274,1.0,0.10985031181258005,1.2825386802215746,1.1110160043547916,1.1551834291548544,1.2824583230529056,988.076787485171,0.988076787485171,0.01,0.0,1.2793762500300312,0.1629250113864901,nan,0.07032933026892957,0.012067091005321063,4028.658215526297,0.0,stable
final,0.95,0.0,1000,0.05,0.1,well_specified,7,estimated_weighted_fqe_clip95,0.006286886260775233,0.00012005494225274362,0.006118174421676288,0.00011926329510267938,-11.688367014568696,-11.831586406340458,0.1432193917717619,0.1432193917717619,0.020511794179473422,0.028062911570252102,0.0002347056600615156,0.0059251618664391,0.00012986243487250892,0.006259852603330207,0.0001421501791012441,0.0007468563114348929,0.0007843508458972402,1.0000000000000002,0.10327492213396292,1.1593528111378069,1.1150259736760428,1.1592243912477487,1.1593528111378069,989.4468473194647,0.9894468473194648,0.05,0.0,1.1523350262103922,0.15926809623449587,nan,0.06672244725979201,0.010665709541776106,3970.3868980730017,0.0,stable
final,0.95,0.0,1000,0.05,0.1,well_specified,7,estimated_weighted_fqe_clip99_ess40,0.006243517897395107,0.00011900610998784238,0.006075507215657767,0.00011811545625909305,-11.68925684970046,-11.831586406340458,0.14232955663999824,0.14232955663999824,0.02025770269333847,0.027730393476092005,0.00023408951611489457,0.005890104603013443,0.00012881823038618056,0.006221985895662953,0.00014100432816683875,0.0007376133029966967,0.0007763672171187274,1.0,0.10985031181258005,1.2825386802215746,1.1110160043547916,1.1551834291548544,1.2824583230529056,988.076787485171,0.988076787485171,0.01,0.0,1.2793762500300312,0.1629250113864901,nan,0.07032933026892957,0.012067091005321063,4028.658215526297,0.0,stable
final,0.95,0.0,1000,0.05,0.1,well_specified,8,standard_fqe,0.0057669497633956466,2.0839941614548393e-05,0.005764663721396184,2.0281679209487828e-05,-11.772234679346791,-11.831586406340458,0.05935172699366653,0.05935172699366653,0.0035226274971307246,0.004544273168117809,5.5202288968597055e-05,0.0057039709959040815,1.710022891228391e-05,0.005720965248731952,1.9187917317519848e-05,0.00015750914430877916,0.00013428548307246402,1.0,0.0,1.0,1.0,1.0,1.0,1000.0,1.0,0.0,0.0,nan,0.0,1.0,0.0,0.0,4010.3373656399367,0.0,stable
final,0.95,0.0,1000,0.05,0.1,well_specified,8,oracle_weighted_fqe,0.0057669497633956466,2.0839941614548393e-05,0.005764663721396184,2.0281679209487828e-05,-11.772234679346791,-11.831586406340458,0.05935172699366653,0.05935172699366653,0.0035226274971307246,0.004544273168117809,5.5202288968597055e-05,0.0057039709959040815,1.710022891228391e-05,0.005720965248731952,1.9187917317519848e-05,0.00015750914430877916,0.00013428548307246402,1.0,0.0,1.0,1.0,1.0,1.0,1000.0,1.0,0.0,0.0,nan,0.0,1.0,0.0,0.0,4010.3373656399367,0.0,stable
final,0.95,0.0,1000,0.05,0.1,well_specified,8,oracle_weighted_fqe_clipped,0.0057669497633956466,2.0839941614548393e-05,0.005764663721396184,2.0281679209487828e-05,-11.772234679346791,-11.831586406340458,0.05935172699366653,0.05935172699366653,0.0035226274971307246,0.004544273168117809,5.5202288968597055e-05,0.0057039709959040815,1.710022891228391e-05,0.005720965248731952,1.9187917317519848e-05,0.00015750914430877916,0.00013428548307246402,1.0,0.0,1.0,1.0,1.0,1.0,1000.0,1.0,0.0,0.0,1.0,0.0,1.0,0.0,0.0,4010.3373656399367,0.0,stable
final,0.95,0.0,1000,0.05,0.1,well_specified,8,estimated_weighted_fqe,0.0047354767710309385,1.9568893259773244e-05,0.004709230711599438,1.6572707971971968e-05,-11.769635354439037,-11.831586406340458,0.061951051901420584,0.061951051901420584,0.003837932831692507,0.0040602391274148514,3.0125818254170367e-05,0.004642844394429089,9.433672422119836e-06,0.004649457688981812,1.0708401634955892e-05,0.00011001002964183843,0.00010825217384567404,0.9999999999999999,0.13507200568856786,1.900573842189738,1.1700614598755517,1.2294648702242317,1.307298268609506,982.0824490823505,0.9820824490823505,0.0,0.0,nan,0.13827413768109734,nan,0.09439074126635737,0.018244446720732506,4013.1368430513126,0.0,stable
final,0.95,0.0,1000,0.05,0.1,well_specified,8,estimated_weighted_fqe_clipped,0.0047071244594758975,1.9068637471610296e-05,0.0046824415712861354,1.6144403408317818e-05,-11.772038115463856,-11.831586406340458,0.059548290876602294,0.059548290876602294,0.003545998946324436,0.0037785314157708356,2.800839527734041e-05,0.004607449931294114,9.041859238048517e-06,0.004613050215925309,1.002197976918575e-05,0.00012090427285976615,0.00011541952624521474,1.0000000000000002,0.12701320809251962,1.310018054982253,1.1724957300725365,1.2320227270500987,1.3100089340832353,984.1237660132592,0.9841237660132592,0.01,0.0,1.3072381888631501,0.1340294347537682,nan,0.09220073690050953,0.016132355029953693,3664.8360439913095,0.0,stable
final,0.95,0.0,1000,0.05,0.1,well_specified,8,estimated_weighted_fqe_clip95,0.004725665413543467,1.871642586410375e-05,0.004701198002972264,1.5872489993008336e-05,-11.773045383089013,-11.831586406340458,0.05854102325144517,0.05854102325144517,0.003427051403326244,0.003658790782029988,2.726570017807446e-05,0.004625804325055582,9.030407281314341e-06,0.004631108951975332,9.930940281010302e-06,0.00012177055893554822,0.00011570918978590865,1.0,0.12252443249033938,1.2348031026295843,1.1751417677010387,1.2347867396712076,1.2348031026295843,985.2097974621457,0.9852097974621458,0.05,0.0,1.229408367481644,0.13073589606334754,nan,0.08984301774541253,0.015012236557079733,3596.019804498291,0.0,stable
final,0.95,0.0,1000,0.05,0.1,well_specified,8,estimated_weighted_fqe_clip99_ess40,0.0047071244594758975,1.9068637471610296e-05,0.0046824415712861354,1.6144403408317818e-05,-11.772038115463856,-11.831586406340458,0.059548290876602294,0.059548290876602294,0.003545998946324436,0.0037785314157708356,2.800839527734041e-05,0.004607449931294114,9.041859238048517e-06,0.004613050215925309,1.002197976918575e-05,0.00012090427285976615,0.00011541952624521474,1.0000000000000002,0.12701320809251962,1.310018054982253,1.1724957300725365,1.2320227270500987,1.3100089340832353,984.1237660132592,0.9841237660132592,0.01,0.0,1.3072381888631501,0.1340294347537682,nan,0.09220073690050953,0.016132355029953693,3664.8360439913095,0.0,stable
final,0.95,0.0,1000,0.05,0.1,well_specified,9,standard_fqe,0.005500786663638179,8.134715129679883e-05,0.005619635380891376,8.658293019198121e-05,-11.783565502568548,-11.831586406340458,0.04802090377190993,0.04802090377190993,0.002306007199071033,0.01066468189712997,0.00019907175091531945,0.005473699637411073,8.550947493771552e-05,0.005438981506656716,9.718502438192322e-05,0.0005242450656767087,0.0005681907815787326,1.0,0.0,1.0,1.0,1.0,1.0,1000.0,1.0,0.0,0.0,nan,0.0,1.0,0.0,0.0,3900.679030254908,0.0,stable
final,0.95,0.0,1000,0.05,0.1,well_specified,9,oracle_weighted_fqe,0.005500786663638179,8.134715129679883e-05,0.005619635380891376,8.658293019198121e-05,-11.783565502568548,-11.831586406340458,0.04802090377190993,0.04802090377190993,0.002306007199071033,0.01066468189712997,0.00019907175091531945,0.005473699637411073,8.550947493771552e-05,0.005438981506656716,9.718502438192322e-05,0.0005242450656767087,0.0005681907815787326,1.0,0.0,1.0,1.0,1.0,1.0,1000.0,1.0,0.0,0.0,nan,0.0,1.0,0.0,0.0,3900.679030254908,0.0,stable
final,0.95,0.0,1000,0.05,0.1,well_specified,9,oracle_weighted_fqe_clipped,0.005500786663638179,8.134715129679883e-05,0.005619635380891376,8.658293019198121e-05,-11.783565502568548,-11.831586406340458,0.04802090377190993,0.04802090377190993,0.002306007199071033,0.01066468189712997,0.00019907175091531945,0.005473699637411073,8.550947493771552e-05,0.005438981506656716,9.718502438192322e-05,0.0005242450656767087,0.0005681907815787326,1.0,0.0,1.0,1.0,1.0,1.0,1000.0,1.0,0.0,0.0,1.0,0.0,1.0,0.0,0.0,3900.679030254908,0.0,stable
final,0.95,0.0,1000,0.05,0.1,well_specified,9,estimated_weighted_fqe,0.004901533497365984,5.274373921990456e-05,0.004970101457806705,5.487668490846543e-05,-11.785304317642165,-11.831586406340458,0.04628208869829287,0.04628208869829287,0.002142031734276648,0.006168076620201939,8.28812435382547e-05,0.00487605671189663,5.478661089054655e-05,0.0048114725323887475,5.496136391253839e-05,0.0004164164555308998,0.0004665702348365931,1.0,0.1142334565828785,1.4486212115000794,1.1024553153030796,1.151781394546506,1.3551041701911883,987.1188077155099,0.9871188077155099,0.0,0.0,nan,0.11861466916643833,nan,0.08240172397345875,0.013049282602872388,4083.13751235978,0.0,stable
final,0.95,0.0,1000,0.05,0.1,well_specified,9,estimated_weighted_fqe_clipped,0.004900796354924251,5.272125591975151e-05,0.004969394574100826,5.4863364809023986e-05,-11.78550730547673,-11.831586406340458,0.046079100863728684,0.046079100863728684,0.0021232835364096815,0.006155905636036967,8.288989954088853e-05,0.004875312398839789,5.477172487425525e-05,0.004811156441983447,5.4984239186290105e-05,0.0004159745799038067,0.0004658988699412433,1.0,0.11302810566567374,1.3556057569120188,1.1028633849988485,1.152207722105311,1.3555585031989104,987.3857982062002,0.9873857982062002,0.01,0.0,1.355065245332647,0.11786034946137422,nan,0.08207570514469416,0.012775352670370709,4059.8107312136935,0.0,stable
final,0.95,0.0,1000,0.05,0.1,well_specified,9,estimated_weighted_fqe_clip95,0.004893020252627767,5.240519362594571e-05,0.0049612143824534554,5.4215631373662514e-05,-11.781904967137914,-11.831586406340458,0.0496814392025442,0.0496814392025442,0.0024682454012360956,0.006122771673999697,7.667404656243611e-05,0.0048753491590531215,5.4413368787851896e-05,0.0048066865064641945,5.4169614514626924e-05,0.00039679234024412045,0.00044512764641641564,1.0,0.10044702419586583,1.1591382566966013,1.1094971131821973,1.1591006245765687,1.1591382566966013,990.0111785893463,0.9900111785893463,0.05,0.0,1.1517483100583616,0.1085777182173995,nan,0.07696024643834531,0.010089604669804856,3867.5511558348057,0.0,stable
final,0.95,0.0,1000,0.05,0.1,well_specified,9,estimated_weighted_fqe_clip99_ess40,0.004900796354924251,5.272125591975151e-05,0.004969394574100826,5.4863364809023986e-05,-11.78550730547673,-11.831586406340458,0.046079100863728684,0.046079100863728684,0.0021232835364096815,0.006155905636036967,8.288989954088853e-05,0.004875312398839789,5.477172487425525e-05,0.004811156441983447,5.4984239186290105e-05,0.0004159745799038067,0.0004658988699412433,1.0,0.11302810566567374,1.3556057569120188,1.1028633849988485,1.152207722105311,1.3555585031989104,987.3857982062002,0.9873857982062002,0.01,0.0,1.355065245332647,0.11786034946137422,nan,0.08207570514469416,0.012775352670370709,4059.8107312136935,0.0,stable
final,0.95,0.0,1000,0.05,0.1,well_specified,10,standard_fqe,0.007157988868089501,7.677246037729391e-05,0.007209844889925382,6.830627673129597e-05,-11.76629971766635,-11.831586406340458,0.06528668867410836,0.06528668867410836,0.004262351718029949,0.007048313492932579,0.00015317456239092358,0.006654127129790627,6.009035957107625e-05,0.006728028548813171,5.777640102278544e-05,0.0007683683924737697,0.0007787433738193783,1.0,0.0,1.0,1.0,1.0,1.0,1000.0,1.0,0.0,0.0,nan,0.0,1.0,0.0,0.0,4253.59106700153,0.0,stable
final,0.95,0.0,1000,0.05,0.1,well_specified,10,oracle_weighted_fqe,0.007157988868089501,7.677246037729391e-05,0.007209844889925382,6.830627673129597e-05,-11.76629971766635,-11.831586406340458,0.06528668867410836,0.06528668867410836,0.004262351718029949,0.007048313492932579,0.00015317456239092358,0.006654127129790627,6.009035957107625e-05,0.006728028548813171,5.777640102278544e-05,0.0007683683924737697,0.0007787433738193783,1.0,0.0,1.0,1.0,1.0,1.0,1000.0,1.0,0.0,0.0,nan,0.0,1.0,0.0,0.0,4253.59106700153,0.0,stable
final,0.95,0.0,1000,0.05,0.1,well_specified,10,oracle_weighted_fqe_clipped,0.007157988868089501,7.677246037729391e-05,0.007209844889925382,6.830627673129597e-05,-11.76629971766635,-11.831586406340458,0.06528668867410836,0.06528668867410836,0.004262351718029949,0.007048313492932579,0.00015317456239092358,0.006654127129790627,6.009035957107625e-05,0.006728028548813171,5.777640102278544e-05,0.0007683683924737697,0.0007787433738193783,1.0,0.0,1.0,1.0,1.0,1.0,1000.0,1.0,0.0,0.0,1.0,0.0,1.0,0.0,0.0,4253.59106700153,0.0,stable
final,0.95,0.0,1000,0.05,0.1,well_specified,10,estimated_weighted_fqe,0.006900707928236962,6.964026802182448e-05,0.006946419954390219,6.226237485368425e-05,-11.758701877992928,-11.831586406340458,0.07288452834752945,0.07288452834752945,0.005312154472441825,0.007352371958337405,0.00013612014412420575,0.006560921013387476,5.728929181499875e-05,0.006634954149099042,5.476841795875493e-05,0.0005846694107237141,0.0006022570923203239,1.0,0.1587740287288386,1.4185405832570133,1.2105943767495821,1.2644536823400025,1.3222423511878467,975.4106845796816,0.9754106845796816,0.0,0.0,nan,0.1776668215261349,nan,0.1263772339990519,0.02520919219878607,4090.5119035831876,0.0,stable
final,0.95,0.0,1000,0.05,0.1,well_specified,10,estimated_weighted_fqe_clipped,0.0068975572441099435,6.96366896706262e-05,0.006943237331354112,6.225584969272543e-05,-11.75873374519118,-11.831586406340458,0.07285266114927857,0.07285266114927857,0.005307510236531604,0.007347401489436906,0.0001360524746700637,0.00655762052645571,5.7274290236655165e-05,0.006631613495697562,5.474752894569467e-05,0.0005848071914444595,0.0006024502274777363,1.0,0.15806236381291458,1.322700782495807,1.2110140988701479,1.2648920778844577,1.3226594068550643,975.6252605875001,0.9756252605875001,0.01,0.0,1.3221985439067534,0.17720492397538046,nan,0.1260660214756419,0.024983710854126172,4091.02379345719,0.0,stable
final,0.95,0.0,1000,0.05,0.1,well_specified,10,estimated_weighted_fqe_clip95,0.006904038400510314,6.97333595713324e-05,0.006949294877638319,6.231774565134408e-05,-11.75916446366539,-11.831586406340458,0.07242194267506719,0.07242194267506719,0.005244937780830718,0.0072877766920396376,0.00013550364171235492,0.006561806738447491,5.734063417295045e-05,0.006635646750236266,5.4745120102417186e-05,0.0005863202362128227,0.0006049622185484121,1.0,0.15541323940341992,1.2668955552728531,1.2129322382960603,1.2667605506829938,1.2668955552728531,976.4163474629396,0.9764163474629396,0.05,0.0,1.2644117896583458,0.1753201411611969,nan,0.12464708243878656,0.024153274981864713,4083.952035210746,0.0,stable
final,0.95,0.0,1000,0.05,0.1,well_specified,10,estimated_weighted_fqe_clip99_ess40,0.0068975572441099435,6.96366896706262e-05,0.006943237331354112,6.225584969272543e-05,-11.75873374519118,-11.831586406340458,0.07285266114927857,0.07285266114927857,0.005307510236531604,0.007347401489436906,0.0001360524746700637,0.00655762052645571,5.7274290236655165e-05,0.006631613495697562,5.474752894569467e-05,0.0005848071914444595,0.0006024502274777363,1.0,0.15806236381291458,1.322700782495807,1.2110140988701479,1.2648920778844577,1.3226594068550643,975.6252605875001,0.9756252605875001,0.01,0.0,1.3221985439067534,0.17720492397538046,nan,0.1260660214756419,0.024983710854126172,4091.02379345719,0.0,stable
final,0.95,0.0,1000,0.05,0.1,well_specified,11,standard_fqe,0.012305707736341457,0.0001085350328002015,0.012314456356099743,0.00010521395210157604,-11.694090611111985,-11.831586406340458,0.13749579522847277,0.13749579522847277,0.018905093705510117,0.02486103188345832,0.0004179865221891849,0.012396808671704116,0.00013115933328812553,0.012136869240335498,0.00010317103927655237,0.00023434195944829327,0.00023294826983733807,1.0,0.0,1.0,1.0,1.0,1.0,1000.0,1.0,0.0,0.0,nan,0.0,1.0,0.0,0.0,4369.291196687156,0.0,stable
final,0.95,0.0,1000,0.05,0.1,well_specified,11,oracle_weighted_fqe,0.012305707736341457,0.0001085350328002015,0.012314456356099743,0.00010521395210157604,-11.694090611111985,-11.831586406340458,0.13749579522847277,0.13749579522847277,0.018905093705510117,0.02486103188345832,0.0004179865221891849,0.012396808671704116,0.00013115933328812553,0.012136869240335498,0.00010317103927655237,0.00023434195944829327,0.00023294826983733807,1.0,0.0,1.0,1.0,1.0,1.0,1000.0,1.0,0.0,0.0,nan,0.0,1.0,0.0,0.0,4369.291196687156,0.0,stable
final,0.95,0.0,1000,0.05,0.1,well_specified,11,oracle_weighted_fqe_clipped,0.012305707736341457,0.0001085350328002015,0.012314456356099743,0.00010521395210157604,-11.694090611111985,-11.831586406340458,0.13749579522847277,0.13749579522847277,0.018905093705510117,0.02486103188345832,0.0004179865221891849,0.012396808671704116,0.00013115933328812553,0.012136869240335498,0.00010317103927655237,0.00023434195944829327,0.00023294826983733807,1.0,0.0,1.0,1.0,1.0,1.0,1000.0,1.0,0.0,0.0,1.0,0.0,1.0,0.0,0.0,4369.291196687156,0.0,stable
final,0.95,0.0,1000,0.05,0.1,well_specified,11,estimated_weighted_fqe,0.012715537631450105,0.00010655905809168501,0.012713409189317411,0.00010201762095928589,-11.694194333605996,-11.831586406340458,0.1373920727344622,0.1373920727344622,0.01887658165027175,0.02471910832078395,0.00040911810986878316,0.012788052085897296,0.000127455685419792,0.012537712492644026,0.00010061825640849585,0.0002254739503823629,0.0002271469771741853,1.0,0.11977917468879462,1.4079677795235404,1.1394832103206007,1.2019627698643036,1.3340769128707117,985.8558757780371,0.9858558757780371,0.0,0.0,nan,0.12798976521526464,nan,0.08740879034839791,0.014347050689128778,4236.508134282542,0.0,stable
final,0.95,0.0,1000,0.05,0.1,well_specified,11,estimated_weighted_fqe_clipped,0.01271038735453142,0.0001065557858116411,0.012708207762140851,0.00010201272929240493,-11.694211854060173,-11.831586406340458,0.13737455228028495,0.13737455228028495,0.01887176761420874,0.02471507914720369,0.00040911572154715226,0.012782884636785,0.00012745224657968526,0.012532539405226771,0.00010061333556410116,0.000225467614691514,0.00022714263894605479,0.9999999999999999,0.11870041259747702,1.3345766726903108,1.1399100732084386,1.202413038279293,1.3345266401229012,986.105975902506,0.9861059759025059,0.01,0.0,1.3338729988568732,0.1273068867870123,nan,0.08704744391906419,0.014089787950811278,4238.043834402487,0.0,stable
final,0.95,0.0,1000,0.05,0.1,well_specified,11,estimated_weighted_fqe_clip95,0.012651366200292703,0.00010651690547871116,0.012648734069567371,0.00010196338422880199,-11.694389509024708,-11.831586406340458,0.13719689731575002,0.13719689731575002,0.018822988633068454,0.02467399373239362,0.00040903519382338896,0.012723398619229598,0.00012739675011839497,0.012473000922667727,0.00010054627907061679,0.00022560402344621179,0.0002273026027655514,1.0,0.11033824505489,1.2071418201359558,1.1443930469460897,1.2069981917656056,1.2071418201359558,987.9719080246185,0.9879719080246185,0.05,0.0,1.2017790495326475,0.1213586379318218,nan,0.08331065763980118,0.012174528321792956,4254.572012850986,0.0,stable
final,0.95,0.0,1000,0.05,0.1,well_specified,11,estimated_weighted_fqe_clip99_ess40,0.01271038735453142,0.0001065557858116411,0.012708207762140851,0.00010201272929240493,-11.694211854060173,-11.831586406340458,0.13737455228028495,0.13737455228028495,0.01887176761420874,0.02471507914720369,0.00040911572154715226,0.012782884636785,0.00012745224657968526,0.012532539405226771,0.00010061333556410116,0.000225467614691514,0.00022714263894605479,0.9999999999999999,0.11870041259747702,1.3345766726903108,1.1399100732084386,1.202413038279293,1.3345266401229012,986.105975902506,0.9861059759025059,0.01,0.0,1.3338729988568732,0.1273068867870123,nan,0.08704744391906419,0.014089787950811278,4238.043834402487,0.0,stable
final,0.95,0.0,1000,0.05,0.1,well_specified,12,standard_fqe,0.006155998572254437,6.473146404842512e-05,0.006120729462298166,7.288714286648006e-05,-11.770055243204267,-11.831586406340458,0.061531163136191225,0.061531163136191225,0.003786084036892578,0.010227786994685658,0.0001550446861933413,0.005930427980508227,5.2660063936657246e-05,0.005929993537345354,5.4263557720838844e-05,0.00027517783488052944,0.0002854263118324273,1.0,0.0,1.0,1.0,1.0,1.0,1000.0,1.0,0.0,0.0,nan,0.0,1.0,0.0,0.0,5847.608289741881,0.0,stable
final,0.95,0.0,1000,0.05,0.1,well_specified,12,oracle_weighted_fqe,0.006155998572254437,6.473146404842512e-05,0.006120729462298166,7.288714286648006e-05,-11.770055243204267,-11.831586406340458,0.061531163136191225,0.061531163136191225,0.003786084036892578,0.010227786994685658,0.0001550446861933413,0.005930427980508227,5.2660063936657246e-05,0.005929993537345354,5.4263557720838844e-05,0.00027517783488052944,0.0002854263118324273,1.0,0.0,1.0,1.0,1.0,1.0,1000.0,1.0,0.0,0.0,nan,0.0,1.0,0.0,0.0,5847.608289741881,0.0,stable
final,0.95,0.0,1000,0.05,0.1,well_specified,12,oracle_weighted_fqe_clipped,0.006155998572254437,6.473146404842512e-05,0.006120729462298166,7.288714286648006e-05,-11.770055243204267,-11.831586406340458,0.061531163136191225,0.061531163136191225,0.003786084036892578,0.010227786994685658,0.0001550446861933413,0.005930427980508227,5.2660063936657246e-05,0.005929993537345354,5.4263557720838844e-05,0.00027517783488052944,0.0002854263118324273,1.0,0.0,1.0,1.0,1.0,1.0,1000.0,1.0,0.0,0.0,1.0,0.0,1.0,0.0,0.0,5847.608289741881,0.0,stable
final,0.95,0.0,1000,0.05,0.1,well_specified,12,estimated_weighted_fqe,0.005931715713582731,6.885830864717453e-05,0.0058608244547334746,7.724006121265095e-05,-11.76506015078362,-11.831586406340458,0.06652625555683755,0.06652625555683755,0.004425742678413659,0.011210420754733245,0.0001610339523724091,0.005643597485167851,5.8316324978450436e-05,0.005619301823184363,5.8343115847887226e-05,0.0003584548290313693,0.0003780299681072492,1.0000000000000002,0.12077501875881123,1.2867843320605605,1.120726090010412,1.1499586613930552,1.2052245278822384,985.6231049354867,0.9856231049354867,0.0,0.0,nan,0.1652999583280321,nan,0.08811357450379444,0.014586605156191205,3832.5064818923943,0.0,stable
final,0.95,0.0,1000,0.05,0.1,well_specified,12,estimated_weighted_fqe_clipped,0.005934649696179103,6.9047598531539e-05,0.005863503424701607,7.744202533494941e-05,-11.764949004556993,-11.831586406340458,0.06663740178346522,0.06663740178346522,0.004440543316450974,0.011233661831241965,0.00016128747335579483,0.005644613546249408,5.838348292793986e-05,0.005620324871093258,5.8416709776624855e-05,0.00035987572964945057,0.00037956943979814534,1.0,0.12031013628375378,1.2055329963874217,1.1210129317512723,1.1502529849992351,1.2055254430469289,985.7319937757178,0.9857319937757179,0.01,0.0,1.2051171847095494,0.165021117503451,nan,0.08794007437371959,0.014474528892615409,3823.4988680719466,0.0,stable
final,0.95,0.0,1000,0.05,0.1,well_specified,12,estimated_weighted_fqe_clip95,0.005950716970833305,6.918870656648535e-05,0.005879238096307658,7.758789103806632e-05,-11.764766725425513,-11.831586406340458,0.06681968091494461,0.06681968091494461,0.004464869757575013,0.011262519444194562,0.0001614427122528119,0.005659302308936404,5.846649473898923e-05,0.005634953696410316,5.850571125124274e-05,0.0003610439217093788,0.0003808185859255552,1.0,0.11834569287051787,1.1519658112287317,1.1226822170112531,1.1519594624733998,1.1519658112287317,986.1877472885252,0.9861877472885252,0.05,0.0,1.1498562404678923,0.16370667603719036,nan,0.08693864428185327,0.014005703021002944,3819.0291682607167,0.0,stable
final,0.95,0.0,1000,0.05,0.1,well_specified,12,estimated_weighted_fqe_clip99_ess40,0.005934649696179103,6.9047598531539e-05,0.005863503424701607,7.744202533494941e-05,-11.764949004556993,-11.831586406340458,0.06663740178346522,0.06663740178346522,0.004440543316450974,0.011233661831241965,0.00016128747335579483,0.005644613546249408,5.838348292793986e-05,0.005620324871093258,5.8416709776624855e-05,0.00035987572964945057,0.00037956943979814534,1.0,0.12031013628375378,1.2055329963874217,1.1210129317512723,1.1502529849992351,1.2055254430469289,985.7319937757178,0.9857319937757179,0.01,0.0,1.2051171847095494,0.165021117503451,nan,0.08794007437371959,0.014474528892615409,3823.4988680719466,0.0,stable
final,0.95,0.0,1000,0.05,0.1,well_specified,13,standard_fqe,0.009724054074823744,0.00014376625390936842,0.009721692707444963,0.00016313009101961786,-11.744363838313875,-11.831586406340458,0.08722256802658279,0.08722256802658279,0.007607776373151863,0.02303037650907935,0.0005992844349926117,0.00964947574499581,0.00019729678555556763,0.009220510663468752,0.00014123780895204045,0.0006550246884526352,0.0007572056754510741,1.0,0.0,1.0,1.0,1.0,1.0,1000.0,1.0,0.0,0.0,nan,0.0,1.0,0.0,0.0,4700.136003807474,0.0,stable
final,0.95,0.0,1000,0.05,0.1,well_specified,13,oracle_weighted_fqe,0.009724054074823744,0.00014376625390936842,0.009721692707444963,0.00016313009101961786,-11.744363838313875,-11.831586406340458,0.08722256802658279,0.08722256802658279,0.007607776373151863,0.02303037650907935,0.0005992844349926117,0.00964947574499581,0.00019729678555556763,0.009220510663468752,0.00014123780895204045,0.0006550246884526352,0.0007572056754510741,1.0,0.0,1.0,1.0,1.0,1.0,1000.0,1.0,0.0,0.0,nan,0.0,1.0,0.0,0.0,4700.136003807474,0.0,stable
final,0.95,0.0,1000,0.05,0.1,well_specified,13,oracle_weighted_fqe_clipped,0.009724054074823744,0.00014376625390936842,0.009721692707444963,0.00016313009101961786,-11.744363838313875,-11.831586406340458,0.08722256802658279,0.08722256802658279,0.007607776373151863,0.02303037650907935,0.0005992844349926117,0.00964947574499581,0.00019729678555556763,0.009220510663468752,0.00014123780895204045,0.0006550246884526352,0.0007572056754510741,1.0,0.0,1.0,1.0,1.0,1.0,1000.0,1.0,0.0,0.0,1.0,0.0,1.0,0.0,0.0,4700.136003807474,0.0,stable
final,0.95,0.0,1000,0.05,0.1,well_specified,13,estimated_weighted_fqe,0.006873635931603945,8.46672272641074e-05,0.006864415145199902,9.45940755037413e-05,-11.761373090918369,-11.831586406340458,0.0702133154220892,0.0702133154220892,0.004929909662561788,0.015079149926806508,0.00035717383883610834,0.006843483722611602,0.00011861523697262496,0.006571404168905661,8.470603677900803e-05,0.00043676485629492377,0.0005127665650612865,1.0,0.14874673105106445,1.5034818555011784,1.111171090379051,1.1770283901328813,1.3718293569367483,978.3533547981976,0.9783533547981976,0.0,0.0,nan,0.17053862734200323,nan,0.10948434815363581,0.022125589998377704,3771.141639575476,0.0,stable
final,0.95,0.0,1000,0.05,0.1,well_specified,13,estimated_weighted_fqe_clipped,0.006885556530551068,8.55542021489789e-05,0.006876442350409519,9.568612682457259e-05,-11.76049456255414,-11.831586406340458,0.07109184378631817,0.07109184378631817,0.005054050252938265,0.015218986189055336,0.00036108358625706633,0.00685609116482424,0.00011976191432812967,0.006582070624745101,8.562739287415577e-05,0.0004353881016985911,0.0005106080543320089,0.9999999999999999,0.14731064690362813,1.3725845279300446,1.111782772999634,1.1776763261855834,1.3723670257159961,978.7604799564942,0.9787604799564943,0.01,0.0,1.3717504008525827,0.16971158324077854,nan,0.10910643183037226,0.021700426691165405,3758.158878235708,0.0,stable
final,0.95,0.0,1000,0.05,0.1,well_specified,13,estimated_weighted_fqe_clip95,0.006926280520151554,8.845582587522688e-05,0.006916863206541023,9.916027499102399e-05,-11.757945720520098,-11.831586406340458,0.07364068582035976,0.07364068582035976,0.0054229506080929355,0.015681207402781654,0.0003731625442003523,0.006898034839317669,0.00012339765111430562,0.006616918873593916,8.846148859262304e-05,0.00043525074946648386,0.000509474157755937,0.9999999999999999,0.13750520971523908,1.1846377728467044,1.118354711571294,1.1843209497366254,1.1846377728467044,981.4431836957497,0.9814431836957497,0.05,0.0,1.1769606458816253,0.1628865978558374,nan,0.10512997509144323,0.018907682698831873,3733.069485016548,0.0,stable
final,0.95,0.0,1000,0.05,0.1,well_specified,13,estimated_weighted_fqe_clip99_ess40,0.006885556530551068,8.55542021489789e-05,0.006876442350409519,9.568612682457259e-05,-11.76049456255414,-11.831586406340458,0.07109184378631817,0.07109184378631817,0.005054050252938265,0.015218986189055336,0.00036108358625706633,0.00685609116482424,0.00011976191432812967,0.006582070624745101,8.562739287415577e-05,0.0004353881016985911,0.0005106080543320089,0.9999999999999999,0.14731064690362813,1.3725845279300446,1.111782772999634,1.1776763261855834,1.3723670257159961,978.7604799564942,0.9787604799564943,0.01,0.0,1.3717504008525827,0.16971158324077854,nan,0.10910643183037226,0.021700426691165405,3758.158878235708,0.0,stable
final,0.95,0.0,1000,0.05,0.1,well_specified,14,standard_fqe,0.008514550847473462,5.7967115965626434e-05,0.00848569556295816,5.956470485770312e-05,-11.80344494037569,-11.831586406340458,0.02814146596476874,0.02814146596476874,0.0007919421066462374,0.00903124019684898,0.0002475759421975838,0.00854237297286322,6.430541155877655e-05,0.008378254873398038,6.079216651825288e-05,0.0002810456743321952,0.0002901107138817457,1.0,0.0,1.0,1.0,1.0,1.0,1000.0,1.0,0.0,0.0,nan,0.0,1.0,0.0,0.0,3170.2380807277204,0.0,stable
final,0.95,0.0,1000,0.05,0.1,well_specified,14,oracle_weighted_fqe,0.008514550847473462,5.7967115965626434e-05,0.00848569556295816,5.956470485770312e-05,-11.80344494037569,-11.831586406340458,0.02814146596476874,0.02814146596476874,0.0007919421066462374,0.00903124019684898,0.0002475759421975838,0.00854237297286322,6.430541155877655e-05,0.008378254873398038,6.079216651825288e-05,0.0002810456743321952,0.0002901107138817457,1.0,0.0,1.0,1.0,1.0,1.0,1000.0,1.0,0.0,0.0,nan,0.0,1.0,0.0,0.0,3170.2380807277204,0.0,stable
final,0.95,0.0,1000,0.05,0.1,well_specified,14,oracle_weighted_fqe_clipped,0.008514550847473462,5.7967115965626434e-05,0.00848569556295816,5.956470485770312e-05,-11.80344494037569,-11.831586406340458,0.02814146596476874,0.02814146596476874,0.0007919421066462374,0.00903124019684898,0.0002475759421975838,0.00854237297286322,6.430541155877655e-05,0.008378254873398038,6.079216651825288e-05,0.0002810456743321952,0.0002901107138817457,1.0,0.0,1.0,1.0,1.0,1.0,1000.0,1.0,0.0,0.0,1.0,0.0,1.0,0.0,0.0,3170.2380807277204,0.0,stable
final,0.95,0.0,1000,0.05,0.1,well_specified,14,estimated_weighted_fqe,0.008861717543567902,4.590773700462796e-05,0.008790659073043546,3.878000623735095e-05,-11.797064426881672,-11.831586406340458,0.03452197945878588,0.03452197945878588,0.0011917670657528342,0.005532994946351297,0.00010482453082801044,0.008704200669146872,3.607633919382457e-05,0.008611224689665062,3.638125879355105e-05,0.0003258531013721977,0.00037430272382883944,1.0,0.19967610368421806,3.5381710719346904,1.1650061913345542,1.222736577543121,1.4942862806952626,961.6581635846771,0.9616581635846772,0.0,0.0,nan,0.8591015419037717,nan,0.11747032374281108,0.0398705463825106,4084.661826463033,1.0,finite_sample_variance_or_clipping
final,0.95,0.0,1000,0.05,0.1,well_specified,14,estimated_weighted_fqe_clipped,0.008646263921578596,3.8852122346722576e-05,0.008619912463678218,3.8889227328990294e-05,-11.805519439014757,-11.831586406340458,0.026066967325700574,0.026066967325700574,0.0006794867855591414,0.005664805957146592,0.00012958980842361762,0.008627011657162785,4.097761234358647e-05,0.00852544018564827,4.093233513447901e-05,0.00026797260333297766,0.0002829745649693309,1.0,0.16283068726573868,1.503777401790207,1.1724058542914888,1.230502921298402,1.502858879896292,974.1709932487748,0.9741709932487749,0.01,0.0,1.4945232280691148,0.8562359146449986,nan,0.11178832981295782,0.02651383271543279,3316.432723364558,0.0,stable
final,0.95,0.0,1000,0.05,0.1,well_specified,14,estimated_weighted_fqe_clip95,0.008764532453617342,4.025004941096499e-05,0.008741571482298514,4.0829424847969425e-05,-11.80868117058611,-11.831586406340458,0.02290523575434733,0.02290523575434733,0.0005246498249622313,0.0058629622738991995,0.00014545840372565968,0.00876175567663851,4.345088116529373e-05,0.008651464059058766,4.3012101585608483e-05,0.0002660659256681507,0.00027997501605061414,1.0,0.15292674295457515,1.2366615792162483,1.1782737368234886,1.2365700950692828,1.2366615792162483,977.1478452339713,0.9771478452339714,0.05,0.0,1.2229304655716098,0.8546758340636458,nan,0.1074556062962815,0.023386588710694697,3005.6514990351234,0.0,stable
final,0.95,0.0,1000,0.05,0.1,well_specified,14,estimated_weighted_fqe_clip99_ess40,0.008646263921578596,3.8852122346722576e-05,0.008619912463678218,3.8889227328990294e-05,-11.805519439014757,-11.831586406340458,0.026066967325700574,0.026066967325700574,0.0006794867855591414,0.005664805957146592,0.00012958980842361762,0.008627011657162785,4.097761234358647e-05,0.00852544018564827,4.093233513447901e-05,0.00026797260333297766,0.0002829745649693309,1.0,0.16283068726573868,1.503777401790207,1.1724058542914888,1.230502921298402,1.502858879896292,974.1709932487748,0.9741709932487749,0.01,0.0,1.4945232280691148,0.8562359146449986,nan,0.11178832981295782,0.02651383271543279,3316.432723364558,0.0,stable
final,0.95,0.0,1000,0.05,0.1,well_specified,15,standard_fqe,0.01121598324093947,6.837960894652448e-05,0.011186513643805525,7.939664362614677e-05,-11.782542142647769,-11.831586406340458,0.04904426369268933,0.04904426369268933,0.0024053398011580447,0.00515568872210924,0.00016363278219449525,0.011182745347066045,9.359034865721947e-05,0.0111589630632517,7.921008791831494e-05,0.0003495478094833606,0.000299525407640278,1.0,0.0,1.0,1.0,1.0,1.0,1000.0,1.0,0.0,0.0,nan,0.0,1.0,0.0,0.0,5191.135444638363,0.0,stable
final,0.95,0.0,1000,0.05,0.1,well_specified,15,oracle_weighted_fqe,0.01121598324093947,6.837960894652448e-05,0.011186513643805525,7.939664362614677e-05,-11.782542142647769,-11.831586406340458,0.04904426369268933,0.04904426369268933,0.0024053398011580447,0.00515568872210924,0.00016363278219449525,0.011182745347066045,9.359034865721947e-05,0.0111589630632517,7.921008791831494e-05,0.0003495478094833606,0.000299525407640278,1.0,0.0,1.0,1.0,1.0,1.0,1000.0,1.0,0.0,0.0,nan,0.0,1.0,0.0,0.0,5191.135444638363,0.0,stable
final,0.95,0.0,1000,0.05,0.1,well_specified,15,oracle_weighted_fqe_clipped,0.01121598324093947,6.837960894652448e-05,0.011186513643805525,7.939664362614677e-05,-11.782542142647769,-11.831586406340458,0.04904426369268933,0.04904426369268933,0.0024053398011580447,0.00515568872210924,0.00016363278219449525,0.011182745347066045,9.359034865721947e-05,0.0111589630632517,7.921008791831494e-05,0.0003495478094833606,0.000299525407640278,1.0,0.0,1.0,1.0,1.0,1.0,1000.0,1.0,0.0,0.0,1.0,0.0,1.0,0.0,0.0,5191.135444638363,0.0,stable
final,0.95,0.0,1000,0.05,0.1,well_specified,15,estimated_weighted_fqe,0.01239810235527976,7.885990896966554e-05,0.01236617348213756,8.687239360815077e-05,-11.78364072502766,-11.831586406340458,0.04794568131279853,0.04794568131279853,0.002298788356548438,0.004914279816137859,0.00016316956830021546,0.012313671027857574,0.00010493099720500688,0.012307637139716561,8.960220666373747e-05,0.0003724017185451199,0.00031975203135677457,1.0,0.10886485113874046,1.657384422448606,1.1237454431224272,1.1759364635269678,1.259907251051976,988.2872583973719,0.988287258397372,0.0,0.0,nan,0.12122143772489606,nan,0.0679530822616766,0.01185155581346012,3729.666379025999,0.0,stable
final,0.95,0.0,1000,0.05,0.1,well_specified,15,estimated_weighted_fqe_clipped,0.01198202643831065,7.43243547340229e-05,0.011951835553715201,8.144144612104384e-05,-11.785406846237116,-11.831586406340458,0.0461795601033419,0.0461795601033419,0.002132551771338167,0.004452509472620694,0.00014588750435698265,0.01188910628491439,9.658149434627114e-05,0.011881818026723962,8.390785728644636e-05,0.0003651149286247988,0.00031402460646014473,1.0,0.10341637448043041,1.2617845940384185,1.1254198962414412,1.1776886846293233,1.261775977117028,989.4182250068629,0.9894182250068629,0.01,0.0,1.2596273209440987,0.11820849770386538,nan,0.06644770770199543,0.010694946510676618,3714.945588979452,0.0,stable
final,0.95,0.0,1000,0.05,0.1,well_specified,15,estimated_weighted_fqe_clip95,0.011883900049647476,7.346985011988526e-05,0.011855928611527445,8.126842707260205e-05,-11.784750682964427,-11.831586406340458,0.04683572337603081,0.04683572337603081,0.0021935849841560793,0.004571173615561153,0.0001496964214536404,0.01179913253112637,9.6725633232966e-05,0.011792239906810815,8.337007056327115e-05,0.000365853388827164,0.00031433137426735614,1.0,0.09837248528117999,1.1806586116719555,1.128258010445804,1.1806261162043523,1.1806586116719555,990.415603740194,0.990415603740194,0.05,0.0,1.1756751903095801,0.1146524522405834,nan,0.06395269523386009,0.009677145860395975,3707.762986275361,0.0,stable
final,0.95,0.0,1000,0.05,0.1,well_specified,15,estimated_weighted_fqe_clip99_ess40,0.01198202643831065,7.43243547340229e-05,0.011951835553715201,8.144144612104384e-05,-11.785406846237116,-11.831586406340458,0.0461795601033419,0.0461795601033419,0.002132551771338167,0.004452509472620694,0.00014588750435698265,0.01188910628491439,9.658149434627114e-05,0.011881818026723962,8.390785728644636e-05,0.0003651149286247988,0.00031402460646014473,1.0,0.10341637448043041,1.2617845940384185,1.1254198962414412,1.1776886846293233,1.261775977117028,989.4182250068629,0.9894182250068629,0.01,0.0,1.2596273209440987,0.11820849770386538,nan,0.06644770770199543,0.010694946510676618,3714.945588979452,0.0,stable
final,0.95,0.0,1000,0.05,0.1,well_specified,16,standard_fqe,0.0044711186075211485,1.8861987037016307e-05,0.004469799968386463,1.7463337191390693e-05,-11.808085814992957,-11.831586406340458,0.023500591347501043,0.023500591347501043,0.0005522777936822409,0.0034593830723727848,6.418635842094348e-05,0.004429052351713433,1.81105674105277e-05,0.004444668553902746,2.051105517189171e-05,0.000284647009817665,0.0002954869436324396,1.0,0.0,1.0,1.0,1.0,1.0,1000.0,1.0,0.0,0.0,nan,0.0,1.0,0.0,0.0,4678.511225942083,0.0,stable
final,0.95,0.0,1000,0.05,0.1,well_specified,16,oracle_weighted_fqe,0.0044711186075211485,1.8861987037016307e-05,0.004469799968386463,1.7463337191390693e-05,-11.808085814992957,-11.831586406340458,0.023500591347501043,0.023500591347501043,0.0005522777936822409,0.0034593830723727848,6.418635842094348e-05,0.004429052351713433,1.81105674105277e-05,0.004444668553902746,2.051105517189171e-05,0.000284647009817665,0.0002954869436324396,1.0,0.0,1.0,1.0,1.0,1.0,1000.0,1.0,0.0,0.0,nan,0.0,1.0,0.0,0.0,4678.511225942083,0.0,stable
final,0.95,0.0,1000,0.05,0.1,well_specified,16,oracle_weighted_fqe_clipped,0.0044711186075211485,1.8861987037016307e-05,0.004469799968386463,1.7463337191390693e-05,-11.808085814992957,-11.831586406340458,0.023500591347501043,0.023500591347501043,0.0005522777936822409,0.0034593830723727848,6.418635842094348e-05,0.004429052351713433,1.81105674105277e-05,0.004444668553902746,2.051105517189171e-05,0.000284647009817665,0.0002954869436324396,1.0,0.0,1.0,1.0,1.0,1.0,1000.0,1.0,0.0,0.0,1.0,0.0,1.0,0.0,0.0,4678.511225942083,0.0,stable
final,0.95,0.0,1000,0.05,0.1,well_specified,16,estimated_weighted_fqe,0.004469277552016978,2.3285286420028376e-05,0.004475541484370938,2.0030826474357054e-05,-11.810807254155796,-11.831586406340458,0.02077915218466231,0.02077915218466231,0.00043177316551335637,0.003440989131132653,6.588559820653387e-05,0.0043993666694892505,1.9767070978879975e-05,0.0044126838542562176,2.1807972364414498e-05,0.0003700596374696608,0.00038411061131795075,1.0000000000000002,0.13048666655213148,1.285422357636581,1.1173145706288912,1.132128069956123,1.1629885463192966,983.2582871487137,0.9832582871487138,0.0,0.0,nan,0.6216811782191032,nan,0.0924584974549347,0.017026770147887144,3831.417666649032,0.0,stable
final,0.95,0.0,1000,0.05,0.1,well_specified,16,estimated_weighted_fqe_clipped,0.004467567066847925,2.3857076678752e-05,0.0044734466687531265,2.0478404067827852e-05,-11.810171366784209,-11.831586406340458,0.021415039556249127,0.021415039556249127,0.0004586039191957148,0.0035107063430068427,6.677606837670577e-05,0.004393992224304774,2.0117189087767376e-05,0.0044079637984754715,2.219507934965761e-05,0.0003719827789792278,0.0003862941328965189,1.0,0.12962268289837964,1.163673212391266,1.1179723478534804,1.1327945680751943,1.1636426827142794,983.4756036454582,0.9834756036454583,0.01,0.0,1.1630811553981466,0.6215040086264371,nan,0.0920607234625119,0.01680203992177388,3804.991524643347,0.0,stable
final,0.95,0.0,1000,0.05,0.1,well_specified,16,estimated_weighted_fqe_clip95,0.004462824358472187,2.3904359280380122e-05,0.004468703876898622,2.0488775528544542e-05,-11.81044555205789,-11.831586406340458,0.02114085428256729,0.02114085428256729,0.0004469357197967437,0.0035144208497124105,6.698099750200088e-05,0.00438894020049488,2.0113630843456935e-05,0.0044024594990445766,2.216018364898637e-05,0.0003736855386045367,0.00038791859476007795,1.0,0.1287499890463168,1.1337888890900307,1.1189536585260462,1.1337625277083376,1.1337888890900307,983.6937419797933,0.9836937419797933,0.05,0.0,1.1322182216072552,0.6212926221470717,nan,0.09147479915689317,0.016576559679426693,3793.6195267839685,0.0,stable
final,0.95,0.0,1000,0.05,0.1,well_specified,16,estimated_weighted_fqe_clip99_ess40,0.004467567066847925,2.3857076678752e-05,0.0044734466687531265,2.0478404067827852e-05,-11.810171366784209,-11.831586406340458,0.021415039556249127,0.021415039556249127,0.0004586039191957148,0.0035107063430068427,6.677606837670577e-05,0.004393992224304774,2.0117189087767376e-05,0.0044079637984754715,2.219507934965761e-05,0.0003719827789792278,0.0003862941328965189,1.0,0.12962268289837964,1.163673212391266,1.1179723478534804,1.1327945680751943,1.1636426827142794,983.4756036454582,0.9834756036454583,0.01,0.0,1.1630811553981466,0.6215040086264371,nan,0.0920607234625119,0.01680203992177388,3804.991524643347,0.0,stable
final,0.95,0.0,1000,0.05,0.1,well_specified,17,standard_fqe,0.004276639349192154,4.779652690041389e-05,0.004287125325728227,3.71955140192214e-05,-11.875889355726024,-11.831586406340458,-0.04430294938556578,0.04430294938556578,0.0019627513242600034,0.007601033653919682,0.0001946872377979644,0.004202878301193283,3.7165389706198085e-05,0.0043052780728976255,5.04937642225476e-05,0.00032168552675057317,0.0003137335621571887,1.0,0.0,1.0,1.0,1.0,1.0,1000.0,1.0,0.0,0.0,nan,0.0,1.0,0.0,0.0,4704.491723297793,0.0,stable
final,0.95,0.0,1000,0.05,0.1,well_specified,17,oracle_weighted_fqe,0.004276639349192154,4.779652690041389e-05,0.004287125325728227,3.71955140192214e-05,-11.875889355726024,-11.831586406340458,-0.04430294938556578,0.04430294938556578,0.0019627513242600034,0.007601033653919682,0.0001946872377979644,0.004202878301193283,3.7165389706198085e-05,0.0043052780728976255,5.04937642225476e-05,0.00032168552675057317,0.0003137335621571887,1.0,0.0,1.0,1.0,1.0,1.0,1000.0,1.0,0.0,0.0,nan,0.0,1.0,0.0,0.0,4704.491723297793,0.0,stable
final,0.95,0.0,1000,0.05,0.1,well_specified,17,oracle_weighted_fqe_clipped,0.004276639349192154,4.779652690041389e-05,0.004287125325728227,3.71955140192214e-05,-11.875889355726024,-11.831586406340458,-0.04430294938556578,0.04430294938556578,0.0019627513242600034,0.007601033653919682,0.0001946872377979644,0.004202878301193283,3.7165389706198085e-05,0.0043052780728976255,5.04937642225476e-05,0.00032168552675057317,0.0003137335621571887,1.0,0.0,1.0,1.0,1.0,1.0,1000.0,1.0,0.0,0.0,1.0,0.0,1.0,0.0,0.0,4704.491723297793,0.0,stable
final,0.95,0.0,1000,0.05,0.1,well_specified,17,estimated_weighted_fqe,0.0038061220370468564,6.957598961515483e-05,0.0037783921214388913,5.24753550537226e-05,-11.8699374854431,-11.831586406340458,-0.03835107910264135,0.03835107910264135,0.0014708052683370541,0.009413210056536845,0.00027458111014023323,0.0036583095977162235,5.005483756707604e-05,0.0038382553836280296,7.012242107843353e-05,0.0003517464769511228,0.0003516292212377188,1.0,0.12548006546213866,1.651673337605725,1.136033245693268,1.2139462589441212,1.2881952624088442,984.4988230291538,0.9844988230291537,0.0,0.0,nan,0.13623149705721632,nan,0.08480106021761709,0.015745246828382607,4171.455398927725,0.0,stable
final,0.95,0.0,1000,0.05,0.1,well_specified,17,estimated_weighted_fqe_clipped,0.0038095934978996143,6.566688678876265e-05,0.00378721491940877,4.955640407362409e-05,-11.869460928478514,-11.831586406340458,-0.037874522138055866,0.037874522138055866,0.0014344794271860838,0.00902878793488151,0.00026077884457779033,0.0036758239009376083,4.760830320446869e-05,0.003844627602942328,6.671385853011276e-05,0.00033790602834148466,0.00033737196849119804,1.0,0.1216222072357649,1.2896781889633582,1.1373410085115376,1.215343712572211,1.2896712861852884,985.4236514900517,0.9854236514900517,0.01,0.0,1.2880992214457323,0.13406703288324276,nan,0.0839459707918113,0.014791961292899345,4130.032466621232,0.0,stable
final,0.95,0.0,1000,0.05,0.1,well_specified,17,estimated_weighted_fqe_clip95,0.0038592812133290584,6.314621047176546e-05,0.0038414348403687545,4.761197030674557e-05,-11.869791523789974,-11.831586406340458,-0.03820511744951638,0.03820511744951638,0.001459630999331341,0.008797887891426527,0.00025164072645463025,0.0037355947860434574,4.598989129857437e-05,0.00389553099636797,6.438641401310883e-05,0.00032781022076495427,0.00032679594741457583,1.0,0.11749802081098326,1.217933952951441,1.1397650031187634,1.217924269657893,1.217933952951441,986.3822192571777,0.9863822192571776,0.05,0.0,1.2138557535904089,0.13110758134922923,nan,0.08239222752286574,0.013805784894498256,4110.807993976957,0.0,stable
final,0.95,0.0,1000,0.05,0.1,well_specified,17,estimated_weighted_fqe_clip99_ess40,0.0038095934978996143,6.566688678876265e-05,0.00378721491940877,4.955640407362409e-05,-11.869460928478514,-11.831586406340458,-0.037874522138055866,0.037874522138055866,0.0014344794271860838,0.00902878793488151,0.00026077884457779033,0.0036758239009376083,4.760830320446869e-05,0.003844627602942328,6.671385853011276e-05,0.00033790602834148466,0.00033737196849119804,1.0,0.1216222072357649,1.2896781889633582,1.1373410085115376,1.215343712572211,1.2896712861852884,985.4236514900517,0.9854236514900517,0.01,0.0,1.2880992214457323,0.13406703288324276,nan,0.0839459707918113,0.014791961292899345,4130.032466621232,0.0,stable
final,0.95,0.0,1000,0.05,0.1,well_specified,18,standard_fqe,0.010007417897150745,0.000131434807764529,0.0098371647033398,0.00012113985169734438,-11.645392968623685,-11.831586406340458,0.18619343771677244,0.18619343771677244,0.03466799624878961,0.0391121436228198,0.0003253921047395749,0.009876497362505586,0.0001313146201108057,0.009716362005203566,0.00012852158514183956,0.00029267800268568635,0.0003167756682925421,1.0,0.0,1.0,1.0,1.0,1.0,1000.0,1.0,0.0,0.0,nan,0.0,1.0,0.0,0.0,4206.231306278649,0.0,stable
final,0.95,0.0,1000,0.05,0.1,well_specified,18,oracle_weighted_fqe,0.010007417897150745,0.000131434807764529,0.0098371647033398,0.00012113985169734438,-11.645392968623685,-11.831586406340458,0.18619343771677244,0.18619343771677244,0.03466799624878961,0.0391121436228198,0.0003253921047395749,0.009876497362505586,0.0001313146201108057,0.009716362005203566,0.00012852158514183956,0.00029267800268568635,0.0003167756682925421,1.0,0.0,1.0,1.0,1.0,1.0,1000.0,1.0,0.0,0.0,nan,0.0,1.0,0.0,0.0,4206.231306278649,0.0,stable
final,0.95,0.0,1000,0.05,0.1,well_specified,18,oracle_weighted_fqe_clipped,0.010007417897150745,0.000131434807764529,0.0098371647033398,0.00012113985169734438,-11.645392968623685,-11.831586406340458,0.18619343771677244,0.18619343771677244,0.03466799624878961,0.0391121436228198,0.0003253921047395749,0.009876497362505586,0.0001313146201108057,0.009716362005203566,0.00012852158514183956,0.00029267800268568635,0.0003167756682925421,1.0,0.0,1.0,1.0,1.0,1.0,1000.0,1.0,0.0,0.0,1.0,0.0,1.0,0.0,0.0,4206.231306278649,0.0,stable
final,0.95,0.0,1000,0.05,0.1,well_specified,18,estimated_weighted_fqe,0.011797725924402595,0.00017353684068390223,0.011485244605359555,0.00015422305597654148,-11.645862161300315,-11.831586406340458,0.1857242450401433,0.1857242450401433,0.03449349519573119,0.043043914566077146,0.0005374295456161475,0.01156359871472373,0.00016850110593300964,0.011329973893158225,0.00016501371389903382,0.00035411083083898575,0.0003933011480840921,1.0,0.18063437446323932,1.7047147208908398,1.215032832875144,1.2653484254206115,1.3696427981566799,968.4022196969881,0.9684022196969881,0.0,0.0,nan,0.6399906944764511,nan,0.13450583638842648,0.03262877723772577,3702.355884326974,0.0,stable
final,0.95,0.0,1000,0.05,0.1,well_specified,18,estimated_weighted_fqe_clipped,0.011777887035715995,0.00017304683892720052,0.01146826977483785,0.0001538701162260335,-11.6454534459847,-11.831586406340458,0.18613296035575821,0.18613296035575821,0.03464547893079826,0.04306654827981083,0.0005328133641033696,0.01154421203657167,0.00016786273774434482,0.011311653623430968,0.00016436904915025172,0.00035494071812623517,0.0003935794894692845,1.0000000000000002,0.17764434113383568,1.3712616518805474,1.2164689448517618,1.266844008074161,1.3712484017127275,969.407898666143,0.969407898666143,0.01,0.0,1.3697308899198712,0.6394276366564807,nan,0.133489615537313,0.03155751193687458,3659.712465708043,0.0,stable
final,0.95,0.0,1000,0.05,0.1,well_specified,18,estimated_weighted_fqe_clip95,0.011721212344313376,0.00017088279504899224,0.011417376096819315,0.00015207898621502866,-11.646132866006639,-11.831586406340458,0.18545354033381933,0.18545354033381933,0.034393015622347554,0.04261468000054458,0.0005243227428793483,0.011489745447984291,0.00016549453467417196,0.011259996561404122,0.00016205958481019692,0.0003529246999534218,0.00039011425599211525,1.0,0.1732845530176126,1.270350053395776,1.2198355750175947,1.2702803941216616,1.270350053395776,970.84783148424,0.97084783148424,0.05,0.0,1.2654298092485678,0.6383658033127083,nan,0.13112423350011437,0.030027536314513794,3623.1977490428253,0.0,stable
final,0.95,0.0,1000,0.05,0.1,well_specified,18,estimated_weighted_fqe_clip99_ess40,0.011777887035715995,0.00017304683892720052,0.01146826977483785,0.0001538701162260335,-11.6454534459847,-11.831586406340458,0.18613296035575821,0.18613296035575821,0.03464547893079826,0.04306654827981083,0.0005328133641033696,0.01154421203657167,0.00016786273774434482,0.011311653623430968,0.00016436904915025172,0.00035494071812623517,0.0003935794894692845,1.0000000000000002,0.17764434113383568,1.3712616518805474,1.2164689448517618,1.266844008074161,1.3712484017127275,969.407898666143,0.969407898666143,0.01,0.0,1.3697308899198712,0.6394276366564807,nan,0.133489615537313,0.03155751193687458,3659.712465708043,0.0,stable
final,0.95,0.0,1000,0.05,0.1,well_specified,19,standard_fqe,0.008124601949891367,9.42687516566042e-05,0.008166528956078497,8.854797565890132e-05,-11.705390879843977,-11.831586406340458,0.12619552649648114,0.12619552649648114,0.01592531090772407,0.023630287149745147,0.00036376019761622116,0.00813114912947424,9.847860302966505e-05,0.008197571812247137,0.00011818305462034185,0.0012310943464296914,0.0012494458173071337,1.0,0.0,1.0,1.0,1.0,1.0,1000.0,1.0,0.0,0.0,nan,0.0,1.0,0.0,0.0,4172.149348149909,0.0,stable
final,0.95,0.0,1000,0.05,0.1,well_specified,19,oracle_weighted_fqe,0.008124601949891367,9.42687516566042e-05,0.008166528956078497,8.854797565890132e-05,-11.705390879843977,-11.831586406340458,0.12619552649648114,0.12619552649648114,0.01592531090772407,0.023630287149745147,0.00036376019761622116,0.00813114912947424,9.847860302966505e-05,0.008197571812247137,0.00011818305462034185,0.0012310943464296914,0.0012494458173071337,1.0,0.0,1.0,1.0,1.0,1.0,1000.0,1.0,0.0,0.0,nan,0.0,1.0,0.0,0.0,4172.149348149909,0.0,stable
final,0.95,0.0,1000,0.05,0.1,well_specified,19,oracle_weighted_fqe_clipped,0.008124601949891367,9.42687516566042e-05,0.008166528956078497,8.854797565890132e-05,-11.705390879843977,-11.831586406340458,0.12619552649648114,0.12619552649648114,0.01592531090772407,0.023630287149745147,0.00036376019761622116,0.00813114912947424,9.847860302966505e-05,0.008197571812247137,0.00011818305462034185,0.0012310943464296914,0.0012494458173071337,1.0,0.0,1.0,1.0,1.0,1.0,1000.0,1.0,0.0,0.0,1.0,0.0,1.0,0.0,0.0,4172.149348149909,0.0,stable
final,0.95,0.0,1000,0.05,0.1,well_specified,19,estimated_weighted_fqe,0.0083866312666136,8.958132124334827e-05,0.008443735483181534,8.836331735829823e-05,-11.707550107787315,-11.831586406340458,0.12403629855314335,0.12403629855314335,0.015385003358764512,0.02355273115830194,0.000352351707596494,0.008407367647670104,9.739272064448378e-05,0.00848579499750047,0.00011819955913452744,0.0013370522593694333,0.001343865098313673,1.0,0.1904893439883498,2.257384654171808,1.1667615083459106,1.2252112297574214,1.4999213685672954,964.9843928084673,0.9649843928084673,0.0,0.0,nan,0.21484114631390913,nan,0.1452953665038864,0.03628619017311186,4018.7211741270894,0.0,stable
final,0.95,0.0,1000,0.05,0.1,well_specified,19,estimated_weighted_fqe_clipped,0.00836358016113481,8.455077812825944e-05,0.008422686252751442,8.461607558000018e-05,-11.70985719537481,-11.831586406340458,0.1217292109656487,0.1217292109656487,0.014818000802319408,0.02237678749715254,0.00033023236942368654,0.008387018372765434,9.28306739939219e-05,0.008453214321572778,0.0001119440223913287,0.0012592580236518724,0.0012575601552824894,1.0,0.18186232959297338,1.5034431643181612,1.1695010491034983,1.228088009696222,1.503258504832425,967.9849556713418,0.9679849556713418,0.01,0.0,1.499701791219762,0.21121550867078137,nan,0.14360162561232298,0.03307390692498328,3783.557785840324,0.0,stable
final,0.95,0.0,1000,0.05,0.1,well_specified,19,estimated_weighted_fqe_clip95,0.008097139392348383,8.626188713540781e-05,0.008148796592424486,8.533295721397492e-05,-11.709958586440832,-11.831586406340458,0.12162781989962568,0.12162781989962568,0.01479332657353578,0.02281212727275657,0.0003395595858086011,0.0081187149954997,9.43382975240949e-05,0.008193759808809122,0.00011440906361026112,0.0012902913151933944,0.0013025990353204189,1.0,0.1715774353893503,1.2353589031656398,1.1764250785486738,1.2353255760424084,1.2353589031656398,971.4030441948938,0.9714030441948939,0.05,0.0,1.2250318679337713,0.20457620734052107,nan,0.1393694090111989,0.02943881633478668,3458.6961906291617,0.0,stable
final,0.95,0.0,1000,0.05,0.1,well_specified,19,estimated_weighted_fqe_clip99_ess40,0.00836358016113481,8.455077812825944e-05,0.008422686252751442,8.461607558000018e-05,-11.70985719537481,-11.831586406340458,0.1217292109656487,0.1217292109656487,0.014818000802319408,0.02237678749715254,0.00033023236942368654,0.008387018372765434,9.28306739939219e-05,0.008453214321572778,0.0001119440223913287,0.0012592580236518724,0.0012575601552824894,1.0,0.18186232959297338,1.5034431643181612,1.1695010491034983,1.228088009696222,1.503258504832425,967.9849556713418,0.9679849556713418,0.01,0.0,1.499701791219762,0.21121550867078137,nan,0.14360162561232298,0.03307390692498328,3783.557785840324,0.0,stable
final,0.95,0.0,1000,0.05,0.1,misspecified_affine,0,standard_fqe,2.785030704817412,0.040327577154188506,2.6864548456721695,0.03465633466615593,-12.317964813518397,-11.831586406340458,-0.48637840717793956,0.48637840717793956,0.23656395496894958,5.380212407592464,0.1324202161645346,2.5482821244639546,0.033465696204830635,2.5447283637628946,0.034942606941045326,0.33267832130154906,0.3734946673229384,1.0,0.0,1.0,1.0,1.0,1.0,1000.0,1.0,0.0,0.0,nan,0.0,1.0,0.0,0.0,195.5298618647551,0.0,stable
final,0.95,0.0,1000,0.05,0.1,misspecified_affine,0,oracle_weighted_fqe,2.785030704817412,0.040327577154188506,2.6864548456721695,0.03465633466615593,-12.317964813518397,-11.831586406340458,-0.48637840717793956,0.48637840717793956,0.23656395496894958,5.380212407592464,0.1324202161645346,2.5482821244639546,0.033465696204830635,2.5447283637628946,0.034942606941045326,0.33267832130154906,0.3734946673229384,1.0,0.0,1.0,1.0,1.0,1.0,1000.0,1.0,0.0,0.0,nan,0.0,1.0,0.0,0.0,195.5298618647551,0.0,stable
final,0.95,0.0,1000,0.05,0.1,misspecified_affine,0,oracle_weighted_fqe_clipped,2.785030704817412,0.040327577154188506,2.6864548456721695,0.03465633466615593,-12.317964813518397,-11.831586406340458,-0.48637840717793956,0.48637840717793956,0.23656395496894958,5.380212407592464,0.1324202161645346,2.5482821244639546,0.033465696204830635,2.5447283637628946,0.034942606941045326,0.33267832130154906,0.3734946673229384,1.0,0.0,1.0,1.0,1.0,1.0,1000.0,1.0,0.0,0.0,1.0,0.0,1.0,0.0,0.0,195.5298618647551,0.0,stable
final,0.95,0.0,1000,0.05,0.1,misspecified_affine,0,estimated_weighted_fqe,2.971417863268263,0.042946304024548354,2.862818182278659,0.03633486675625983,-12.096632963008009,-11.831586406340458,-0.26504655666755106,0.26504655666755106,0.07024967720132536,5.250640656124601,0.14280425973228353,2.7439200639430927,0.03531656596283242,2.7380028779855277,0.03703731007562344,0.32641130209674724,0.3733349859109448,1.0,0.16140576686885466,1.4179879845107737,1.18558755008644,1.2346802312511047,1.3382271346891734,974.6096434598752,0.9746096434598752,0.0,0.0,nan,0.17353709562539893,nan,0.1281358179594288,0.02605182157852306,206.74838912791074,0.0,stable
final,0.95,0.0,1000,0.05,0.1,misspecified_affine,0,estimated_weighted_fqe_clipped,2.968761114066432,0.04294315962736158,2.860239478935737,0.03632623109027763,-12.095545696181702,-11.831586406340458,-0.26395928984124417,0.26395928984124417,0.06967450669349395,5.252773656241721,0.14289493842834733,2.741306517636304,0.03530373880083411,2.7354130763761946,0.03702687838614934,0.32641754177327736,0.3733320785458762,1.0,0.160564443466437,1.3387604995203393,1.1860600787679265,1.235172326349175,1.3387439030972734,974.8670115736626,0.9748670115736626,0.01,0.0,1.3381203592279414,0.17297992148613084,nan,0.12782158085856285,0.025780940505686644,206.72818463815733,0.0,stable
final,0.95,0.0,1000,0.05,0.1,misspecified_affine,0,estimated_weighted_fqe_clip95,2.96403264362954,0.042957971423022615,2.8557430074341097,0.03632779096444594,-12.090622851502985,-11.831586406340458,-0.25903644516252733,0.25903644516252733,0.06709987992243903,5.25946251965997,0.14324078737520982,2.736466949089684,0.03529321228963681,2.7306397693082016,0.0370219823683317,0.32643721478716425,0.37330005689086343,1.0,0.15647954265063094,1.2383686463554675,1.189129308443462,1.2382944549877002,1.2383686463554675,976.0993796708432,0.9760993796708431,0.05,0.0,1.2345817176671632,0.1699013596172793,nan,0.1257859503271647,0.024485847268150628,206.4952566974194,0.0,stable
final,0.95,0.0,1000,0.05,0.1,misspecified_affine,0,estimated_weighted_fqe_clip99_ess40,2.968761114066432,0.04294315962736158,2.860239478935737,0.03632623109027763,-12.095545696181702,-11.831586406340458,-0.26395928984124417,0.26395928984124417,0.06967450669349395,5.252773656241721,0.14289493842834733,2.741306517636304,0.03530373880083411,2.7354130763761946,0.03702687838614934,0.32641754177327736,0.3733320785458762,1.0,0.160564443466437,1.3387604995203393,1.1860600787679265,1.235172326349175,1.3387439030972734,974.8670115736626,0.9748670115736626,0.01,0.0,1.3381203592279414,0.17297992148613084,nan,0.12782158085856285,0.025780940505686644,206.72818463815733,0.0,stable
final,0.95,0.0,1000,0.05,0.1,misspecified_affine,1,standard_fqe,2.473669720512874,0.03292812186719542,2.4695397988194765,0.03653029032894039,-13.127552870985545,-11.831586406340458,-1.2959664646450868,1.2959664646450868,1.679529077484685,6.479689630700818,0.12994809200788127,2.31197487277817,0.034910497570603466,2.2982820152153276,0.03797413172541279,0.3667524367193367,0.3696364164727283,1.0,0.0,1.0,1.0,1.0,1.0,1000.0,1.0,0.0,0.0,nan,0.0,1.0,0.0,0.0,197.00629893877428,0.0,stable
final,0.95,0.0,1000,0.05,0.1,misspecified_affine,1,oracle_weighted_fqe,2.473669720512874,0.03292812186719542,2.4695397988194765,0.03653029032894039,-13.127552870985545,-11.831586406340458,-1.2959664646450868,1.2959664646450868,1.679529077484685,6.479689630700818,0.12994809200788127,2.31197487277817,0.034910497570603466,2.2982820152153276,0.03797413172541279,0.3667524367193367,0.3696364164727283,1.0,0.0,1.0,1.0,1.0,1.0,1000.0,1.0,0.0,0.0,nan,0.0,1.0,0.0,0.0,197.00629893877428,0.0,stable
final,0.95,0.0,1000,0.05,0.1,misspecified_affine,1,oracle_weighted_fqe_clipped,2.473669720512874,0.03292812186719542,2.4695397988194765,0.03653029032894039,-13.127552870985545,-11.831586406340458,-1.2959664646450868,1.2959664646450868,1.679529077484685,6.479689630700818,0.12994809200788127,2.31197487277817,0.034910497570603466,2.2982820152153276,0.03797413172541279,0.3667524367193367,0.3696364164727283,1.0,0.0,1.0,1.0,1.0,1.0,1000.0,1.0,0.0,0.0,1.0,0.0,1.0,0.0,0.0,197.00629893877428,0.0,stable
final,0.95,0.0,1000,0.05,0.1,misspecified_affine,1,estimated_weighted_fqe,2.7585167457513,0.03695299377420412,2.7594646853811824,0.04230832480724466,-12.299977093342582,-11.831586406340458,-0.46839068700212394,0.46839068700212394,0.21938983567032164,5.588938777172769,0.1681190083231576,2.6298879194423415,0.041300888083144666,2.6277309331057035,0.045648419346811166,0.34988421741701076,0.355226012477655,1.0,0.09294992547042083,1.6190051085039918,1.091746296593375,1.1224273200051689,1.3463236006677057,991.4343161961395,0.9914343161961395,0.0,0.0,nan,0.09618520664886483,nan,0.06209469559171426,0.008639688644956787,197.2017802237023,0.0,stable
final,0.95,0.0,1000,0.05,0.1,misspecified_affine,1,estimated_weighted_fqe_clipped,2.768790716386787,0.036951497217560865,2.769493651310714,0.042243831823611105,-12.309338913478433,-11.831586406340458,-0.4777525071379749,0.4777525071379749,0.22824745807662075,5.580724664146459,0.16744210686555566,2.639601250387673,0.041272417812531006,2.6372364448468546,0.045587262953153476,0.34989912130511325,0.3552881181650766,0.9999999999999999,0.08838352079896784,1.3476579050025868,1.0928282963558487,1.1235397268870875,1.3476538101724775,992.2489020899671,0.9922489020899672,0.01,0.0,1.3462732118724345,0.09355715067629307,nan,0.061119818622625596,0.0078116467488215805,196.89718115822998,0.0,stable
final,0.95,0.0,1000,0.05,0.1,misspecified_affine,1,estimated_weighted_fqe_clip95,2.724348815642569,0.036363065821253586,2.7247928038431604,0.04155007625728638,-12.383966941629588,-11.831586406340458,-0.5523805352891298,0.5523805352891298,0.30512425576630553,5.6096119585085376,0.16346553611962564,2.591657821412537,0.040406067633868656,2.5885420780792407,0.04463930676203606,0.35026950651206007,0.355351905224819,1.0,0.07817363917171864,1.1281919325557839,1.0973533361684635,1.1281825795897489,1.1281919325557839,993.9260010620496,0.9939260010620496,0.05,0.0,1.1223853109663269,0.08622114791416434,nan,0.05720122443222964,0.0061111178613500634,196.1209361613814,0.0,stable
final,0.95,0.0,1000,0.05,0.1,misspecified_affine,1,estimated_weighted_fqe_clip99_ess40,2.768790716386787,0.036951497217560865,2.769493651310714,0.042243831823611105,-12.309338913478433,-11.831586406340458,-0.4777525071379749,0.4777525071379749,0.22824745807662075,5.580724664146459,0.16744210686555566,2.639601250387673,0.041272417812531006,2.6372364448468546,0.045587262953153476,0.34989912130511325,0.3552881181650766,0.9999999999999999,0.08838352079896784,1.3476579050025868,1.0928282963558487,1.1235397268870875,1.3476538101724775,992.2489020899671,0.9922489020899672,0.01,0.0,1.3462732118724345,0.09355715067629307,nan,0.061119818622625596,0.0078116467488215805,196.89718115822998,0.0,stable
final,0.95,0.0,1000,0.05,0.1,misspecified_affine,2,standard_fqe,1.366018323769294,0.029439831575386894,1.4390903715861614,0.040261408935897476,-12.578417297759671,-11.831586406340458,-0.7468308914192132,0.7468308914192132,0.5577563803780167,5.984184475743978,0.13946391720238271,1.3536464749605985,0.03960739478712717,1.3201847901843313,0.03903417360741441,0.4027581603583088,0.3871175070866841,1.0,0.0,1.0,1.0,1.0,1.0,1000.0,1.0,0.0,0.0,nan,0.0,1.0,0.0,0.0,201.10070986509524,0.0,stable
final,0.95,0.0,1000,0.05,0.1,misspecified_affine,2,oracle_weighted_fqe,1.366018323769294,0.029439831575386894,1.4390903715861614,0.040261408935897476,-12.578417297759671,-11.831586406340458,-0.7468308914192132,0.7468308914192132,0.5577563803780167,5.984184475743978,0.13946391720238271,1.3536464749605985,0.03960739478712717,1.3201847901843313,0.03903417360741441,0.4027581603583088,0.3871175070866841,1.0,0.0,1.0,1.0,1.0,1.0,1000.0,1.0,0.0,0.0,nan,0.0,1.0,0.0,0.0,201.10070986509524,0.0,stable
final,0.95,0.0,1000,0.05,0.1,misspecified_affine,2,oracle_weighted_fqe_clipped,1.366018323769294,0.029439831575386894,1.4390903715861614,0.040261408935897476,-12.578417297759671,-11.831586406340458,-0.7468308914192132,0.7468308914192132,0.5577563803780167,5.984184475743978,0.13946391720238271,1.3536464749605985,0.03960739478712717,1.3201847901843313,0.03903417360741441,0.4027581603583088,0.3871175070866841,1.0,0.0,1.0,1.0,1.0,1.0,1000.0,1.0,0.0,0.0,1.0,0.0,1.0,0.0,0.0,201.10070986509524,0.0,stable
final,0.95,0.0,1000,0.05,0.1,misspecified_affine,2,estimated_weighted_fqe,2.6241967259048975,0.03798834636398225,2.767156587814323,0.04959084780001499,-11.866000935029778,-11.831586406340458,-0.03441452868931982,0.03441452868931982,0.0011843597849080171,5.390179945482323,0.1602382161125501,2.5653460485261026,0.047598832718301794,2.5708240253989487,0.047725818483322566,0.37779819816663235,0.3620394921030844,1.0,0.20070129835921888,2.6336925633773043,1.2233097534287585,1.2892622031482277,1.5165912909734827,961.2787211043673,0.9612787211043673,0.0,0.0,nan,0.2050061595311074,nan,0.1487126958576643,0.04028101116307619,207.96941196723617,0.0,stable
final,0.95,0.0,1000,0.05,0.1,misspecified_affine,2,estimated_weighted_fqe_clipped,2.6524650213663317,0.03931234915712827,2.798375540102218,0.05121585661103734,-11.72634298244022,-11.831586406340458,0.10524342390023733,0.10524342390023733,0.011076178274245046,5.446989902387972,0.16816467891127526,2.5988775297241546,0.04975833324103335,2.6056117436899053,0.049640011995695045,0.38537434015294597,0.36882972232222877,0.9999999999999999,0.18771194244919592,1.5213617530981183,1.2271576937935507,1.2933175979968259,1.5210969210793128,965.9635280720306,0.9659635280720306,0.01,0.0,1.5164623405480677,0.19971819994119314,nan,0.14606809801583262,0.03523577333805023,206.00730845038566,0.0,stable
final,0.95,0.0,1000,0.05,0.1,misspecified_affine,2,estimated_weighted_fqe_clip95,2.559711756906107,0.039264446513087845,2.7037171292368383,0.05137482188667581,-11.69904621924681,-11.831586406340458,0.1325401870936478,0.1325401870936478,0.01756690119481916,5.496150682653402,0.17076643681456086,2.5107391508406183,0.050083864288866284,2.515497079929162,0.049861521945498075,0.3900860969410378,0.37324803612884433,1.0,0.1773542412048384,1.3003287104697827,1.2338101514934745,1.30020698389142,1.3003287104697827,969.5046887149817,0.9695046887149817,0.05,0.0,1.289152581715903,0.1928087813686421,nan,0.14163021695306469,0.031454526873344,203.9106732077796,0.0,stable
