Larsvanderlaan/rl-eval-kit/submission_bundles/neurips_bellman/fqe_stationary_weighting/code/FQE_neurips/results/gamma_design_summary.csv
study_stage,gamma,shift,sample_size,process_noise_sd,behavior_action_sd,feature_regime,seed,estimator,target_q_mse,target_q_mse_se,behavior_q_mse,behavior_q_mse_se,policy_value_estimate,policy_value_true,policy_value_error,policy_value_absolute_error,policy_value_squared_error,initial_v_mse,initial_v_mse_se,behavior_v_mse,behavior_v_mse_se,target_v_mse,target_v_mse_se,behavior_bellman_residual_mse,target_bellman_residual_mse,weight_mean,weight_std,weight_max,weight_q90,weight_q95,weight_q99,effective_sample_size,effective_sample_size_fraction,fraction_clipped,chosen_uniform_mix,clip_level,oracle_log_ratio_rmse,oracle_estimated_weight_corr,oracle_estimated_weight_mae,oracle_estimated_weight_rel_mse,weighted_design_condition_number,unstable_run_flag,unstable_reason,value_gamma,ratio_gamma,reference_distribution,data_mode,fqe_family,ratio_estimator,ratio_moment_violation_l2,ratio_normalization_error,target_ratio_feature_calibration_l2,target_fqe_feature_calibration_l2,ratio_solver,n_seeds,policy_value_bias,policy_value_variance,policy_value_mse,unstable_run_count,unstable_run_fraction
gamma_design,0.95,0.0,1000,0.05,0.1,misspecified_affine,0,linear_estimated_clipped_fqe,2.796716794838944,0.0433872268107452,2.795263030659249,0.04130859109119962,-12.018199242612013,-11.831586406340458,-0.1866128362715532,0.22871020583164814,0.07373384194530588,5.478763102175678,0.168906108199767,2.6813180649768724,0.04658140067446915,2.6850025395506263,0.04537768870224686,0.3465643624856431,0.3526301329453343,1.0,0.13781269149615166,1.4241117313960694,1.1647382939673396,1.2226057202198628,1.4239664411991146,979.8695642515386,0.9798695642515387,0.01,0.0,1.421990189141221,0.23216376441974457,nan,0.10379181747001218,0.020660555493910437,202.03981911601286,0.0,stable,0.95,0.95,discounted,matched_iid,linear,linear_clipped,0.007338271959621301,-7.039527361099029e-05,0.005542359506726878,0.005180492803770078,linear_reduced_moment,5,-0.1866128362715532,0.03890949128399236,0.07373384194530588,0,0.0
gamma_design,0.95,0.0,1000,0.05,0.1,misspecified_affine,0,linear_neural_weighted_clipped_fqe,2.3881802202184517,0.039144168361635735,2.3870959464938926,0.03748298420371955,-12.50457742447534,-11.831586406340458,-0.6729910181348828,0.7233321403390398,0.7035394075242968,5.9532038612123905,0.15012746590360576,2.2697860821007607,0.04271708917823612,2.2743267016177304,0.04124814680352552,0.3572631077537722,0.3586216074419348,1.0,0.050103442241566334,1.1496788822411588,1.0535676230403905,1.0720826424009062,1.1496436461470165,996.9081869107565,0.9969081869107566,0.01,0.0,1.145706842660904,0.050349451069370076,nan,0.03696644839927686,0.003107846977577264,195.76322262846455,0.0,stable,0.95,0.95,discounted,matched_iid,linear,neural_clipped,0.043936253624545694,-0.0030865585803985683,0.01668062740018742,0.0160966182774942,neural_positive_rkhs_moment,5,-0.6729910181348828,0.2506224970340707,0.7035394075242968,0,0.0
gamma_design,0.95,0.0,1000,0.05,0.1,misspecified_affine,0,linear_oracle_clipped_fqe,2.538605090317099,0.04046151698769217,2.5396280428456075,0.03879094000241057,-12.38958175545682,-11.831586406340458,-0.5579953491163625,0.6217023499116212,0.5351346163093166,5.81238747173048,0.15408624111732505,2.42318585341485,0.0441160888647602,2.425029466753201,0.04251392578090918,0.35898819848176106,0.35992572409646684,1.0,0.0,1.0,1.0,1.0,1.0,1000.0,1.0,0.0,0.0,1.0,0.0,1.0,0.0,0.0,197.30188011354488,0.0,stable,0.95,0.95,discounted,matched_iid,linear,oracle_clipped,0.0,0.0,0.014269265356392386,0.013492597810387686,oracle_exact_clipped,5,-0.5579953491163625,0.2237758066738254,0.5351346163093166,0,0.0
gamma_design,0.95,0.0,1000,0.05,0.1,misspecified_affine,0,linear_oracle_raw_fqe,2.538605090317099,0.04046151698769217,2.5396280428456075,0.03879094000241057,-12.38958175545682,-11.831586406340458,-0.5579953491163625,0.6217023499116212,0.5351346163093166,5.81238747173048,0.15408624111732505,2.42318585341485,0.0441160888647602,2.425029466753201,0.04251392578090918,0.35898819848176106,0.35992572409646684,1.0,0.0,1.0,1.0,1.0,1.0,1000.0,1.0,0.0,0.0,nan,0.0,1.0,0.0,0.0,197.30188011354488,0.0,stable,0.95,0.95,discounted,matched_iid,linear,oracle_raw,0.0,0.0,0.014269265356392386,0.013492597810387686,oracle_exact,5,-0.5579953491163625,0.2237758066738254,0.5351346163093166,0,0.0
gamma_design,0.95,0.0,1000,0.05,0.1,misspecified_affine,0,linear_standard_fqe,2.538605090317099,0.04046151698769217,2.5396280428456075,0.03879094000241057,-12.38958175545682,-11.831586406340458,-0.5579953491163625,0.6217023499116212,0.5351346163093166,5.81238747173048,0.15408624111732505,2.42318585341485,0.0441160888647602,2.425029466753201,0.04251392578090918,0.35898819848176106,0.35992572409646684,1.0,0.0,1.0,1.0,1.0,1.0,1000.0,1.0,0.0,0.0,nan,0.0,1.0,0.0,0.0,197.30188011354488,0.0,stable,0.95,0.95,discounted,matched_iid,linear,standard,nan,0.0,0.014269265356392386,0.013492597810387686,uniform,5,-0.5579953491163625,0.2237758066738254,0.5351346163093166,0,0.0
gamma_design,0.95,0.0,1000,0.05,0.1,misspecified_affine,0,neural_estimated_clipped_fqe,2.229668455118291,0.15492824785475906,2.051128763399837,0.14312053942079006,-7.716175621800181,-11.831586406340458,4.115410784540277,4.115410784540277,17.241195085600882,30.261676502129035,0.6397795372445765,2.2868126253474728,0.16638406571944045,2.039340957453275,0.17116795899235573,0.5807508736024178,0.6680472947864758,1.0,0.12447398213270242,1.343209202261463,1.1394441875618875,1.179356026618131,1.3431988566348756,983.5579568318149,0.9835579568318149,0.01,0.0,1.342196785550188,0.13326853608121195,nan,0.09447069974059422,0.016796293627254114,201.81268289819366,0.0,stable,0.95,0.95,discounted,matched_iid,neural,linear_clipped,0.003947917970595023,-5.860785002470559e-05,0.004986605144041123,0.003961050003298292,linear_reduced_moment,2,4.115410784540277,0.3045891600904638,17.241195085600882,0,0.0
gamma_design,0.95,0.0,1000,0.05,0.1,misspecified_affine,0,neural_neural_weighted_clipped_fqe,2.176745762766518,0.15140797810684747,2.001935944990181,0.14003946794480276,-7.794988295034171,-11.831586406340458,4.0365981113062865,4.0365981113062865,16.431303535116633,29.26803142153122,0.6257979737956895,2.22128916966605,0.1623638619299299,1.9977123451510104,0.16732487271191174,0.5505131816475354,0.6344175529004774,0.9999999999999999,0.06247370314505667,1.108746117085563,1.067370944791025,1.0815016060357607,1.10873744008228,995.5894766007805,0.9955894766007806,0.01,0.0,1.1087656283378602,0.06460101447031232,nan,0.05018172293413473,0.004438384266194395,189.02957631278883,0.0,stable,0.95,0.95,discounted,matched_iid,neural,neural_clipped,0.05062736588563829,4.35312390327236e-05,0.02551633717700464,0.025282567795809403,neural_positive_rkhs_moment,2,4.0365981113062865,0.13717922291515516,16.431303535116633,0,0.0
gamma_design,0.95,0.0,1000,0.05,0.1,misspecified_affine,0,neural_oracle_clipped_fqe,2.17540120152187,0.15087400310741222,2.000631278277422,0.13951209025448608,-7.809338858394968,-11.831586406340458,4.02224754794549,4.02224754794549,16.3181388078516,29.12810373690691,0.6238357337936228,2.220097850342309,0.16183111110071424,1.997366840068348,0.1667276238377181,0.5486703871619772,0.6326415986556061,1.0,0.0,1.0,1.0,1.0,1.0,1000.0,1.0,0.0,0.0,1.0,0.0,1.0,0.0,0.0,196.26808040176468,0.0,stable,0.95,0.95,discounted,matched_iid,neural,oracle_clipped,0.0,0.0,0.01149508021377279,0.00977655935087636,oracle_exact_clipped,2,4.02224754794549,0.13966347089809147,16.3181388078516,0,0.0
gamma_design,0.95,0.0,1000,0.05,0.1,misspecified_affine,0,neural_standard_fqe,2.17540120152187,0.15087400310741222,2.000631278277422,0.13951209025448608,-7.809338858394968,-11.831586406340458,4.02224754794549,4.02224754794549,16.3181388078516,29.12810373690691,0.6238357337936228,2.220097850342309,0.16183111110071424,1.997366840068348,0.1667276238377181,0.5486703871619772,0.6326415986556061,1.0,0.0,1.0,1.0,1.0,1.0,1000.0,1.0,0.0,0.0,nan,0.0,1.0,0.0,0.0,196.26808040176468,0.0,stable,0.95,0.95,discounted,matched_iid,neural,standard,nan,0.0,0.01149508021377279,0.00977655935087636,uniform,2,4.02224754794549,0.13966347089809147,16.3181388078516,0,0.0
gamma_design,0.95,0.0,4000,0.05,0.1,misspecified_affine,0,linear_estimated_clipped_fqe,3.1107617965512095,0.04391867226759287,3.1065184443285387,0.041239949662263575,-12.166204489099137,-11.831586406340458,-0.3346180827586792,0.3346180827586792,0.11721621526135464,5.251418144265827,0.15592262959104097,2.987160395596144,0.046017162833783605,2.9916877216037796,0.04495518071204864,0.3431000122468496,0.3496126946362546,1.0,0.06105540659642469,1.158039013105013,1.0548125269212345,1.0823695960290918,1.1580344156741251,3984.790505034483,0.9961976262586207,0.01,0.0,1.157557029259389,0.06398427918692759,nan,0.04350552811170481,0.0038182053505663076,207.84735522689803,0.0,stable,0.95,0.95,discounted,matched_iid,linear,linear_clipped,0.005443773202045587,-1.6044741903487037e-05,0.004643174921730775,0.004904488709633599,linear_reduced_moment,5,-0.3346180827586792,0.005246953952260334,0.11721621526135464,0,0.0
gamma_design,0.95,0.0,4000,0.05,0.1,misspecified_affine,0,linear_neural_weighted_clipped_fqe,2.957797347935769,0.04296815977635186,2.9529858722578277,0.040753735565649284,-12.162125896423607,-11.831586406340458,-0.33053949008314804,0.33053949008314804,0.14644156512117074,5.334530798219696,0.15835147104524952,2.8311885625764064,0.045230344562218194,2.837479167713576,0.04445839388125873,0.3442459963428777,0.3505425895199627,1.0,0.04269502640126869,1.0693417603800222,1.0424195495812607,1.0512732794087774,1.0693372424724916,3991.8207974424467,0.9979551993606117,0.01,0.0,1.0648565673828123,0.04523647485632267,nan,0.02979533173858052,0.0020509134574582173,204.17578065716748,0.0,stable,0.95,0.95,discounted,matched_iid,linear,neural_clipped,0.029454282130435383,-0.004167804278433307,0.012385048200654837,0.012969347001275291,neural_positive_rkhs_moment,5,-0.33053949008314804,0.037185210616743195,0.14644156512117074,0,0.0
gamma_design,0.95,0.0,4000,0.05,0.1,misspecified_affine,0,linear_oracle_clipped_fqe,3.311433070648576,0.045037116719634694,3.3075253804385745,0.04258865216245697,-12.108533247665935,-11.831586406340458,-0.2769468413254774,0.2769468413254774,0.10408939182985293,5.228340287243578,0.15777503453514066,3.1841258976273075,0.047224683202183024,3.18917138743788,0.04646953189828286,0.3431864617591882,0.3498181571222104,1.0,0.0,1.0,1.0,1.0,1.0,4000.0,1.0,0.0,0.0,1.0,0.0,1.0,0.0,0.0,208.31123656983027,0.0,stable,0.95,0.95,discounted,matched_iid,linear,oracle_clipped,0.0,0.0,0.005798930852770978,0.006052785285118638,oracle_exact_clipped,5,-0.2769468413254774,0.027389838909693747,0.10408939182985293,0,0.0
gamma_design,0.95,0.0,4000,0.05,0.1,misspecified_affine,0,linear_oracle_raw_fqe,3.311433070648576,0.045037116719634694,3.3075253804385745,0.04258865216245697,-12.108533247665935,-11.831586406340458,-0.2769468413254774,0.2769468413254774,0.10408939182985293,5.228340287243578,0.15777503453514066,3.1841258976273075,0.047224683202183024,3.18917138743788,0.04646953189828286,0.3431864617591882,0.3498181571222104,1.0,0.0,1.0,1.0,1.0,1.0,4000.0,1.0,0.0,0.0,nan,0.0,1.0,0.0,0.0,208.31123656983027,0.0,stable,0.95,0.95,discounted,matched_iid,linear,oracle_raw,0.0,0.0,0.005798930852770978,0.006052785285118638,oracle_exact,5,-0.2769468413254774,0.027389838909693747,0.10408939182985293,0,0.0
gamma_design,0.95,0.0,4000,0.05,0.1,misspecified_affine,0,linear_standard_fqe,3.311433070648576,0.045037116719634694,3.3075253804385745,0.04258865216245697,-12.108533247665935,-11.831586406340458,-0.2769468413254774,0.2769468413254774,0.10408939182985293,5.228340287243578,0.15777503453514066,3.1841258976273075,0.047224683202183024,3.18917138743788,0.04646953189828286,0.3431864617591882,0.3498181571222104,1.0,0.0,1.0,1.0,1.0,1.0,4000.0,1.0,0.0,0.0,nan,0.0,1.0,0.0,0.0,208.31123656983027,0.0,stable,0.95,0.95,discounted,matched_iid,linear,standard,nan,0.0,0.005798930852770978,0.006052785285118638,uniform,5,-0.2769468413254774,0.027389838909693747,0.10408939182985293,0,0.0
gamma_design,0.95,0.0,4000,0.05,0.1,misspecified_affine,0,neural_estimated_clipped_fqe,1.493334156583952,0.08773143188243179,1.377397320978023,0.08175257787161881,-8.586469965725374,-11.831586406340458,3.2451164406150834,3.2451164406150834,10.531087868588166,16.752875611929028,0.35716991511497964,1.498301916160424,0.09352017723777051,1.3899277261646528,0.09547699659829709,0.23637993013219452,0.2807959424275225,1.0,0.06222551322929585,1.1581344757214636,1.053847060353737,1.085273700848557,1.158129555998911,3984.140138678791,0.9960350346696978,0.01,0.0,1.1578937634956703,0.06413487464249462,nan,0.046487033578419726,0.003982452547615034,206.05759208106684,0.0,stable,0.95,0.95,discounted,matched_iid,neural,linear_clipped,0.004784962267867775,-3.7893251880749546e-06,0.004910926672366195,0.004608206724511081,linear_reduced_moment,2,3.2451164406150834,0.0003071554378571884,10.531087868588166,0,0.0
gamma_design,0.95,0.0,4000,0.05,0.1,misspecified_affine,0,neural_neural_weighted_clipped_fqe,1.4849294873440584,0.08692326125353045,1.3701433146301283,0.0810929822952361,-8.60487256778418,-11.831586406340458,3.226713838556276,3.226713838556276,10.411712849586578,16.586981944275816,0.3536687394523176,1.4919187162547105,0.09282347015628213,1.3817765637529167,0.09461695641295641,0.23262132075863046,0.27604482103389305,0.9999999999999999,0.05569891105914652,1.1079479415517373,1.0653845370011843,1.078251492411062,1.1079390013319173,3987.1122704345744,0.9967780676086436,0.01,0.0,1.1059320580959318,0.05653952367743406,nan,0.04647173040585956,0.003233974690924764,199.87492710054443,0.0,stable,0.95,0.95,discounted,matched_iid,neural,neural_clipped,0.02338760988709053,-0.0017042626589536813,0.015305362889436564,0.015262464244658637,neural_positive_rkhs_moment,2,3.226713838556276,3.065365600109025e-05,10.411712849586578,0,0.0
gamma_design,0.95,0.0,4000,0.05,0.1,misspecified_affine,0,neural_oracle_clipped_fqe,1.4879199000997354,0.0870316805745621,1.3729947802151452,0.08120989714239851,-8.596618210958546,-11.831586406340458,3.234968195381912,3.234968195381912,10.465085884723528,16.636090347650832,0.35400961456906394,1.4955391472899415,0.09301890678448449,1.3844571955846325,0.09474607041937796,0.23348835941691296,0.2769196676288863,1.0,0.0,1.0,1.0,1.0,1.0,4000.0,1.0,0.0,0.0,1.0,0.0,1.0,0.0,0.0,205.93672198249823,0.0,stable,0.95,0.95,discounted,matched_iid,neural,oracle_clipped,0.0,0.0,0.005183415152236455,0.0059334701359726565,oracle_exact_clipped,2,3.234968195381912,6.66595910267233e-05,10.465085884723528,0,0.0
gamma_design,0.95,0.0,4000,0.05,0.1,misspecified_affine,0,neural_standard_fqe,1.4879199000997354,0.0870316805745621,1.3729947802151452,0.08120989714239851,-8.596618210958546,-11.831586406340458,3.234968195381912,3.234968195381912,10.465085884723528,16.636090347650832,0.35400961456906394,1.4955391472899415,0.09301890678448449,1.3844571955846325,0.09474607041937796,0.23348835941691296,0.2769196676288863,1.0,0.0,1.0,1.0,1.0,1.0,4000.0,1.0,0.0,0.0,nan,0.0,1.0,0.0,0.0,205.93672198249823,0.0,stable,0.95,0.95,discounted,matched_iid,neural,standard,nan,0.0,0.005183415152236455,0.0059334701359726565,uniform,2,3.234968195381912,6.66595910267233e-05,10.465085884723528,0,0.0
gamma_design,0.95,1.0,1000,0.05,0.1,misspecified_affine,0,linear_estimated_clipped_fqe,38.053945587429936,0.9333103658393854,37.63850739435054,0.795351975054586,-21.427574713484795,-11.831586406340458,-9.595988307144337,10.38277574109143,225.37493272418004,252.7232749701684,1.8289548101956297,39.24428389149663,1.0145159061565878,36.545208023019185,1.0423259560101077,2.762709116621658,2.6299527156907394,1.0,1.1702336388914727,4.461110559121246,2.857567402606166,3.348471604503298,4.460367027327727,422.549811777592,0.422549811777592,0.01,0.005768008381128312,5.355930297158548,10.249827484612087,0.3856406280241263,1.0648096023580238,0.7802247117950857,190.78941856651412,0.0,stable,0.95,0.95,discounted,matched_iid,linear,linear_clipped,0.33468209207252286,-0.0020982084234856258,0.10351103486979969,0.1495663346982419,linear_reduced_moment,5,-9.595988307144337,133.2919411333292,225.37493272418004,0,0.0
gamma_design,0.95,1.0,1000,0.05,0.1,misspecified_affine,0,linear_neural_weighted_clipped_fqe,31.349526183661897,0.700671853550575,33.971235729921844,0.8241093295395432,-20.11603906958319,-11.831586406340458,-8.284452663242734,10.921772391442477,146.54137998796665,165.4744083558199,1.2400599107135732,28.728490297589495,0.7097542998028407,30.58564261342865,0.7872926219704426,5.111947736486693,2.056080955610983,1.0,1.2247448708891113,5.0269846290423175,2.9804934317496063,3.698571179070394,5.025971736463998,400.0000001969302,0.4000000001969302,0.01,0.17632491498254238,5.574545063018798,12.467917933420434,0.3245095893646196,1.0875300538204964,0.8169438033058926,201.25990846065548,0.0,stable,0.95,0.95,discounted,matched_iid,linear,neural_clipped,0.3617921338547538,-0.06355140954705549,0.10967019035561001,0.16501276464600728,neural_positive_rkhs_moment,5,-8.284452663242734,77.90922405845704,146.54137998796665,0,0.0
gamma_design,0.95,1.0,1000,0.05,0.1,misspecified_affine,0,linear_oracle_clipped_fqe,21.178097523604976,0.18006919506715285,21.476410829943926,0.515326489342691,-12.901605132855318,-11.831586406340458,-1.0700187265148586,2.8433611984817047,16.211110590142404,26.55635757901366,0.3985853059530945,19.94469196783062,0.33618000701251866,21.147621410737255,0.20386397108390977,2.1183848953031985,1.086512016947022,1.0,1.2247448705821011,7.557797862464028,2.6176801528589664,3.491101234917026,7.551200243922821,400.00000031725324,0.40000000031725313,0.01,0.49434349304065117,7.297731967005497,13.322222965812571,0.8295773546257346,0.7725039143672076,0.48202290572466044,212.29684502191367,0.0,stable,0.95,0.95,discounted,matched_iid,linear,oracle_clipped,0.0,0.0,0.16800853828298162,0.19989326118278558,oracle_exact_clipped,5,-1.0700187265148586,15.066170515049924,16.211110590142404,0,0.0
gamma_design,0.95,1.0,1000,0.05,0.1,misspecified_affine,0,linear_oracle_raw_fqe,8.6929922633465,0.537926797234834,116.82865048496278,3.4190600989585382,-1.1374411017285477,-11.831586406340458,10.694145304611911,10.694145304611911,115.6592732796403,148.42201665520935,2.058048774235566,45.59241054212553,1.5367852598672542,8.261632687279803,0.6000974338268718,23.331167663305983,3.9603956317376463,1.0,3.4783467292077317,61.48249768088569,3.6333127577298803,5.139892220600038,12.120437300668403,82.0122727458,0.0820122727458,0.0,0.0,nan,0.0,1.0,0.0,0.0,227.5179697194454,1.0,overlap_collapse,0.95,0.95,discounted,matched_iid,linear,oracle_raw,0.0,0.0,0.13284390992375966,0.18914783664354,oracle_exact,5,10.694145304611911,1.2945294834873473,115.6592732796403,5,1.0
gamma_design,0.95,1.0,1000,0.05,0.1,misspecified_affine,0,linear_standard_fqe,184.13616283077053,0.9782546694596457,152.40752150920355,1.0579133788456543,-8.300653638431518,-11.831586406340458,3.530932767908941,3.8192810433467628,28.072499767107438,39.2107001446812,0.47565852569290923,159.52307967030526,1.054439596572386,184.88858500577985,1.1219356175913338,1.8616075055218118,1.1547054548249385,1.0,0.0,1.0,1.0,1.0,1.0,1000.0,1.0,0.0,0.0,nan,13.91545748548189,nan,1.5501523072973673,0.9179877272542001,426.503308181996,0.0,stable,0.95,0.95,discounted,matched_iid,linear,standard,nan,0.0,0.3795457496234786,0.41216481678118655,uniform,5,3.530932767908941,15.605013555614352,28.072499767107438,0,0.0
gamma_design,0.95,1.0,1000,0.05,0.1,misspecified_affine,0,neural_estimated_clipped_fqe,7.078769214608505,0.5179631625216969,78.40222944326962,2.3836362409027756,-1.987953767407236,-11.831586406340458,9.843632638933222,9.843632638933222,96.96094839545403,130.5055666732712,1.9512841249458845,48.93832563388608,1.597515387237139,6.858386405666234,0.5700916309230363,8.984209976398986,5.600473651841522,1.0,1.1872981006497096,4.299950505781799,2.9409167125421893,3.363666051598737,4.299730994819672,415.31695197442355,0.41531695197442353,0.01,0.00522628133185208,5.272703183646357,10.008535521402099,0.420051221644944,1.0126127933200104,0.7456614462226274,177.04481945395713,0.0,stable,0.95,0.95,discounted,matched_iid,neural,linear_clipped,0.33639377896908196,-0.0018523635886370515,0.10378002742702422,0.14754000488978775,linear_reduced_moment,2,9.843632638933222,0.06384486518259823,96.96094839545403,0,0.0
gamma_design,0.95,1.0,1000,0.05,0.1,misspecified_affine,0,neural_neural_weighted_clipped_fqe,6.825360504305026,0.4635534798416576,83.11999302935051,2.535097498898318,-2.3332195913758538,-11.831586406340458,9.498366814964605,9.498366814964605,90.59389645982239,118.6281774489097,1.7207918633748465,34.20476176352764,1.231878664871032,6.5544586887757585,0.5158553591393937,18.018053935650546,3.738104727202977,1.0,1.2247448708003121,4.7514532502702895,2.9648297004201836,3.500926502806582,4.751071831200749,400.0000002317322,0.4000000002317322,0.01,0.0933450030395761,4.812318172454834,11.828311522959815,0.3774605227819271,1.025275885069971,0.7695482339837184,215.79390318495237,0.0,stable,0.95,0.95,discounted,matched_iid,neural,neural_clipped,0.37206710064095155,-0.08020482712673849,0.12217455351731663,0.17313720271507219,neural_positive_rkhs_moment,2,9.498366814964605,0.37492430820155864,90.59389645982239,0,0.0
gamma_design,0.95,1.0,1000,0.05,0.1,misspecified_affine,0,neural_oracle_clipped_fqe,5.904945986762438,0.42437983241084365,76.68433839813031,2.371960612151632,-2.922130562523683,-11.831586406340458,8.909455843816776,8.909455843816776,79.5259769683764,106.34161224268121,1.6057221356037075,33.763812941991205,1.202998051048974,5.5940464895965825,0.46749430520399327,15.165893092003923,3.870429587383179,1.0,1.2247448705390092,7.126108706315501,2.700544122937538,3.510283948056353,7.116786114299867,400.00000033414176,0.40000000033414174,0.01,0.47646245164796713,6.874165138239022,13.264880885533433,0.8144595683208408,0.738801268728287,0.4716757237723961,196.22307942443618,0.0,stable,0.95,0.95,discounted,matched_iid,neural,oracle_clipped,0.0,0.0,0.1605832519987431,0.19386957098263535,oracle_exact_clipped,2,8.909455843816776,0.14757353545551866,79.5259769683764,0,0.0
gamma_design,0.95,1.0,1000,0.05,0.1,misspecified_affine,0,neural_standard_fqe,6.095997896336543,0.43235165043328416,77.79962964015186,2.396983538154445,-2.7936098486358283,-11.831586406340458,9.03797655770463,9.03797655770463,81.76424429885341,108.86138145041578,1.630938655162299,34.89703448939336,1.2266799851295471,5.791622751103828,0.4766647839631365,14.905484879994152,3.9428472010889157,1.0,0.0,1.0,1.0,1.0,1.0,1000.0,1.0,0.0,0.0,nan,13.884272309006697,nan,1.5378751144926301,0.9100511342787342,417.14165341908495,0.0,stable,0.95,0.95,discounted,matched_iid,neural,standard,nan,0.0,0.38097645022553406,0.4107506372957044,uniform,2,9.03797655770463,0.07922404123499234,81.76424429885341,0,0.0
gamma_design,0.95,1.0,4000,0.05,0.1,misspecified_affine,0,linear_estimated_clipped_fqe,9.007749640883116,0.17527493687082768,12.291614867632045,0.2799199337433789,-16.55969689342161,-11.831586406340458,-4.7281104870811514,4.7281104870811514,29.541420767889804,36.99603011918297,0.308573222534184,6.733061435985455,0.1916031890517605,8.7400192329263,0.19771402735134871,2.684982496131215,0.88962291431444,1.0,1.1835145391583421,4.671881803657384,2.8003957625870646,3.418056874633662,4.6716688830439494,1668.7335787399556,0.4171833946849889,0.01,0.003686063261702657,5.64658141685029,9.687089638458703,0.294691177024462,1.1046886661875228,0.8623769898064187,203.01696957090056,0.0,stable,0.95,0.95,discounted,matched_iid,linear,linear_clipped,0.28417512554616164,-0.0006325841902725893,0.10787659308425805,0.14507158366022713,linear_reduced_moment,5,-4.7281104870811514,7.186391989843038,29.541420767889804,0,0.0
gamma_design,0.95,1.0,4000,0.05,0.1,misspecified_affine,0,linear_neural_weighted_clipped_fqe,33.24559919584733,0.7119791085638824,20.698343774117156,0.3334821196887722,-24.002072592822334,-11.831586406340458,-12.170486186481872,12.170486186481872,149.9673348092319,165.32138649670165,1.1045329412179627,24.211123697576916,0.5621254411462955,32.440041907319184,0.8061929300432711,2.404088907617117,1.632349993609866,1.0,1.2247448707768729,5.423763034917307,2.9434884113118573,3.8112370327966496,5.423464875598619,1600.000000963674,0.4000000002409186,0.01,0.2437434224039316,6.440081438064565,12.977134300498184,0.22514970388604869,1.1380076864782658,0.8980460581403822,195.3521905759838,0.0,stable,0.95,0.95,discounted,matched_iid,linear,neural_clipped,0.3442290342372568,-0.0503219221918658,0.10309391417281225,0.15912697045419993,neural_positive_rkhs_moment,5,-12.170486186481872,1.8466007938858162,149.9673348092319,0,0.0
gamma_design,0.95,1.0,4000,0.05,0.1,misspecified_affine,0,linear_oracle_clipped_fqe,23.926348574538093,0.17885288214059616,21.99214039872013,0.4476662114023789,-12.967668705084543,-11.831586406340458,-1.1360822987440844,1.3817885925723548,2.6775230462385324,10.843048330888674,0.20485310392764067,20.663040613245208,0.27206786792169496,23.947927212775312,0.2026060321943089,2.068428733003821,0.8909262569929218,1.0,1.2247448708006867,7.3025527144979865,2.6949176718030694,3.5886315552230195,7.300818559798069,1600.0000009263415,0.40000000023158544,0.01,0.49470486249774703,6.6973759241682105,13.39535705078986,0.6283505168934835,0.7843605040560101,0.679811961642503,225.2206586172735,0.0,stable,0.95,0.95,discounted,matched_iid,linear,oracle_clipped,0.0,0.0,0.17835581910483445,0.2051434577910646,oracle_exact_clipped,5,-1.1360822987440844,1.3868400567188894,2.6775230462385324,0,0.0
gamma_design,0.95,1.0,4000,0.05,0.1,misspecified_affine,0,linear_oracle_raw_fqe,8.980708659798228,0.5494442214671686,116.92774202799963,3.41942673489165,-0.9073798634512482,-11.831586406340458,10.924206542889209,10.924206542889209,119.34090018136155,152.45626540085976,2.0962571877639546,46.359344714536114,1.5557535359709052,8.457386072352687,0.6083933934885117,22.895237713914646,3.9687318487372707,1.0,5.250822329787843,203.5043593293877,3.514472926332251,4.9408339290760495,10.86627556261394,199.38446231465292,0.04984611557866323,0.0,0.0,nan,0.0,1.0,0.0,0.0,209.63160276497538,1.0,overlap_collapse,0.95,0.95,discounted,matched_iid,linear,oracle_raw,0.0,0.0,0.12246129700684343,0.18070003107105376,oracle_exact,5,10.924206542889209,0.0026115896581313334,119.34090018136155,5,1.0
gamma_design,0.95,1.0,4000,0.05,0.1,misspecified_affine,0,linear_standard_fqe,199.72773498135206,1.0541342217346528,166.02474305114654,1.0817614794902224,-7.213300211090465,-11.831586406340458,4.618286195249992,4.618286195249992,22.942172739221817,32.045397460169525,0.5098651804616414,173.80151833290913,1.105752120443682,200.4257517444116,1.2080224631908791,1.8390818524281118,1.0007379267896943,1.0,0.0,1.0,1.0,1.0,1.0,4000.0,1.0,0.0,0.0,nan,13.988810594115373,nan,1.5626421868871643,0.9501538844213367,452.7013741087079,0.0,stable,0.95,0.95,discounted,matched_iid,linear,standard,nan,0.0,0.40059390570808145,0.4249382324811327,uniform,5,4.618286195249992,1.613605357985169,22.942172739221817,0,0.0
gamma_design,0.95,1.0,4000,0.05,0.1,misspecified_affine,0,neural_estimated_clipped_fqe,2.878442257809896,0.16737003613700419,32.4475374876218,1.1084664148275585,-6.869732787966774,-11.831586406340458,4.961853618373684,4.961853618373684,26.229092966139063,37.010028022143494,0.6660415570348632,13.921283729907003,0.5601011384487418,2.6448075107189166,0.1756213364272921,6.4039348593793886,0.9449841653590438,1.0,1.1529149530504457,4.477336433656198,2.7376892464111267,3.3234034876109924,4.476921979156279,1722.192390591557,0.43054809764788915,0.01,0.009215158154256643,5.482998843165005,10.49522128676028,0.4010902206585685,1.0753256397235282,0.7728134542612102,203.1730105808728,0.0,stable,0.95,0.95,discounted,matched_iid,neural,linear_clipped,0.29267475371854623,-0.0007380944234188225,0.10948798312631197,0.14714697423170497,linear_reduced_moment,2,4.961853618373684,1.6091016359710428,26.229092966139063,0,0.0
gamma_design,0.95,1.0,4000,0.05,0.1,misspecified_affine,0,neural_neural_weighted_clipped_fqe,1.5200044018631735,0.08759266853835114,30.176436460493726,1.0872636544869398,-9.038749361665557,-11.831586406340458,2.792837044674901,2.792837044674901,9.807690254001468,16.411298389306378,0.3640811118915638,4.898889515163793,0.26170524658106176,1.3733010927138087,0.09315744789444862,14.39645387775457,0.4355881495379459,1.0,1.2247448707809858,5.500509713731336,2.939123087396333,3.8018884076523007,5.5004470406977015,1600.0000009572263,0.4000000002393066,0.01,0.24813393636140973,6.5421034240722635,12.87982969359199,0.31990161791167016,1.1047971543178559,0.8252989856875261,196.18501692643883,0.0,stable,0.95,0.95,discounted,matched_iid,neural,neural_clipped,0.3495334128575418,-0.05492233364385074,0.10527480832950775,0.15813641048936544,neural_positive_rkhs_moment,2,2.792837044674901,2.0077514958930314,9.807690254001468,0,0.0
gamma_design,0.95,1.0,4000,0.05,0.1,misspecified_affine,0,neural_oracle_clipped_fqe,1.8151390811610737,0.09044756952717445,30.175506613565588,1.072048724394815,-8.83762347431277,-11.831586406340458,2.993962932027689,2.993962932027689,10.391709544200285,16.980549733483496,0.3664874518829898,4.406008215837966,0.24635340793104152,1.6549767782879687,0.09718069225439914,15.348380671484561,0.3791212038680288,0.9999999999999999,1.2247448709657032,7.312170185806455,2.720901737714529,3.614884057747439,7.310966683449559,1600.0000006676496,0.4000000001669124,0.01,0.4880173658020795,6.584433024587165,13.279496458350899,0.8252372134766324,0.7638094165294407,0.48450043751161626,224.3295432764629,0.0,stable,0.95,0.95,discounted,matched_iid,neural,oracle_clipped,0.0,0.0,0.17626777792280587,0.20214786136749285,oracle_exact_clipped,2,2.993962932027689,1.427895505844449,10.391709544200285,0,0.0
gamma_design,0.95,1.0,4000,0.05,0.1,misspecified_affine,0,neural_standard_fqe,1.9634304467563855,0.08071540070381455,27.973645357473778,0.982080944506057,-9.272440231337107,-11.831586406340458,2.5591461750033497,2.5591461750033497,8.226090035949067,14.396280310538707,0.31215068850306404,2.833841869145738,0.17748198093252673,1.8061956859848065,0.08882849983683264,19.31401726623464,0.34501162736593444,1.0,0.0,1.0,1.0,1.0,1.0,4000.0,1.0,0.0,0.0,nan,13.883730875745108,nan,1.5529199923825365,0.9172267988557788,449.81842551472613,0.0,stable,0.95,0.95,discounted,matched_iid,neural,standard,nan,0.0,0.40149007785503504,0.42276956368232077,uniform,2,2.5591461750033497,1.6768608909147913,8.226090035949067,0,0.0
gamma_design,0.95,1.1,1000,0.05,0.1,misspecified_affine,0,linear_estimated_clipped_fqe,34.989795524209775,0.8772293666635174,54.35945347129466,1.6514853933126137,-12.083758941032851,-11.831586406340458,-0.25217253469239437,10.894309060038413,219.54183022150409,251.58257818635835,2.2139963147170887,59.19909558591945,1.6808292404010374,34.11880112112031,0.9905454462261278,4.519254023782471,2.9096704706337784,1.0,1.2247448709011948,4.968696075138829,2.9658281691789217,3.611112508433384,4.968261408726006,400.00000019219453,0.4000000001921945,0.01,0.07422887566499412,6.453579327987195,13.443378751221184,0.40442871890381227,1.2139474956126066,0.7837135929280047,246.8176082375072,0.0,stable,0.95,0.95,discounted,matched_iid,linear,linear_clipped,0.3145114181941389,-0.0020212208290934174,0.1626834309722664,0.1748294292352076,linear_reduced_moment,5,-0.25217253469239437,219.47823923425094,219.54183022150409,0,0.0
gamma_design,0.95,1.1,1000,0.05,0.1,misspecified_affine,0,linear_neural_weighted_clipped_fqe,26.365053466931023,0.5738740070584853,26.06836156671393,0.7328998817861175,-21.395579532272013,-11.831586406340458,-9.563993125931551,9.563993125931551,134.41118567577348,149.43698115335116,1.0011965380015972,23.12754026321785,0.6250478758561491,25.54456397172817,0.6439415432251774,4.192819419163149,1.608447395532059,1.0,1.224744870974495,5.239746463521516,3.007795299039153,3.8188988683214498,5.238261391650989,400.00000016346684,0.4000000001634668,0.01,0.2817648505978287,6.362444254875181,13.972212615021922,0.37794545039891414,1.2200757432479463,0.7990484310792255,225.76940185215435,0.0,stable,0.95,0.95,discounted,matched_iid,linear,neural_clipped,0.35264449471860226,-0.07778926246200617,0.1438034634087985,0.17969370448301825,neural_positive_rkhs_moment,5,-9.563993125931551,42.941221162907496,134.41118567577348,0,0.0
gamma_design,0.95,1.1,1000,0.05,0.1,misspecified_affine,0,linear_oracle_clipped_fqe,60.93377312198138,0.349239918702998,64.34499291334095,1.2052469323099828,-10.140488741996219,-11.831586406340458,1.691097664344237,5.7756339337497895,46.15797797831645,56.83594156093667,0.6435095886494548,65.27142626452927,0.825844017200182,61.00195488936256,0.3953855205798776,3.6041028855291315,1.1338282444957408,1.0,1.2247448709499231,7.4956171805091785,2.2937102328860464,3.7769517606561913,7.48637624674443,400.00000017309713,0.4000000001730971,0.01,0.571566035859287,8.032438569038343,14.405111948864876,0.8638779677300119,0.9549311265790029,0.5033016356914615,315.71953608576723,0.0,stable,0.95,0.95,discounted,matched_iid,linear,oracle_clipped,0.0,0.0,0.28480621235669307,0.29642180903866033,oracle_exact_clipped,5,1.691097664344237,43.298166667965916,46.15797797831645,0,0.0
gamma_design,0.95,1.1,1000,0.05,0.1,misspecified_affine,0,linear_oracle_raw_fqe,9.153636061618176,0.5563584857334035,208.58820475609537,5.62884066087125,-0.8787450646236559,-11.831586406340458,10.952841341716802,10.952841341716802,121.11522792344297,154.4763574810627,2.1138242517213963,76.98361464344944,2.4071431966174317,8.707063739102413,0.6206318665968482,40.805854552734736,4.014576493424476,1.0,3.756644221106419,59.32945244378287,3.4195063840726,6.367881239554282,13.76123409664533,67.6579904794909,0.0676579904794909,0.0,0.0,nan,0.0,1.0,0.0,0.0,228.17620822995468,1.0,overlap_collapse,0.95,0.95,discounted,matched_iid,linear,oracle_raw,0.0,0.0,0.12484469363187123,0.1922071034764054,oracle_exact,5,10.952841341716802,1.1504944666222483,121.11522792344297,5,1.0
gamma_design,0.95,1.1,1000,0.05,0.1,misspecified_affine,0,linear_standard_fqe,460.18255465404434,1.7293228872129585,379.9520959516274,2.137955699102469,-0.9931069556155172,-11.831586406340458,10.838479450724941,10.838479450724941,154.96646652610383,166.02032041928777,0.9161786037409932,405.80621664167154,1.9545767182971876,461.6618860035545,1.9785436502810314,3.1264104907873396,1.6252708331447008,1.0,0.0,1.0,1.0,1.0,1.0,1000.0,1.0,0.0,0.0,nan,14.904548015153816,nan,1.6633880322949863,0.932342009520509,579.323484129123,0.0,stable,0.95,0.95,discounted,matched_iid,linear,standard,nan,0.0,0.5346000655677611,0.5413050496387136,uniform,5,10.838479450724941,37.49382972231702,154.96646652610383,0,0.0
gamma_design,0.95,1.1,1000,0.05,0.1,misspecified_affine,0,neural_estimated_clipped_fqe,7.328431892925193,0.5226248331457428,155.81262076509898,4.334479528331114,-1.7626107981433927,-11.831586406340458,10.068975608197064,10.068975608197064,101.45195300941862,133.8923784240197,1.948331424971896,78.84061826600512,2.4044564545894955,7.092921440556278,0.5767695098466207,21.302076234317486,5.22739848577745,1.0,1.2247448708269104,4.756755442706451,2.9997104683044773,3.658496261896431,4.756359896763696,400.000000221308,0.400000000221308,0.01,0.07975299546960742,6.252867579314139,13.40406968173069,0.4420173656356107,1.1744589296728427,0.7501502196414727,226.66972765617555,0.0,stable,0.95,0.95,discounted,matched_iid,neural,linear_clipped,0.29539427252009165,-0.0013551308220826619,0.1583740147796204,0.1724983636661288,linear_reduced_moment,2,10.068975608197064,0.06768321095115294,101.45195300941862,0,0.0
gamma_design,0.95,1.1,1000,0.05,0.1,misspecified_affine,0,neural_neural_weighted_clipped_fqe,7.389568670591725,0.507811398395362,146.7855083768066,4.176512536619393,-1.7439503868565691,-11.831586406340458,10.087636019483888,10.087636019483888,101.92092888530249,132.1407725241144,1.8696874529246885,62.83428773277433,2.028970253636186,7.11365328989919,0.566127372099975,27.208582739526488,4.448456101951244,1.0,1.2247448709076867,5.071090248252402,3.008894635805042,3.688154933067903,5.070047913882847,400.00000018965034,0.4000000001896503,0.01,0.23251154306344693,5.70347869157791,13.830293297403383,0.4223566626796399,1.179476184301862,0.7615817939330587,203.02973245013985,0.0,stable,0.95,0.95,discounted,matched_iid,neural,neural_clipped,0.3550398353272445,-0.10073455196145875,0.12785342948871664,0.17189471335460293,neural_positive_rkhs_moment,2,10.087636019483888,0.1605284237137387,101.92092888530249,0,0.0
gamma_design,0.95,1.1,1000,0.05,0.1,misspecified_affine,0,neural_oracle_clipped_fqe,7.764755738194937,0.5234381600997832,153.6939470457966,4.326655989402569,-1.5267806778022415,-11.831586406340458,10.304805728538216,10.304805728538216,106.3603817572781,137.09737732997786,1.9187505779688803,67.08033127228032,2.1213344268810874,7.482601623895539,0.5829088667623115,27.193770836745784,4.53981037856603,1.0000000000000002,1.2247448710933106,7.355766734730872,2.419782073742704,3.8092848069223697,7.337345395016144,400.000000116901,0.40000000011690096,0.01,0.5597745921229945,7.920987460375233,14.350865009580744,0.8943936921704283,0.9283762748985512,0.461306619608261,292.88258809530817,0.0,stable,0.95,0.95,discounted,matched_iid,neural,oracle_clipped,0.0,0.0,0.2779199342866676,0.288497147956852,oracle_exact_clipped,2,10.304805728538216,0.17136065436407255,106.3603817572781,0,0.0
gamma_design,0.95,1.1,1000,0.05,0.1,misspecified_affine,0,neural_standard_fqe,7.786593157731271,0.5242394060994834,153.6979226690215,4.327326900967378,-1.5193844929006382,-11.831586406340458,10.31220191343982,10.31220191343982,106.55377936452933,137.32514493810436,1.9210068122593826,67.46973668168711,2.1282934233447612,7.508446494998081,0.5838450335258892,27.034385195570934,4.557948054941512,1.0,0.0,1.0,1.0,1.0,1.0,1000.0,1.0,0.0,0.0,nan,14.866166021981368,nan,1.6503430885556138,0.9247771268483507,566.7780162368358,0.0,stable,0.95,0.95,discounted,matched_iid,neural,standard,nan,0.0,0.5362388957347073,0.5394743817996015,uniform,2,10.31220191343982,0.21227106097745818,106.55377936452933,0,0.0
gamma_design,0.95,1.1,4000,0.05,0.1,misspecified_affine,0,linear_estimated_clipped_fqe,7.591713371629632,0.07000111837557266,17.71280027107101,0.7084168757312717,-11.959306827677159,-11.831586406340458,-0.12772042133670033,1.642317368251965,2.935444900583918,8.226613477428652,0.2021374072021703,11.174778624580032,0.4301222605449226,7.442253433794827,0.0770810020223495,4.536605056999305,0.5341036825179275,1.0,1.2247448707684014,5.085923940040381,2.906990200349479,3.6442219807377585,5.085820651493707,1600.0000009769544,0.40000000024423865,0.01,0.07835887895897033,6.725262753456351,13.545094165222952,0.2768939387970142,1.259609247446547,0.8780875287220302,266.5651263547751,0.0,stable,0.95,0.95,discounted,matched_iid,linear,linear_clipped,0.27583904089468947,-0.0009647414100990792,0.18158948447168588,0.18027746419360682,linear_reduced_moment,5,-0.12772042133670033,2.9191323945574936,2.935444900583918,0,0.0
gamma_design,0.95,1.1,4000,0.05,0.1,misspecified_affine,0,linear_neural_weighted_clipped_fqe,21.71873705099558,0.46820431938556234,19.29907863867781,0.4942913099419514,-22.02588466393529,-11.831586406340458,-10.19429825759483,10.19429825759483,107.18336289511157,118.13062843452562,0.7664712661990034,15.316183669045946,0.4193732363985724,21.103574038360172,0.5272836806605934,4.053606170452986,1.276520842697348,1.0,1.2247448710878261,5.6009483108745,2.9505612216264554,3.9211758542053152,5.60081545533898,1600.000000476201,0.4000000001190503,0.01,0.31998005297034976,7.2301644029617265,14.140742278923685,0.2460442979422109,1.269210268660252,0.8925315793706396,247.35016833556057,0.0,stable,0.95,0.95,discounted,matched_iid,linear,neural_clipped,0.33859589835897175,-0.058392918445741106,0.16377488562324144,0.18826184298094775,neural_positive_rkhs_moment,5,-10.19429825759483,3.2596459303105547,107.18336289511157,0,0.0
gamma_design,0.95,1.1,4000,0.05,0.1,misspecified_affine,0,linear_oracle_clipped_fqe,72.01719621557858,0.4149281315489535,71.27536672072057,1.152116740168108,-8.51270145092919,-11.831586406340458,3.3188849554112685,3.3188849554112685,13.548259163958566,19.358417389383302,0.35264307151725954,72.76420860842262,0.7160935415634495,72.16486063021009,0.4717733679737666,3.5192477562552424,0.7084844808879482,1.0,1.2247448703497987,7.71067777563205,2.1076528156945313,3.7882009467340816,7.709898534224725,1600.0000016331865,0.4000000004082967,0.01,0.5803840062115342,7.802232224647865,14.50073786407673,0.6088882807436728,0.9819597255881124,0.7141880853371004,340.10953829401444,0.0,stable,0.95,0.95,discounted,matched_iid,linear,oracle_clipped,0.0,0.0,0.3048793321190265,0.3089023129283214,oracle_exact_clipped,5,3.3188849554112685,2.5332618167033076,13.548259163958566,0,0.0
gamma_design,0.95,1.1,4000,0.05,0.1,misspecified_affine,0,linear_oracle_raw_fqe,9.486643269529472,0.5704763306677728,210.52955142055333,5.6662931921389905,-0.6353382480414422,-11.831586406340458,11.196248158299017,11.196248158299017,125.41789071627076,159.31735681634845,2.161089059411212,78.48461412866826,2.4415700745934705,8.933556338254663,0.6319796156890242,40.723653438842746,4.057240457532201,1.0,7.696745395385591,363.2811776886597,2.784885376750818,5.855339653247933,12.957082136480832,150.1354469426204,0.03753386173565511,0.0,0.0,nan,0.0,1.0,0.0,0.0,232.04268799803467,1.0,overlap_collapse,0.95,0.95,discounted,matched_iid,linear,oracle_raw,0.0,0.0,0.1175997864244166,0.18142081406706687,oracle_exact,5,11.196248158299017,0.061917894056665666,125.41789071627076,5,1.0
gamma_design,0.95,1.1,4000,0.05,0.1,misspecified_affine,0,linear_standard_fqe,507.17374026322085,1.7597171690235407,423.03529482825263,2.080818465325309,1.619645231730368,-11.831586406340458,13.451231638070826,13.451231638070826,183.89634988131692,189.9363990487662,0.9738590502479247,453.6285508730833,1.8463242251900234,508.33069199926814,2.012373157551383,3.0955570611877725,1.2925265483580528,1.0,0.0,1.0,1.0,1.0,1.0,4000.0,1.0,0.0,0.0,nan,14.987250258773361,nan,1.6773006657057525,0.9624661382643449,613.6026359511827,0.0,stable,0.95,0.95,discounted,matched_iid,linear,standard,nan,0.0,0.5594414815028014,0.5545201136577187,uniform,5,13.451231638070826,2.960717300279364,183.89634988131692,0,0.0
gamma_design,0.95,1.1,4000,0.05,0.1,misspecified_affine,0,neural_estimated_clipped_fqe,5.342853768036896,0.2509096050782909,56.66217304267103,1.7378669710259271,-4.736684663780542,-11.831586406340458,7.094901742559916,7.094901742559916,51.150983893186385,64.39539506233696,0.8869770367781462,23.51117522187225,0.8334977558505549,5.118457434729107,0.2802434443277042,10.890193955526712,1.0285341356620068,1.0,1.2247448706311443,5.0232417711397925,2.8912027799391122,3.6110725127767322,5.023185722293677,1600.0000011921293,0.40000000029803234,0.01,0.06743582906201484,6.663062018660497,13.255923228893062,0.38578105256916695,1.2252951013979705,0.8049421162609772,262.86840946260793,0.0,stable,0.95,0.95,discounted,matched_iid,neural,linear_clipped,0.2874169193766868,-0.0010169666224512097,0.17620800555742003,0.17819382253218413,linear_reduced_moment,2,7.094901742559916,0.8133531566066565,51.150983893186385,0,0.0
gamma_design,0.95,1.1,4000,0.05,0.1,misspecified_affine,0,neural_neural_weighted_clipped_fqe,5.085450175091421,0.24279337489727748,56.47069556502504,1.8057649427675448,-5.064785671610156,-11.831586406340458,6.766800734730303,6.766800734730303,47.99271527021137,60.99919932169063,0.8654555303765674,18.526849227946727,0.6902864914126281,4.912252872273497,0.27252223093873584,14.36632888555518,0.937776018538092,1.0,1.2247448710025493,5.656973508716362,2.9453819586260845,3.9249585946650365,5.656854191725516,1600.0000006098874,0.40000000015247184,0.01,0.3231203721370548,7.291559443473812,14.032312379456991,0.3527482886175739,1.240052682409504,0.8239305654868211,249.33072249449944,0.0,stable,0.95,0.95,discounted,matched_iid,neural,neural_clipped,0.34260105807827457,-0.06424956670631088,0.16571171536360085,0.1873729242524211,neural_positive_rkhs_moment,2,6.766800734730303,2.2031230866647995,47.99271527021137,0,0.0
gamma_design,0.95,1.1,4000,0.05,0.1,misspecified_affine,0,neural_oracle_clipped_fqe,4.811660298764719,0.2163680957110814,54.967500022012246,1.7284860799029453,-5.529154850777457,-11.831586406340458,6.302431555563001,6.302431555563001,41.54712358328417,53.405144735786706,0.7722927263757213,12.664527496967043,0.5217398284091423,4.633721075034687,0.24350121926966822,20.16485381288755,0.7273142137012865,1.0,1.2247448706139075,7.700952478091164,2.1596298752430707,3.8233128470674713,7.700232931059306,1600.0000012191504,0.4000000003047876,0.01,0.5770428297342733,7.628496994559407,14.383010105108989,0.8279146810333742,0.9670149233290679,0.5485028706692388,341.87475590989476,0.0,stable,0.95,0.95,discounted,matched_iid,neural,oracle_clipped,0.0,0.0,0.30340849717591273,0.30567928814831385,oracle_exact_clipped,2,6.302431555563001,1.8264800707278934,41.54712358328417,0,0.0
gamma_design,0.95,1.1,4000,0.05,0.1,misspecified_affine,0,neural_standard_fqe,4.42501010653346,0.18923519195170224,52.537932644520566,1.6366318010119234,-6.054476842045941,-11.831586406340458,5.777109564294517,5.777109564294517,34.827208977060934,45.63050387307331,0.678364820540747,9.004457202735793,0.4142729726774591,4.253913290924489,0.21306763970173287,24.619951314768702,0.5806695993567774,1.0,0.0,1.0,1.0,1.0,1.0,4000.0,1.0,0.0,0.0,nan,14.874859147135668,nan,1.6687356467228445,0.9400131267302996,608.8195109104724,0.0,stable,0.95,0.95,discounted,matched_iid,neural,standard,nan,0.0,0.5608003412175118,0.5520006971045159,uniform,2,5.777109564294517,1.4522140591977464,34.827208977060934,0,0.0
gamma_design,0.95,1.35,1000,0.05,0.1,misspecified_affine,0,linear_estimated_clipped_fqe,1805.9545012230276,7.541320160267136,2290.289564935373,21.01170530687131,32.571425705118216,-11.831586406340458,44.40301211145867,44.40301211145867,3027.462725258568,3107.7719852982186,12.47341167754885,2606.4247119471333,19.64371269215939,1806.3610339622924,8.652558294762233,20.6846330571599,13.455029600968427,1.0,1.224744870616742,7.404808683072476,2.0030900047288407,3.7219256477249574,7.402270991074834,400.0000003036767,0.40000000030367666,0.01,0.4541542216110974,17.736374662338232,16.58767257724245,0.4022881092339302,1.7359577585677641,0.8977358463156617,1199.8840578697477,0.0,stable,0.95,0.95,discounted,matched_iid,linear,linear_clipped,0.4997956348704422,-0.013049173212346998,1.097318167056348,0.7969209290855975,linear_reduced_moment,5,44.40301211145867,1055.8352406882227,3027.462725258568,0,0.0
gamma_design,0.95,1.35,1000,0.05,0.1,misspecified_affine,0,linear_neural_weighted_clipped_fqe,1208.4407866779165,3.0812210100892408,1369.5343891018524,13.814976245561576,14.971922212080244,-11.831586406340458,26.8035086184207,26.960516428905862,1178.2353218705223,1207.2991180946917,3.7843143430296005,1413.905745038891,10.220441351928244,1209.6770120701617,3.5041009645712884,25.316956747899432,5.909606508678512,1.0,1.2247448705793502,6.958565581985839,2.1220824745247246,3.742201435882914,6.957691390806611,400.00000031833133,0.40000000031833133,0.01,0.4587375770695508,4.6756599290650325,16.48800189945199,0.3624478760546753,1.763023278591509,0.9087238409904292,1052.2759276079782,0.0,stable,0.95,0.95,discounted,matched_iid,linear,neural_clipped,0.343352793498925,-0.7030578706815545,0.9003403756580077,0.7244066674454099,neural_positive_rkhs_moment,5,26.8035086184207,459.8072476127692,1178.2353218705223,0,0.0
gamma_design,0.95,1.35,1000,0.05,0.1,misspecified_affine,0,linear_oracle_clipped_fqe,1488.418407131094,5.5923063836233835,1810.4550605969075,18.491231917849895,29.78863997186108,-11.831586406340458,41.62022637820154,41.62022637820154,2253.5552907335687,2323.026925497353,9.280390517288803,2061.3318847000705,16.67894209233244,1483.2002639501839,6.22400901246926,20.47189499596643,10.3725378981857,1.0,2.5210972883850458,22.3770219699256,0.6500000205839928,0.6501730113064118,22.3510154693398,137.09463716455983,0.13709463716455986,0.01,0.65,14.258736523976358,16.575667762652472,0.8513364265222183,1.264234895816329,0.5961478723596927,1206.9019960308317,1.0,overlap_collapse,0.95,0.95,discounted,matched_iid,linear,oracle_clipped,0.0,0.0,1.1004756702102512,0.8079825924149191,oracle_exact_clipped,5,41.62022637820154,521.3120469608257,2253.5552907335687,5,1.0
gamma_design,0.95,1.35,1000,0.05,0.1,misspecified_affine,0,linear_oracle_raw_fqe,5890611763316.973,147993759588.04187,2823111237294.46,95330723335.41672,2417144.631501989,-11.831586406340458,2417156.463088395,2417156.463088395,29212998321834.637,34406395788361.32,332453404403.6331,2500798983529.077,121149190331.96516,6022023700165.989,174702270595.3989,584538339614.5515,282233285581.1708,1.0,9.192559917979967,175.33680687423208,2.787851510157615e-08,0.0003079057851673876,33.0185938923274,12.265371633817427,0.01226537163381743,0.0,0.0,nan,0.0,1.0,0.0,0.0,308.187669850508,1.0,overlap_collapse,0.95,0.95,discounted,matched_iid,linear,oracle_raw,0.0,0.0,0.11464054111603592,0.20861734510070296,oracle_exact,5,2417156.463088395,23370352954784.65,29212998321834.637,5,1.0
gamma_design,0.95,1.35,1000,0.05,0.1,misspecified_affine,0,linear_standard_fqe,12624.664113149332,13.21629682959348,10065.654485562427,23.794679966010797,84.55561223689503,-11.831586406340458,96.38719864323551,96.38719864323551,9594.816132421449,9624.366299873036,11.75100838693399,11247.032160192735,21.557947704870692,12637.566702534765,14.86966995255458,14.565452571520865,28.766582997234686,1.0,0.0,1.0,1.0,1.0,1.0,1000.0,1.0,0.0,0.0,nan,17.004535837406998,nan,1.9392376408801444,0.9877346283661825,1904.7762639466862,0.0,stable,0.95,0.95,discounted,matched_iid,linear,standard,nan,0.0,1.7194387894546659,1.2684594832863167,uniform,5,96.38719864323551,304.3240701309092,9594.816132421449,0,0.0
gamma_design,0.95,1.35,1000,0.05,0.1,misspecified_affine,0,neural_estimated_clipped_fqe,12.842370153056411,0.7078747185895256,1286.3066004963878,26.631475986647175,0.7791998729928723,-11.831586406340458,12.610786279333329,12.610786279333329,160.6981838597759,197.13286491845116,2.4527954402256764,412.37704080799585,10.036952125810616,12.43258115536018,0.7957809356930621,277.45061473495593,4.704435792442742,1.0,1.2247448706346433,7.28055396248857,1.9925853617381768,3.9638888867779007,7.278440716776493,400.00000029666086,0.40000000029666083,0.01,0.4516998652135953,17.154543760617926,16.766914286466957,0.4242346799503649,1.7022659407982212,0.8823737477167224,1125.2553588972073,0.0,stable,0.95,0.95,discounted,matched_iid,neural,linear_clipped,0.5186018144590993,-0.014492087422698585,1.1018578406146473,0.7911727495655223,linear_reduced_moment,2,12.610786279333329,1.666253276754132,160.6981838597759,0,0.0
gamma_design,0.95,1.35,1000,0.05,0.1,misspecified_affine,0,neural_neural_weighted_clipped_fqe,11.213489455779357,0.6560877606434297,1297.087108699044,27.137814621618652,-0.01904135289263688,-11.831586406340458,11.81254505344782,11.81254505344782,139.5439921910293,176.76100337794685,2.349911351499615,416.5850380101548,10.387027803576993,10.72553987012872,0.7298616109582277,273.9075220557453,4.747698747555248,1.0,1.224744870672792,6.1933255195029275,2.385320106525234,3.7967091694300974,6.19207201817204,400.0000002817099,0.4000000002817099,0.01,0.2996930777793751,2.9515211728913697,16.466903080933378,0.3179698026984294,1.7781194294785267,0.9106688555746929,905.4180510386262,0.0,stable,0.95,0.95,discounted,matched_iid,neural,neural_clipped,0.33497250333911466,-0.8044046271556637,0.7880156131012099,0.6902795528222496,neural_positive_rkhs_moment,2,11.81254505344782,0.007771551294699285,139.5439921910293,0,0.0
gamma_design,0.95,1.35,1000,0.05,0.1,misspecified_affine,0,neural_oracle_clipped_fqe,14.288160396343226,0.762242168175731,1283.0408565188463,26.581244059827505,1.40359858554113,-11.831586406340458,13.235184991881589,13.235184991881589,176.51663656956714,214.8773721948668,2.6142692899922624,431.3485737582475,10.356484443516642,13.798832842146867,0.8568188380822509,259.65723451200563,4.929994269654992,1.0,2.3963093319391873,21.269553604995142,0.6500000121039735,0.6501059741205748,21.234655114333552,148.43245475026976,0.14843245475026978,0.01,0.65,17.07201088906975,16.76249240647475,0.9083101116092258,1.258440810834614,0.5458892152371273,1163.561286518876,1.0,overlap_collapse,0.95,0.95,discounted,matched_iid,neural,oracle_clipped,0.0,0.0,1.1088192039044005,0.8078861400558722,oracle_exact_clipped,2,13.235184991881589,1.3465148002394975,176.51663656956714,2,1.0
gamma_design,0.95,1.35,1000,0.05,0.1,misspecified_affine,0,neural_standard_fqe,14.346952284233156,0.7641591674861443,1283.0404581325001,26.581067372891734,1.4194454604816897,-11.831586406340458,13.251031866822148,13.251031866822148,177.06226988362704,215.4836851835072,2.6196145088941463,431.97607724601886,10.36589434154817,13.861896349533568,0.8592012519391452,259.4433137337237,4.939490621772119,1.0,0.0,1.0,1.0,1.0,1.0,1000.0,1.0,0.0,0.0,nan,17.191441889733227,nan,1.9338851069605463,0.985226567807987,1876.3159200766718,0.0,stable,0.95,0.95,discounted,matched_iid,neural,standard,nan,0.0,1.7327129005815267,1.2678182488203515,uniform,2,13.251031866822148,1.4724243480909898,177.06226988362704,0,0.0
gamma_design,0.95,1.35,4000,0.05,0.1,misspecified_affine,0,linear_estimated_clipped_fqe,1735.4598742471276,3.3725255120559,1725.3781708923366,14.940777509506722,29.41433626924988,-11.831586406340458,41.245922675590336,41.245922675590336,1884.4889235982114,1909.0477310824722,5.373789999499946,1994.9435397298262,12.227981445678646,1731.4995964641062,3.7271030325661174,20.416085290361092,6.421225906653822,1.0,1.2247448705982116,7.414014615932753,2.0370738790619547,3.662560429512491,7.413418449116196,1600.0000012437572,0.4000000003109393,0.01,0.4557293475046754,18.011727879997306,16.762904253092803,0.339977086829166,1.7360202597752004,0.9217069885196472,1255.7565447705945,0.0,stable,0.95,0.95,discounted,matched_iid,linear,linear_clipped,0.4413964068453913,-0.010637998103497682,1.1269354949568255,0.8084086172811243,linear_reduced_moment,5,41.245922675590336,183.26278623743434,1884.4889235982114,0,0.0
gamma_design,0.95,1.35,4000,0.05,0.1,misspecified_affine,0,linear_neural_weighted_clipped_fqe,1382.780182764789,2.5451582509511677,1219.8576339655572,11.069184507337976,16.520905165303656,-11.831586406340458,28.352491571644112,28.352491571644112,826.2219231988071,829.5194401789129,1.4900049411314917,1287.5513607625833,6.8271753533324695,1384.4720144943287,2.8700086338825264,22.684613821665433,3.1503926175840005,1.0,1.2247448708086488,7.002736701942221,2.1964088112415423,3.749016097663356,7.002495221341009,1600.0000009138598,0.400000000228465,0.01,0.4582339500263334,2.6591330124940695,16.70610665323776,0.32751580053092333,1.7507848362505491,0.9226869662308672,1053.8956542066596,0.0,stable,0.95,0.95,discounted,matched_iid,linear,neural_clipped,0.33605330950877654,-0.821056135898966,0.8959203026589222,0.7177694057911653,neural_positive_rkhs_moment,5,28.352491571644112,22.358144878656468,826.2219231988071,0,0.0
gamma_design,0.95,1.35,4000,0.05,0.1,misspecified_affine,0,linear_oracle_clipped_fqe,1454.0512515688765,2.301944101151384,1480.419719903968,14.107050027688336,26.076969372707982,-11.831586406340458,37.908555779048434,37.908555779048434,1524.427775760689,1539.6683431289425,3.982494366214124,1663.2124314089447,10.648810464674018,1454.850388837446,2.592655145502211,20.25770819782981,4.809530289706837,1.0,2.468459686824299,21.647066394955406,0.650000014065619,0.6501327856266641,21.6443831779333,564.8891386289963,0.14122228465724904,0.01,0.65,15.517045319513084,16.752555794949963,0.7206027259507057,1.2633529188853185,0.6918863320381039,1232.7715071182224,1.0,overlap_collapse,0.95,0.95,discounted,matched_iid,linear,oracle_clipped,0.0,0.0,1.1193568505311795,0.814573667698353,oracle_exact_clipped,5,37.908555779048434,87.36917450746225,1524.427775760689,5,1.0
gamma_design,0.95,1.35,4000,0.05,0.1,misspecified_affine,0,linear_oracle_raw_fqe,11.859338441470516,0.6609101681133626,1492.5518170417283,30.17675053880787,0.40536937031097275,-11.831586406340458,12.236955776651431,12.236955776651431,151.77515550070106,189.02570333181774,2.435253209838028,505.73581642359295,11.936392993012301,11.093686062538088,0.7262853400215044,287.5594982470242,4.39011528885168,1.0,11.481202213629054,468.03267520788495,2.155548029317222e-08,0.00019566088730816814,33.03001747703426,37.77076040267634,0.009442690100669084,0.0,0.0,nan,0.0,1.0,0.0,0.0,229.94063689826663,1.0,overlap_collapse,0.95,0.95,discounted,matched_iid,linear,oracle_raw,0.0,0.0,0.11342762613295179,0.2007029971009958,oracle_exact,5,12.236955776651431,2.032068820978238,151.77515550070106,5,1.0
gamma_design,0.95,1.35,4000,0.05,0.1,misspecified_affine,0,linear_standard_fqe,13627.138207846554,10.33769154113195,11110.200090508795,21.449841340038567,93.18646007275159,-11.831586406340458,105.01804647909205,105.01804647909205,11040.415333734223,11045.095377528367,6.016841407868776,12453.278312903345,15.966617825053845,13631.794399366341,11.724821856998386,14.614139318082078,29.627316530785443,1.0,0.0,1.0,1.0,1.0,1.0,4000.0,1.0,0.0,0.0,nan,17.1812508974355,nan,1.9387145806840351,0.990557309899331,1985.195059215351,0.0,stable,0.95,0.95,discounted,matched_iid,linear,standard,nan,0.0,1.7488309397912523,1.2777597881298393,uniform,5,105.01804647909205,11.625247449486722,11040.415333734223,0,0.0
gamma_design,0.95,1.35,4000,0.05,0.1,misspecified_affine,0,neural_estimated_clipped_fqe,9.853409695884418,0.5835124415586159,357.78421452797556,7.9863225565534535,-0.6816326317396941,-11.831586406340458,11.149953774600764,11.149953774600764,124.39544531822898,156.70221302041148,2.07439875098776,286.52140547171786,7.153857908142032,9.410397313205486,0.6501468893999275,29.48711218787085,3.9279592431692807,1.0,1.2247448706226969,7.433841928528134,1.9886537301241276,3.734682479366431,7.433458909087167,1600.0000012053724,0.4000000003013431,0.01,0.4675532864639536,18.18712371783898,16.922833047177946,0.23352210605173046,1.729363463904257,0.9654147172067021,1261.175100705611,0.0,stable,0.95,0.95,discounted,matched_iid,neural,linear_clipped,0.4326749342952526,-0.011904635146961218,1.1330303858680693,0.8074547522537711,linear_reduced_moment,2,11.149953774600764,0.07397614249516878,124.39544531822898,0,0.0
gamma_design,0.95,1.35,4000,0.05,0.1,misspecified_affine,0,neural_neural_weighted_clipped_fqe,10.669006660548714,0.6236802249978205,386.8479830505048,8.962215812621658,-0.26828177285121385,-11.831586406340458,11.563304633489246,11.563304633489246,133.76774176753065,168.19955806392244,2.2192671264455788,284.06335972731165,7.232163302923356,10.155463473049382,0.6939736234364375,20.990818965096572,4.081234189413743,1.0,1.224744870372409,6.3478327053101316,2.4780883220987477,3.736712230503186,6.3475973268517585,1600.0000015977412,0.4000000003994353,0.01,0.3179916442139074,1.1272626583790388,16.72812171491173,0.18069541476403078,1.7772087375262426,0.9740566803103899,940.2335881490912,0.0,stable,0.95,0.95,discounted,matched_iid,neural,neural_clipped,0.32904456490219697,-0.9221901876686245,0.7759361702443555,0.6807716972750264,neural_positive_rkhs_moment,2,11.563304633489246,0.05772772065679284,133.76774176753065,0,0.0
gamma_design,0.95,1.35,4000,0.05,0.1,misspecified_affine,0,neural_oracle_clipped_fqe,10.433775784208127,0.6214099317678305,382.5858432896901,8.491500395559637,-0.3192710743491795,-11.831586406340458,11.512315331991278,11.512315331991278,132.54061285619883,166.99188925191265,2.218151584174052,287.48677080628306,7.076134017454741,9.94041337042886,0.6907158141351983,19.230564943044367,4.227585721019601,0.9999999999999999,2.416595342928561,21.286389974604138,0.6500000140339193,0.6502010462352219,21.283595233140876,585.6530636304669,0.14641326590761672,0.01,0.65,14.892230424944394,16.907733099625965,0.4971829933882446,1.2641771186418964,0.8659730300464701,1210.5870798248711,1.0,overlap_collapse,0.95,0.95,discounted,matched_iid,neural,oracle_clipped,0.0,0.0,1.1197367527286226,0.8140030276115616,oracle_exact_clipped,2,11.512315331991278,0.007208552997389558,132.54061285619883,2,1.0
gamma_design,0.95,1.35,4000,0.05,0.1,misspecified_affine,0,neural_standard_fqe,10.59854519370219,0.6243106763224879,385.0293440552691,8.48895885640173,-0.25703612744866056,-11.831586406340458,11.574550278891799,11.574550278891799,133.97828187794704,168.34506588987682,2.221056821156367,273.6255385758181,6.767627450316068,10.098969828000186,0.6943049403095402,22.490770726511876,4.210435500680452,1.0,0.0,1.0,1.0,1.0,1.0,4000.0,1.0,0.0,0.0,nan,17.33565666471695,nan,1.9368420899607246,0.9958672422415251,1971.198355120788,0.0,stable,0.95,0.95,discounted,matched_iid,neural,standard,nan,0.0,1.7494836822036017,1.2766129539535913,uniform,2,11.574550278891799,0.008067719352858492,133.97828187794704,0,0.0
gamma_design,0.95,0.0,1000,0.05,0.1,misspecified_affine,0,linear_estimated_clipped_fqe,0.7717500232981599,0.020245296388636973,0.7616671501010545,0.0197825657339055,-13.004611780222112,-11.831586406340458,-1.1730253738816532,1.1730253738816532,1.5874415956538985,7.938863492379404,0.16949279306672388,0.7076296217795933,0.022279192313043105,0.7028970130859675,0.022560425766500115,0.1630864159432185,0.1654252835344805,1.0,0.16125846480064815,1.3842138801361674,1.168076799536028,1.22202801022313,1.3841852077529833,973.9983201789944,0.9739983201789943,0.01,0.0,1.3832351139655883,0.2661262546251374,nan,0.12032166715680363,0.02679074403349444,176.3529322190671,0.0,stable,0.95,0.99,discounted,matched_iid,linear,linear_clipped,0.010013338003257894,-0.00010182963433242875,0.011936560357674403,0.007505846671287316,linear_reduced_moment,5,-1.1730253738816532,0.21145306788370619,1.5874415956538985,0,0.0
gamma_design,0.95,0.0,1000,0.05,0.1,misspecified_affine,0,linear_neural_weighted_clipped_fqe,0.7761858497618441,0.023205207263195186,0.7721828360401943,0.02388687609164688,-12.92482164324203,-11.831586406340458,-1.0932352369015699,1.1085757946677066,2.123839967878879,9.015365754945599,0.1930218647488727,0.7249232534455862,0.027286454391537547,0.7100349724346484,0.02646024408160789,0.17092434295567904,0.17088319578630973,1.0,0.04482418311728046,1.1248277952399213,1.043589358794712,1.0640084463336708,1.1247667242255608,997.6843871703325,0.9976843871703324,0.01,0.0,1.113536541700363,0.04944664779387399,nan,0.02936481604899031,0.0023232949853441973,174.87488572760552,0.0,stable,0.95,0.99,discounted,matched_iid,linear,neural_clipped,0.041532826325218,-0.009113572132587433,0.008449468451943993,0.00608702714496176,neural_positive_rkhs_moment,5,-1.0932352369015699,0.9286766846756477,2.123839967878879,0,0.0
gamma_design,0.95,0.0,1000,0.05,0.1,misspecified_affine,0,linear_oracle_clipped_fqe,0.8115858713577803,0.02230972261253798,0.8029571876110484,0.021990540077459667,-13.14342800366019,-11.831586406340458,-1.311841597319733,1.311841597319733,2.1059758783479174,8.574863682148997,0.17107565959458743,0.7537100102075837,0.024889349923951344,0.7369966203862162,0.025121549539465306,0.16294084785845633,0.1673791510086127,1.0,0.0,1.0,1.0,1.0,1.0,1000.0,1.0,0.0,0.0,1.0,0.0,1.0,0.0,0.0,173.32036257217382,0.0,stable,0.95,0.99,discounted,matched_iid,linear,oracle_clipped,0.0,0.0,0.006868116083704569,0.0051233839599560075,oracle_exact_clipped,5,-1.311841597319733,0.38504750188952935,2.1059758783479174,0,0.0
gamma_design,0.95,0.0,1000,0.05,0.1,misspecified_affine,0,linear_oracle_raw_fqe,0.8115858713577803,0.02230972261253798,0.8029571876110484,0.021990540077459667,-13.14342800366019,-11.831586406340458,-1.311841597319733,1.311841597319733,2.1059758783479174,8.574863682148997,0.17107565959458743,0.7537100102075837,0.024889349923951344,0.7369966203862162,0.025121549539465306,0.16294084785845633,0.1673791510086127,1.0,0.0,1.0,1.0,1.0,1.0,1000.0,1.0,0.0,0.0,nan,0.0,1.0,0.0,0.0,173.32036257217382,0.0,stable,0.95,0.99,discounted,matched_iid,linear,oracle_raw,0.0,0.0,0.006868116083704569,0.0051233839599560075,oracle_exact,5,-1.311841597319733,0.38504750188952935,2.1059758783479174,0,0.0
gamma_design,0.95,0.0,1000,0.05,0.1,misspecified_affine,0,linear_standard_fqe,0.8115858713577803,0.02230972261253798,0.8029571876110484,0.021990540077459667,-13.14342800366019,-11.831586406340458,-1.311841597319733,1.311841597319733,2.1059758783479174,8.574863682148997,0.17107565959458743,0.7537100102075837,0.024889349923951344,0.7369966203862162,0.025121549539465306,0.16294084785845633,0.1673791510086127,1.0,0.0,1.0,1.0,1.0,1.0,1000.0,1.0,0.0,0.0,nan,0.0,1.0,0.0,0.0,173.32036257217382,0.0,stable,0.95,0.99,discounted,matched_iid,linear,standard,nan,0.0,0.006868116083704569,0.0051233839599560075,uniform,5,-1.311841597319733,0.38504750188952935,2.1059758783479174,0,0.0
gamma_design,0.95,0.0,1000,0.05,0.1,misspecified_affine,0,neural_estimated_clipped_fqe,0.5713661939089383,0.0782410209513272,0.545805139414713,0.06751867527632063,-7.461755496763232,-11.831586406340458,4.369830909577226,4.369830909577226,19.09569770436216,33.043260212765716,0.6953419426356147,0.5621214924244777,0.0704876949618392,0.6186987516090936,0.09524208504189591,0.13408161126691404,0.15493500803820603,1.0,0.15529213523541816,1.359069764361188,1.1786270639995893,1.24638044559114,1.3590536186836477,976.4504067898197,0.9764504067898196,0.01,0.0,1.3576482332170565,0.38414983657715934,nan,0.1152986278738576,0.024117749780744727,175.81851176728043,0.0,stable,0.95,0.99,discounted,matched_iid,neural,linear_clipped,0.012493033731820823,-0.00013268288788803595,0.011387547496981273,0.008758622825464463,linear_reduced_moment,2,4.369830909577226,0.0002755260656352082,19.09569770436216,0,0.0
gamma_design,0.95,0.0,1000,0.05,0.1,misspecified_affine,0,neural_neural_weighted_clipped_fqe,0.5622300596495557,0.07787066009837348,0.5351195669453437,0.06700591089984514,-7.481426811736039,-11.831586406340458,4.350159594604419,4.350159594604419,18.925090786817485,32.80559769869624,0.6926339047584841,0.5523384138093539,0.07007349913319415,0.6097530115346304,0.09493235479660576,0.13675097908417141,0.1579384504812164,1.0,0.04950217994349569,1.152572881747028,1.0596017198502612,1.080817605898273,1.1524480723537067,997.3187911704699,0.99731879117047,0.01,0.0,1.13456416785717,0.04978738289403817,nan,0.03748257328070136,0.0026907661067946936,171.40103005469047,0.0,stable,0.95,0.99,discounted,matched_iid,neural,neural_clipped,0.04320662115099515,-0.014415816128253933,0.00854783573293533,0.00628637013324862,neural_positive_rkhs_moment,2,4.350159594604419,0.0012022882886054257,18.925090786817485,0,0.0
gamma_design,0.95,0.0,1000,0.05,0.1,misspecified_affine,0,neural_oracle_clipped_fqe,0.5662053174893609,0.07805342435973187,0.5390011707113012,0.06719314396307102,-7.466113869111684,-11.831586406340458,4.365472537228774,4.365472537228774,19.058852035562392,32.93805085871023,0.6940123017496284,0.5566256104409487,0.07030082484164163,0.6138142760886725,0.09517799466421292,0.13706904860879518,0.15822487696419496,1.0,0.0,1.0,1.0,1.0,1.0,1000.0,1.0,0.0,0.0,1.0,0.0,1.0,0.0,0.0,172.067571554422,0.0,stable,0.95,0.99,discounted,matched_iid,neural,oracle_clipped,0.0,0.0,0.006701864063021984,0.005672808000337313,oracle_exact_clipped,2,4.365472537228774,0.0015015622637632301,19.058852035562392,0,0.0
gamma_design,0.95,0.0,1000,0.05,0.1,misspecified_affine,0,neural_standard_fqe,0.5662053174893609,0.07805342435973187,0.5390011707113012,0.06719314396307102,-7.466113869111684,-11.831586406340458,4.365472537228774,4.365472537228774,19.058852035562392,32.93805085871023,0.6940123017496284,0.5566256104409487,0.07030082484164163,0.6138142760886725,0.09517799466421292,0.13706904860879518,0.15822487696419496,1.0,0.0,1.0,1.0,1.0,1.0,1000.0,1.0,0.0,0.0,nan,0.0,1.0,0.0,0.0,172.067571554422,0.0,stable,0.95,0.99,discounted,matched_iid,neural,standard,nan,0.0,0.006701864063021984,0.005672808000337313,uniform,2,4.365472537228774,0.0015015622637632301,19.058852035562392,0,0.0
gamma_design,0.95,0.0,4000,0.05,0.1,misspecified_affine,0,linear_estimated_clipped_fqe,0.8515948021156143,0.019858199035113665,0.8369669512693136,0.018795316238361493,-13.020593974345184,-11.831586406340458,-1.1890075680047256,1.1890075680047256,1.4350665289923048,7.526489968200653,0.1608785335616331,0.7836671255753176,0.020613758378338433,0.7824146054972397,0.02182518599682234,0.16081519059941382,0.16232304213174442,1.0,0.07218895378682191,1.1855253456280677,1.0824146228022216,1.1141984380121865,1.1855065802106466,3978.785218087006,0.9946963045217515,0.01,0.0,1.1842481322147094,0.07910281866679439,nan,0.05296320713613787,0.005334172308864364,176.1391005832187,0.0,stable,0.95,0.99,discounted,matched_iid,linear,linear_clipped,0.0036621221211860394,-3.8392116583674254e-05,0.00465239079551833,0.0038927690983924478,linear_reduced_moment,5,-1.1890075680047256,0.021327532219792396,1.4350665289923048,0,0.0
gamma_design,0.95,0.0,4000,0.05,0.1,misspecified_affine,0,linear_neural_weighted_clipped_fqe,0.7807322210181317,0.02143693454881635,0.7692264464469238,0.02060325072016572,-12.664556407577582,-11.831586406340458,-0.8329700012371234,1.0250129827035899,1.212354785840937,8.060575149037906,0.19438661448425337,0.7227053825769587,0.024391945988428098,0.7202620671585187,0.023301322140458543,0.1715771026279828,0.16986441674279604,1.0,0.04972603663147196,1.1237784384352303,1.0369851267760717,1.0601495764258853,1.123768282077203,3989.553374375355,0.9973883435938389,0.01,0.0,1.1224785480499264,0.0606407388731679,nan,0.027164609622507375,0.0026199987076744305,177.28437083301745,0.0,stable,0.95,0.99,discounted,matched_iid,linear,neural_clipped,0.019285435360680038,-0.0010617964845150763,0.008411201583680201,0.007637904820796446,neural_positive_rkhs_moment,5,-0.8329700012371234,0.5185157628799636,1.212354785840937,0,0.0
gamma_design,0.95,0.0,4000,0.05,0.1,misspecified_affine,0,linear_oracle_clipped_fqe,0.8384490509312588,0.020421273084747435,0.821041196076221,0.018716538988731997,-13.222294623437284,-11.831586406340458,-1.3907082170968248,1.3907082170968248,2.109540656256885,7.967515857848035,0.1525277515856466,0.7645317001106063,0.02103253918529429,0.7634487651024291,0.022117431666151523,0.161239692530805,0.1639425021057574,1.0,0.0,1.0,1.0,1.0,1.0,4000.0,1.0,0.0,0.0,1.0,0.0,1.0,0.0,0.0,175.20927240975948,0.0,stable,0.95,0.99,discounted,matched_iid,linear,oracle_clipped,0.0,0.0,0.004794026303534303,0.0030622902601919336,oracle_exact_clipped,5,-1.3907082170968248,0.1754713111562555,2.109540656256885,0,0.0
gamma_design,0.95,0.0,4000,0.05,0.1,misspecified_affine,0,linear_oracle_raw_fqe,0.8384490509312588,0.020421273084747435,0.821041196076221,0.018716538988731997,-13.222294623437284,-11.831586406340458,-1.3907082170968248,1.3907082170968248,2.109540656256885,7.967515857848035,0.1525277515856466,0.7645317001106063,0.02103253918529429,0.7634487651024291,0.022117431666151523,0.161239692530805,0.1639425021057574,1.0,0.0,1.0,1.0,1.0,1.0,4000.0,1.0,0.0,0.0,nan,0.0,1.0,0.0,0.0,175.20927240975948,0.0,stable,0.95,0.99,discounted,matched_iid,linear,oracle_raw,0.0,0.0,0.004794026303534303,0.0030622902601919336,oracle_exact,5,-1.3907082170968248,0.1754713111562555,2.109540656256885,0,0.0
gamma_design,0.95,0.0,4000,0.05,0.1,misspecified_affine,0,linear_standard_fqe,0.8384490509312588,0.020421273084747435,0.821041196076221,0.018716538988731997,-13.222294623437284,-11.831586406340458,-1.3907082170968248,1.3907082170968248,2.109540656256885,7.967515857848035,0.1525277515856466,0.7645317001106063,0.02103253918529429,0.7634487651024291,0.022117431666151523,0.161239692530805,0.1639425021057574,1.0,0.0,1.0,1.0,1.0,1.0,4000.0,1.0,0.0,0.0,nan,0.0,1.0,0.0,0.0,175.20927240975948,0.0,stable,0.95,0.99,discounted,matched_iid,linear,standard,nan,0.0,0.004794026303534303,0.0030622902601919336,uniform,5,-1.3907082170968248,0.1754713111562555,2.109540656256885,0,0.0
gamma_design,0.95,0.0,4000,0.05,0.1,misspecified_affine,0,neural_estimated_clipped_fqe,0.43223870724366,0.04924514761901952,0.42702007101127026,0.04490400912561225,-8.754403601526008,-11.831586406340458,3.077182804814451,3.077182804814451,9.469184983531594,18.7067256235932,0.4395515077274278,0.42788211683236943,0.04378322471270015,0.4500652600342959,0.057580677952742666,0.06434466840919337,0.07068580502815655,1.0,0.06703729809439721,1.202201738463086,1.0722989667056955,1.1068337594661086,1.202186830493777,3981.222483066938,0.9953056207667345,0.01,0.0,1.2008351042071266,0.06751407724712744,nan,0.05001009881788315,0.004720574140493058,175.4853663117521,0.0,stable,0.95,0.99,discounted,matched_iid,neural,linear_clipped,0.003291735805426195,-4.782418254833942e-05,0.003731629963236215,0.0029565082638043625,linear_reduced_moment,2,3.077182804814451,0.00013096928586172143,9.469184983531594,0,0.0
gamma_design,0.95,0.0,4000,0.05,0.1,misspecified_affine,0,neural_neural_weighted_clipped_fqe,0.43918900120406346,0.050411444712890954,0.43408760743010505,0.04602722227341398,-8.690977021807633,-11.831586406340458,3.1406093845328247,3.1406093845328247,9.872785286538681,19.282921340846205,0.4473493668791883,0.43492254451401186,0.045024337696122824,0.45705657673790573,0.05901148004324031,0.06811086484915889,0.07391677909998048,1.0,0.0521240838993972,1.1700242680653479,1.0521778069252767,1.076909697883977,1.1700168182986195,3988.3993638793218,0.9970998409698304,0.01,0.0,1.1694457018375395,0.05264992538898021,nan,0.036191806103555546,0.002910694179302629,174.0812852490943,0.0,stable,0.95,0.99,discounted,matched_iid,neural,neural_clipped,0.011320427338696919,-4.412294924255322e-05,0.008997687031377072,0.007313998693344299,neural_positive_rkhs_moment,2,3.1406093845328247,0.009357980323033198,9.872785286538681,0,0.0
gamma_design,0.95,0.0,4000,0.05,0.1,misspecified_affine,0,neural_oracle_clipped_fqe,0.4378359657912545,0.050140578771652,0.43311858815586407,0.04582973931034234,-8.722310563400605,-11.831586406340458,3.1092758429398533,3.1092758429398533,9.67789436970345,19.112035826756866,0.445007198100022,0.4335580114580724,0.0447799204043844,0.45547000169287233,0.05863627581057145,0.06748077347959042,0.0730895702794786,1.0,0.0,1.0,1.0,1.0,1.0,4000.0,1.0,0.0,0.0,1.0,0.0,1.0,0.0,0.0,175.05618168186356,0.0,stable,0.95,0.99,discounted,matched_iid,neural,oracle_clipped,0.0,0.0,0.0034803054876729658,0.0016296336678615886,oracle_exact_clipped,2,3.1092758429398533,0.010298102214115305,9.67789436970345,0,0.0
gamma_design,0.95,0.0,4000,0.05,0.1,misspecified_affine,0,neural_standard_fqe,0.4378359657912545,0.050140578771652,0.43311858815586407,0.04582973931034234,-8.722310563400605,-11.831586406340458,3.1092758429398533,3.1092758429398533,9.67789436970345,19.112035826756866,0.445007198100022,0.4335580114580724,0.0447799204043844,0.45547000169287233,0.05863627581057145,0.06748077347959042,0.0730895702794786,1.0,0.0,1.0,1.0,1.0,1.0,4000.0,1.0,0.0,0.0,nan,0.0,1.0,0.0,0.0,175.05618168186356,0.0,stable,0.95,0.99,discounted,matched_iid,neural,standard,nan,0.0,0.0034803054876729658,0.0016296336678615886,uniform,2,3.1092758429398533,0.010298102214115305,9.67789436970345,0,0.0
gamma_design,0.95,1.0,1000,0.05,0.1,misspecified_affine,0,linear_estimated_clipped_fqe,4.435828560275502,0.16557896498106733,6.984866301892867,0.23374166173668903,-17.80691167228743,-11.831586406340458,-5.975325265946973,5.975325265946973,62.96802254081771,73.41406547378446,0.5318566193720244,4.750560290397579,0.17949327578868504,4.219823769130558,0.18577906331282368,0.9844007338982754,0.29398686256629925,1.0,0.7210633354233538,2.112386460496107,1.8700063846199235,1.9774824323155706,2.1120055202434163,658.1851377601677,0.6581851377601675,0.01,0.0,2.4115154326630313,5.397819652475108,0.5208982058068619,0.6552022232878695,0.547315985821939,208.16774768904642,0.0,stable,0.95,0.99,discounted,matched_iid,linear,linear_clipped,0.09091948825662027,-0.004506347800989174,0.03576154282613671,0.03445789060190248,linear_reduced_moment,5,-5.975325265946973,27.263510506953445,62.96802254081771,0,0.0
gamma_design,0.95,1.0,1000,0.05,0.1,misspecified_affine,0,linear_neural_weighted_clipped_fqe,1.8793140791244105,0.23322291559626945,25.681688184915078,1.7024598974093177,-1.1862423702216593,-11.831586406340458,10.645344036118798,10.645344036118798,113.65847938230802,147.81787900499467,2.0941732075512034,10.20710301490391,0.725887362669761,2.130357095207464,0.29956308741970233,5.3776855257936536,0.7937706445546532,1.0,0.6609359910281707,2.7411027856578865,1.8853553522399902,2.177349552842515,2.7406124872719326,696.5194592722071,0.6965194592722072,0.01,0.0,2.4982884726524346,6.256608942783428,0.2141777147177379,0.9476021594084928,0.7326953223747046,251.37803847650872,0.0,stable,0.95,0.99,discounted,matched_iid,linear,neural_clipped,0.18398198265233043,-0.0841919553102823,0.04581688099024098,0.06686274299474392,neural_positive_rkhs_moment,5,10.645344036118798,0.33512973497794335,113.65847938230802,0,0.0
gamma_design,0.95,1.0,1000,0.05,0.1,misspecified_affine,0,linear_oracle_clipped_fqe,0.9188881699149251,0.0383672210384076,4.716698043166329,0.37052541844536024,-11.046522527905557,-11.831586406340458,0.7850638784349006,0.7850638784349006,1.2529809416477389,13.202744819061701,0.3924747153059371,1.9189557974538687,0.15710661110746052,0.8590804500544783,0.044270827907820595,0.9008361585008291,0.28903716500243304,1.0,1.2247448709151687,6.335392199556674,2.486939218496638,3.2311702136797775,6.334143101679251,400.000000186718,0.40000000018671794,0.01,0.10760511151514948,5.97017018101965,6.891144351316717,0.8845332549276066,0.13721408277142003,0.1805615170341127,170.52334054668196,0.0,stable,0.95,0.99,discounted,matched_iid,linear,oracle_clipped,0.0,0.0,0.03492301738410196,0.03632474955880729,oracle_exact_clipped,5,0.7850638784349006,0.6366556484244903,1.2529809416477389,0,0.0
gamma_design,0.95,1.0,1000,0.05,0.1,misspecified_affine,0,linear_oracle_raw_fqe,2.0042937788505464,0.26105600821459746,27.308143133843295,1.7762961046331853,-0.23820001373295194,-11.831586406340458,11.593386392607506,11.593386392607506,134.45703302066153,169.61515571231806,2.261088347036272,11.384332149876935,0.7882342641162431,2.2761307966430784,0.3348174551064244,5.355106255153025,0.807706924908353,1.0000000000000002,1.717098355312126,27.03831680674744,2.5539267486885615,3.350555102297785,6.718355055773259,259.03166160700096,0.25903166160700103,0.0,0.0,nan,0.0,1.0,0.0,0.0,201.49412982351697,0.0,stable,0.95,0.99,discounted,matched_iid,linear,oracle_raw,0.0,0.0,0.04406180522899304,0.04363885996358692,oracle_exact,5,11.593386392607506,0.050424972364637465,134.45703302066153,0,0.0
gamma_design,0.95,1.0,1000,0.05,0.1,misspecified_affine,0,linear_standard_fqe,7.506285803026802,0.24538734779566118,6.889176652395291,0.1491570939831278,-21.748341054729394,-11.831586406340458,-9.916754648388936,9.916754648388936,103.24321187411496,116.23805426818508,0.834201741226982,6.738946458018772,0.2086915256204437,7.366222783242877,0.27897776772128047,0.7932303464879918,0.35507026183203827,1.0,0.0,1.0,1.0,1.0,1.0,1000.0,1.0,0.0,0.0,nan,8.160519862616924,nan,1.0704040115885556,0.7409683383929991,185.58217828101553,0.0,stable,0.95,0.99,discounted,matched_iid,linear,standard,nan,0.0,0.11353224937817188,0.10269652832061263,uniform,5,-9.916754648388936,4.901189117771358,103.24321187411496,0,0.0
gamma_design,0.95,1.0,1000,0.05,0.1,misspecified_affine,0,neural_estimated_clipped_fqe,1.170194657255963,0.17751166604669108,13.980096975391888,1.0018659243507047,-3.680202948832589,-11.831586406340458,8.151383457507869,8.151383457507869,67.33456545461608,95.42020654986133,1.557041628562491,8.112909610645103,0.5696460982290552,1.3864599771017456,0.2317436955752706,1.9634841399499734,0.9356898578593333,1.0,0.7260493386879807,2.091040618894623,1.859322494682754,1.9566578175493914,2.09022559551419,654.825886426514,0.654825886426514,0.01,0.0,2.36167669223388,5.380662792166023,0.47828546425425933,0.6273486633169565,0.6188894791727193,198.10698358834156,0.0,stable,0.95,0.99,discounted,matched_iid,neural,linear_clipped,0.09818926167582084,-0.0038335451819774824,0.03279947472225339,0.03525926875455558,linear_reduced_moment,2,8.151383457507869,0.8895131832831442,67.33456545461608,0,0.0
gamma_design,0.95,1.0,1000,0.05,0.1,misspecified_affine,0,neural_neural_weighted_clipped_fqe,2.006509384420937,0.2607166200193426,27.90037743254005,1.7807124779161738,-0.8774896380534877,-11.831586406340458,10.95409676828697,10.95409676828697,120.06605863242967,151.83776871862415,2.047846499471416,10.525855910283237,0.7080544918942395,2.2744175760083065,0.32827597446538503,6.196987203336319,0.8222572153527333,1.0,0.7016924600781775,2.9821771952102356,1.952309963674993,2.2913821765208677,2.981883630107176,670.8786528161215,0.6708786528161215,0.01,0.0,2.7115186262130733,6.199898925584565,0.18750390795046096,0.9472455860249417,0.7941050100536398,257.3870688889591,0.0,stable,0.95,0.99,discounted,matched_iid,neural,neural_clipped,0.1866037040979046,-0.0878628561236437,0.055067911500283374,0.07162848612772704,neural_positive_rkhs_moment,2,10.95409676828697,0.07382262343463585,120.06605863242967,0,0.0
gamma_design,0.95,1.0,1000,0.05,0.1,misspecified_affine,0,neural_oracle_clipped_fqe,1.1503570152418232,0.17062467322673985,12.400448739533921,0.9253099717506563,-3.711774321426356,-11.831586406340458,8.119812084914102,8.119812084914102,66.41768785235325,91.86661207469828,1.4701766279660973,6.8463648735767,0.4975562098254067,1.3485701787094049,0.22159146380467898,1.7538505143231058,0.7600835333026272,1.0,1.22474487071699,5.834558539819516,2.563447961058177,3.3946630303012224,5.834183308216895,400.00000026438784,0.4000000002643878,0.01,0.07071976484730838,5.157610249320199,6.6721374768015345,0.7581342564899063,0.11954042259420311,0.3500972658044633,186.58854225917372,0.0,stable,0.95,0.99,discounted,matched_iid,neural,oracle_clipped,0.0,0.0,0.038847972568491686,0.03896750779594997,oracle_exact_clipped,2,8.119812084914102,0.48633955803615714,66.41768785235325,0,0.0
gamma_design,0.95,1.0,1000,0.05,0.1,misspecified_affine,0,neural_standard_fqe,1.1074178552563467,0.16818788660352296,12.383600897830496,0.9328500757195366,-3.8572509884933,-11.831586406340458,7.974335417847158,7.974335417847158,63.6943728711445,89.15055721196747,1.4464918433788994,6.411979826494948,0.4791947208415309,1.2942075492551037,0.21633940444573915,1.9129027446550326,0.7545062742013374,1.0,0.0,1.0,1.0,1.0,1.0,1000.0,1.0,0.0,0.0,nan,8.143518042755385,nan,1.0648299744025946,0.7904865068990152,184.23082086004686,0.0,stable,0.95,0.99,discounted,matched_iid,neural,standard,nan,0.0,0.11357618969760411,0.10157422472710526,uniform,2,7.974335417847158,0.10434751481289822,63.6943728711445,0,0.0
gamma_design,0.95,1.0,4000,0.05,0.1,misspecified_affine,0,linear_estimated_clipped_fqe,5.2125542727487595,0.2127032701803057,7.629964373991788,0.1761791934319739,-20.833856562225243,-11.831586406340458,-9.002270155884785,9.002270155884785,88.26432934875571,97.48093834458186,0.6132047397383223,5.381766185590177,0.18029696644794233,5.022815493470472,0.24193901307079102,0.9847187397068259,0.3014435613925617,1.0,0.6901735427331857,2.057141431706211,1.8200755180605903,1.8961242886328757,2.0571300158475125,2712.5147539279815,0.6781286884819955,0.01,0.0,2.3498745663995715,5.445121099663185,0.40301616607305235,0.7133505329460192,0.67046713809548,202.38538274020806,0.0,stable,0.95,0.99,discounted,matched_iid,linear,linear_clipped,0.11084918010233254,-0.006073271244826017,0.03449263173898694,0.03511779883067265,linear_reduced_moment,5,-9.002270155884785,7.223461389221841,88.26432934875571,0,0.0
gamma_design,0.95,1.0,4000,0.05,0.1,misspecified_affine,0,linear_neural_weighted_clipped_fqe,1.947920710824907,0.24096528508911025,26.159187473062406,1.7297620744074542,-0.945085496815334,-11.831586406340458,10.886500909525124,10.886500909525124,118.60762544071181,153.37172077905947,2.1474287976463144,10.464421388993731,0.7417261839225856,2.1995819990027785,0.30878206486726156,5.4449626778713895,0.8038376050765805,1.0,0.6536484431188366,2.6479741384902624,1.8673289532589212,2.134517809766492,2.6478697221226226,2804.277949427031,0.7010694873567578,0.01,0.0,2.4269352273941016,6.375677042472224,0.17768598593469684,0.9607435472404084,0.7928629147506678,252.9448072209472,0.0,stable,0.95,0.99,discounted,matched_iid,linear,neural_clipped,0.17634146601776662,-0.08193384115587117,0.03987362116476577,0.06579138084574931,neural_positive_rkhs_moment,5,10.886500909525124,0.09172338762044904,118.60762544071181,0,0.0
gamma_design,0.95,1.0,4000,0.05,0.1,misspecified_affine,0,linear_oracle_clipped_fqe,0.9890835739734767,0.03629847199328149,4.196204781922701,0.31648153506841636,-11.938876078382268,-11.831586406340458,-0.10728967204180825,0.21526750695759525,0.059127361585203556,10.956910463906489,0.30948272817420175,1.65157159579452,0.13030250042812438,0.9204216551253477,0.04148462035059394,0.8450512845789951,0.2748183903775299,1.0,1.2247448710487725,6.489359050102989,2.4929549570676195,3.223399931742925,6.488612786157354,1600.0000005374245,0.40000000013435616,0.01,0.12155625500716269,6.005922416852163,7.212642287360017,0.7942980174769243,0.16197287448576742,0.3223738880747441,166.42289642026088,0.0,stable,0.95,0.99,discounted,matched_iid,linear,oracle_clipped,0.0,0.0,0.03278742523322602,0.03658716545297055,oracle_exact_clipped,5,-0.10728967204180825,0.04761628785836478,0.059127361585203556,0,0.0
gamma_design,0.95,1.0,4000,0.05,0.1,misspecified_affine,0,linear_oracle_raw_fqe,1.8751018241797035,0.24855506889636483,26.445444130395618,1.729520475820277,-0.5852958881012993,-11.831586406340458,11.246290518239158,11.246290518239158,126.5065469780495,160.5919116492619,2.1744333563502467,10.887262612344196,0.7593063567746982,2.1315828564493398,0.3188669024221361,5.251567412338361,0.7836582903147198,1.0,2.0696897569558113,66.37182484836084,2.5176164077384895,3.294594627215946,6.765051398209375,802.3379327218246,0.20058448318045613,0.0,0.0,nan,0.0,1.0,0.0,0.0,202.83140882570714,0.4,overlap_collapse,0.95,0.99,discounted,matched_iid,linear,oracle_raw,0.0,0.0,0.04205417221824845,0.041460244164790605,oracle_exact,5,11.246290518239158,0.027496557413501998,126.5065469780495,2,0.4
gamma_design,0.95,1.0,4000,0.05,0.1,misspecified_affine,0,linear_standard_fqe,9.883326083941194,0.32190042835538735,8.619984481488832,0.15970510107955296,-23.844837822527133,-11.831586406340458,-12.013251416186673,12.013251416186673,145.77573461825853,162.3900212527924,1.146165939293469,8.970042269743098,0.28208206569846295,9.772589723291517,0.36933349152303524,0.7852695746060205,0.43609067006945157,1.0,0.0,1.0,1.0,1.0,1.0,4000.0,1.0,0.0,0.0,nan,8.410633270963903,nan,1.0924255100746854,0.7994155168195438,196.4613086998773,0.0,stable,0.95,0.99,discounted,matched_iid,linear,standard,nan,0.0,0.12105804529234421,0.11457139399862722,uniform,5,-12.013251416186673,1.457525029747437,145.77573461825853,0,0.0
gamma_design,0.95,1.0,4000,0.05,0.1,misspecified_affine,0,neural_estimated_clipped_fqe,0.4644154914178343,0.0629396435086689,6.284247244928563,0.5518861254834461,-8.67725344696958,-11.831586406340458,3.1543329593708775,3.1543329593708775,13.914479979281385,29.03096357961497,0.6697912315208553,3.2600750250032675,0.25373570761775177,0.5607607291233118,0.0885247472428704,1.0198131077409511,0.41106475338723336,1.0,0.7525362667074911,2.225990835695198,1.9444916288793177,2.0290255079006982,2.2259721514326554,2555.2108844440863,0.6388027211110217,0.01,0.0,2.5863546861012185,5.646006030461679,0.4559709874740491,0.6615006765275677,0.6040951594653619,196.2619412789109,0.0,stable,0.95,0.99,discounted,matched_iid,neural,linear_clipped,0.13291620124927378,-0.008004635625887824,0.03771545557046489,0.03630275853701209,linear_reduced_moment,2,3.1543329593708775,3.964663560707946,13.914479979281385,0,0.0
gamma_design,0.95,1.0,4000,0.05,0.1,misspecified_affine,0,neural_neural_weighted_clipped_fqe,0.8666495967758917,0.1347807417282879,17.417694838450615,1.222383280641985,-4.995930609904617,-11.831586406340458,6.835655796435841,6.835655796435841,48.30521314360498,68.77540996156475,1.173188776353717,5.394542123856771,0.41330647050530556,0.9982229448654467,0.1685441715654444,4.483420298437638,0.5569979105914061,1.0,0.6998558838825946,2.8781749134837895,1.9545003584350045,2.2522027514766814,2.877956031782402,2686.8089647037555,0.6717022411759389,0.01,0.0,2.6409364724159192,6.240023082895382,0.19544494678607988,0.9520154490290813,0.766817962623765,255.31045540025835,0.0,stable,0.95,0.99,discounted,matched_iid,neural,neural_clipped,0.19696616712093934,-0.08130991917897001,0.045131317234148455,0.06879039766411071,neural_positive_rkhs_moment,2,6.835655796435841,1.5790229762580772,48.30521314360498,0,0.0
gamma_design,0.95,1.0,4000,0.05,0.1,misspecified_affine,0,neural_oracle_clipped_fqe,0.31835440939144577,0.04216129859287231,7.0388786378541575,0.5970130126076194,-9.402695125297981,-11.831586406340458,2.4288912810424774,2.4288912810424774,7.39247104353268,17.397509482563116,0.46374374884591063,1.560565041368639,0.15242901030631,0.369794848867552,0.06042576204920638,2.441777415183872,0.2163117163579848,1.0,1.2247448712581,6.495770937986326,2.453020969776057,3.206889105342074,6.495116307658975,1600.0000002092675,0.40000000005231684,0.01,0.11994607164524496,6.101412453981887,7.186459527874408,0.8578774249733886,0.14665465242351106,0.23024504338842355,170.08323520384664,0.0,stable,0.95,0.99,discounted,matched_iid,neural,oracle_clipped,0.0,0.0,0.03513445232907366,0.03621556309702963,oracle_exact_clipped,2,2.4288912810424774,1.4929581884085135,7.39247104353268,0,0.0
gamma_design,0.95,1.0,4000,0.05,0.1,misspecified_affine,0,neural_standard_fqe,0.39610093249327627,0.05140116562775252,6.5658621164782875,0.5639167464209635,-8.81632769727847,-11.831586406340458,3.015258709061987,3.015258709061987,12.489027234171886,22.76133702234522,0.5204662332821612,1.6273958874465335,0.15220184984116966,0.4613466926172866,0.07242332399164841,2.2429545917504186,0.22857523600308183,1.0,0.0,1.0,1.0,1.0,1.0,4000.0,1.0,0.0,0.0,nan,8.391559699507713,nan,1.084146722506179,0.768257591689348,197.49502237393892,0.0,stable,0.95,0.99,discounted,matched_iid,neural,standard,nan,0.0,0.12307775419354708,0.11481941509577326,uniform,2,3.015258709061987,3.397242151597726,12.489027234171886,0,0.0
gamma_design,0.95,1.1,1000,0.05,0.1,misspecified_affine,0,linear_estimated_clipped_fqe,7.651828503559943,0.30236793543656393,10.83027040954111,0.37407960641608023,-20.98102768382707,-11.831586406340458,-9.14944127748661,9.221483964283165,132.31704229386054,147.98043137762346,1.0276987926039365,7.772966496881442,0.32770639779317123,7.3626491858995475,0.3436110019832528,1.7022371289418312,0.40499570969628246,1.0,0.7459856270142606,2.195317990559096,1.9199426125679373,2.0114430743532727,2.1949910082116317,642.9398920771328,0.6429398920771326,0.01,0.0,2.5432204520861132,5.791333111777304,0.4496836991383148,0.7912276902618138,0.6722438197199109,214.98759939813317,0.0,stable,0.95,0.99,discounted,matched_iid,linear,linear_clipped,0.09079485911592387,-0.0046934818268292485,0.0390878655445411,0.040089405233194556,linear_reduced_moment,5,-9.14944127748661,48.604766603684745,132.31704229386054,0,0.0
gamma_design,0.95,1.1,1000,0.05,0.1,misspecified_affine,0,linear_neural_weighted_clipped_fqe,2.0938519506117226,0.22117036330580228,45.50456573970192,2.759454953905714,-1.6309094976569078,-11.831586406340458,10.200676908683551,10.200676908683551,104.52454559667106,138.26775552730774,2.0184274566326303,16.624061472902195,1.094739551577546,2.3335735773046267,0.28427678468435624,9.665160154491158,0.7872154342278616,1.0,0.7069972250993407,2.8690839980290677,1.9476734035430845,2.2677918249655953,2.8687005927679743,667.7374918014641,0.6677374918014641,0.01,0.0,2.4813348517417904,7.664758515332831,0.1811283484924739,1.062795595957307,0.8234057274991902,261.1380541599725,0.0,stable,0.95,0.99,discounted,matched_iid,linear,neural_clipped,0.19512687193934647,-0.13050937928655018,0.04871598207955079,0.06888474189720073,neural_positive_rkhs_moment,5,10.200676908683551,0.4707362013212431,104.52454559667106,0,0.0
gamma_design,0.95,1.1,1000,0.05,0.1,misspecified_affine,0,linear_oracle_clipped_fqe,1.359533158500964,0.0393813412935637,8.03687042637831,0.5804151397895344,-12.647531423329506,-11.831586406340458,-0.815945016989047,1.2331119639855472,1.9640902327558678,11.628163899860981,0.26279452666232395,3.397835928647164,0.2508663487135703,1.253013221077984,0.04306878131647113,1.489653934546602,0.24879415886291173,1.0,1.2247448709604363,6.488260826697345,2.6143424714359247,3.3398916162376286,6.485037427913103,400.0000001689767,0.40000000016897663,0.01,0.22033637654036284,6.651415190155551,8.622772915997583,0.7959050444664297,0.27939678698513787,0.35554480031895774,163.85336533571856,0.0,stable,0.95,0.99,discounted,matched_iid,linear,oracle_clipped,0.0,0.0,0.02987016282949038,0.03774158407352922,oracle_exact_clipped,5,-0.815945016989047,1.2983239620066116,1.9640902327558678,0,0.0
gamma_design,0.95,1.1,1000,0.05,0.1,misspecified_affine,0,linear_oracle_raw_fqe,2.0073797829706077,0.2612360162187317,48.85038577745367,2.8949213608345454,-0.23371031844757412,-11.831586406340458,11.597876087892882,11.597876087892882,134.58449118573859,169.74938419407582,2.2619657362850423,18.874693102313483,1.2063463862412367,2.2798799234243026,0.335205682352084,9.592315451227288,0.8084713128289105,1.0,2.252666186373624,47.07480059640694,2.8507066719103658,3.716814468106274,7.509388529540615,167.65171151549774,0.1676517115154977,0.0,0.0,nan,0.0,1.0,0.0,0.0,197.7737668960809,0.4,overlap_collapse,0.95,0.99,discounted,matched_iid,linear,oracle_raw,0.0,0.0,0.042704790544486324,0.042571942390520354,oracle_exact,5,11.597876087892882,0.07376143562103446,134.58449118573859,2,0.4
gamma_design,0.95,1.1,1000,0.05,0.1,misspecified_affine,0,linear_standard_fqe,10.374206944854603,0.23717291823601286,11.491073040799122,0.2704061231276918,-22.13587569830457,-11.831586406340458,-10.304289291964112,10.304289291964112,111.69655186050556,124.02555339134406,0.8483020147025571,9.637897983487136,0.2336631458162274,10.277657945212235,0.27089664783700096,1.4302902584019808,0.37666549268488597,1.0,0.0,1.0,1.0,1.0,1.0,1000.0,1.0,0.0,0.0,nan,9.597627879068611,nan,1.2035903948871713,0.8323482884845024,209.32674403556067,0.0,stable,0.95,0.99,discounted,matched_iid,linear,standard,nan,0.0,0.16031229902347813,0.1419462982928171,uniform,5,-10.304289291964112,5.518174048019324,111.69655186050556,0,0.0
gamma_design,0.95,1.1,1000,0.05,0.1,misspecified_affine,0,neural_estimated_clipped_fqe,1.4607195495493797,0.21875853053026448,31.03119329481449,1.9544326793225735,-2.3388183057967162,-11.831586406340458,9.492768100543742,9.492768100543742,90.23016737821082,121.53705816910923,1.8258707576648896,15.656892779128308,1.004607735418086,1.7140430444085428,0.2809221437267615,4.778815156960109,1.0508785246195902,1.0,0.7532207773033155,2.222694298110981,1.907606595353255,1.9929559339504046,2.2222004125857606,638.0379056232633,0.6380379056232632,0.01,0.0,2.5599865386273715,5.608803581189123,0.4580232110805099,0.7651073956769192,0.6681689350590314,214.3139985724519,0.0,stable,0.95,0.99,discounted,matched_iid,neural,linear_clipped,0.08610588907818495,-0.003931432461162343,0.03802657297425664,0.03960509849799186,linear_reduced_moment,2,9.492768100543742,0.11752116750999306,90.23016737821082,0,0.0
gamma_design,0.95,1.1,1000,0.05,0.1,misspecified_affine,0,neural_neural_weighted_clipped_fqe,1.9788501802397722,0.26324708892529974,49.069605778895806,2.8519514157932546,-0.8385324013975337,-11.831586406340458,10.993054004942923,10.993054004942923,120.94563046428631,153.2050985873082,2.0725191507217753,17.82746864533562,1.1125564001590587,2.253290416784373,0.3316922171334882,10.659028861869125,0.8573037227935997,1.0,0.7413384441968769,3.04617443901774,1.9946341683080695,2.3743530246960964,3.0458378485862037,646.9368762524482,0.6469368762524482,0.01,0.0,2.6125547230243678,7.610266204983997,0.18505016299297578,1.0532481956527164,0.8274986779329078,269.66770982786375,0.0,stable,0.95,0.99,discounted,matched_iid,neural,neural_clipped,0.19682514615459276,-0.14120108592403574,0.0583177239116191,0.07383782236823977,neural_positive_rkhs_moment,2,10.993054004942923,0.09839410869464799,120.94563046428631,0,0.0
gamma_design,0.95,1.1,1000,0.05,0.1,misspecified_affine,0,neural_oracle_clipped_fqe,1.3301838520482199,0.19508467530323348,25.043154980694347,1.6707005322547115,-2.9841818668515367,-11.831586406340458,8.84740453948892,8.84740453948892,78.31203865029579,106.10574007846527,1.6251762468694837,11.55116548519376,0.7947754466624548,1.5417407817951863,0.24880774093355612,4.432169166605792,0.8392136339493781,1.0,1.2247448708644395,5.914042192142955,2.7463672490591255,3.372463456002263,5.911808255723079,400.00000020659957,0.40000000020659954,0.01,0.18289289539679887,5.556298219553014,8.510703301732347,0.7611087523404902,0.23449492386566811,0.38568483196408393,174.92148156413214,0.0,stable,0.95,0.99,discounted,matched_iid,neural,oracle_clipped,0.0,0.0,0.028643753077537616,0.03705238386420921,oracle_exact_clipped,2,8.84740453948892,0.03547156492664305,78.31203865029579,0,0.0
gamma_design,0.95,1.1,1000,0.05,0.1,misspecified_affine,0,neural_standard_fqe,1.3019699423837763,0.19605937030382498,25.510717342549484,1.6967711273491752,-2.979645323600614,-11.831586406340458,8.851941082739843,8.851941082739843,78.46812705366895,106.54502585670289,1.632961397355678,11.710851109470184,0.8045918118570137,1.5102069549600534,0.24956301859664112,4.559159014726416,0.8665427105689301,1.0,0.0,1.0,1.0,1.0,1.0,1000.0,1.0,0.0,0.0,nan,9.59319710769634,nan,1.1943563888538569,0.8303851712795495,206.49657285048949,0.0,stable,0.95,0.99,discounted,matched_iid,neural,standard,nan,0.0,0.1593044027033105,0.14007456791267903,uniform,2,8.851941082739843,0.1112661213715107,78.46812705366895,0,0.0
gamma_design,0.95,1.1,4000,0.05,0.1,misspecified_affine,0,linear_estimated_clipped_fqe,7.6354183958543045,0.33057649246161136,11.28669612154305,0.30126155274315,-23.939312185290284,-11.831586406340458,-12.107725778949824,12.107725778949824,154.0939419359413,166.2090186640943,0.9831191432450334,8.013099780753997,0.2844718010070303,7.432175867129686,0.37863983806919654,1.7055692490876424,0.39302709055472507,1.0,0.7182386751939838,2.0420603007555145,1.881679364225402,1.9595210879701113,2.042052742849676,2643.8672304771317,0.660966807619283,0.01,0.0,2.4098787806585533,6.1399526005263265,0.35859434919552163,0.8595943373958346,0.7441115970516593,209.9657595585667,0.0,stable,0.95,0.99,discounted,matched_iid,linear,linear_clipped,0.12415527440294269,-0.005388218994862415,0.0384691065287298,0.04110398452340093,linear_reduced_moment,5,-12.107725778949824,7.496918397695156,154.0939419359413,0,0.0
gamma_design,0.95,1.1,4000,0.05,0.1,misspecified_affine,0,linear_neural_weighted_clipped_fqe,2.1685002540045923,0.23156210406245012,46.46021402866765,2.807794645565219,-1.2704377117722152,-11.831586406340458,10.561148694568242,10.561148694568242,111.6294246055343,146.29186193237024,2.0977172216699205,17.087553985872535,1.1215071800266259,2.41452073023398,0.2973838176533754,9.80037608701138,0.8013193808296357,1.0,0.6914733826944437,2.681977155899944,1.9270435307508307,2.184326983761468,2.681929405460911,2708.4645669508113,0.677116141737703,0.01,0.0,2.3496795139312736,7.695586129525035,0.174582656348307,1.0770266636744759,0.8372315680477339,262.9289322057929,0.0,stable,0.95,0.99,discounted,matched_iid,linear,neural_clipped,0.17942887843849675,-0.12291361584399889,0.0385906952413707,0.06743942458635196,neural_positive_rkhs_moment,5,10.561148694568242,0.09156285675378295,111.6294246055343,0,0.0
