Larsvanderlaan/rl-eval-kit/submission_bundles/neurips_bellman/fqe_stationary_weighting/code/FQE_neurips/results/gamma_sweep_results.csv
study_stage,gamma,shift,sample_size,process_noise_sd,behavior_action_sd,feature_regime,seed,estimator,target_q_mse,target_q_mse_se,behavior_q_mse,behavior_q_mse_se,policy_value_estimate,policy_value_true,policy_value_error,policy_value_absolute_error,policy_value_squared_error,initial_v_mse,initial_v_mse_se,behavior_v_mse,behavior_v_mse_se,target_v_mse,target_v_mse_se,behavior_bellman_residual_mse,target_bellman_residual_mse,weight_mean,weight_std,weight_max,weight_q90,weight_q95,weight_q99,effective_sample_size,effective_sample_size_fraction,fraction_clipped,chosen_uniform_mix,clip_level,oracle_log_ratio_rmse,oracle_estimated_weight_corr,oracle_estimated_weight_mae,oracle_estimated_weight_rel_mse,weighted_design_condition_number,unstable_run_flag,unstable_reason,value_gamma,ratio_gamma,reference_distribution,data_mode,fqe_family,ratio_estimator,ratio_moment_violation_l2,ratio_normalization_error,target_ratio_feature_calibration_l2,target_fqe_feature_calibration_l2,ratio_solver
gamma_paper,0.95,0.0,4000,0.05,0.1,misspecified_affine,0,linear_standard_fqe,2.9930249156615893,0.045717776480649334,2.969932107113562,0.04066705214885878,-12.049956614367185,-11.831586406340458,-0.2183702080267267,0.2183702080267267,0.04768554775363589,5.118099012216272,0.14782367618283515,2.872919394736872,0.04125595904278764,2.836949636936743,0.04143875861637909,0.3467910219596987,0.3832739778221673,1.0,0.0,1.0,1.0,1.0,1.0,4000.0,1.0,0.0,0.0,nan,0.0,1.0,0.0,0.0,204.30936032778166,0.0,stable,0.95,0.95,discounted,matched_iid,linear,standard,nan,0.0,0.006476182437304353,0.006356790309403865,uniform
gamma_paper,0.95,0.0,4000,0.05,0.1,misspecified_affine,0,linear_oracle_raw_fqe,2.9930249156615893,0.045717776480649334,2.969932107113562,0.04066705214885878,-12.049956614367185,-11.831586406340458,-0.2183702080267267,0.2183702080267267,0.04768554775363589,5.118099012216272,0.14782367618283515,2.872919394736872,0.04125595904278764,2.836949636936743,0.04143875861637909,0.3467910219596987,0.3832739778221673,1.0,0.0,1.0,1.0,1.0,1.0,4000.0,1.0,0.0,0.0,nan,0.0,1.0,0.0,0.0,204.30936032778166,0.0,stable,0.95,0.95,discounted,matched_iid,linear,oracle_raw,0.0,0.0,0.006476182437304353,0.006356790309403865,oracle_exact
gamma_paper,0.95,0.0,4000,0.05,0.1,misspecified_affine,0,linear_oracle_clipped_fqe,2.9930249156615893,0.045717776480649334,2.969932107113562,0.04066705214885878,-12.049956614367185,-11.831586406340458,-0.2183702080267267,0.2183702080267267,0.04768554775363589,5.118099012216272,0.14782367618283515,2.872919394736872,0.04125595904278764,2.836949636936743,0.04143875861637909,0.3467910219596987,0.3832739778221673,1.0,0.0,1.0,1.0,1.0,1.0,4000.0,1.0,0.0,0.0,1.0,0.0,1.0,0.0,0.0,204.30936032778166,0.0,stable,0.95,0.95,discounted,matched_iid,linear,oracle_clipped,0.0,0.0,0.006476182437304353,0.006356790309403865,oracle_exact_clipped
gamma_paper,0.95,0.0,4000,0.05,0.1,misspecified_affine,0,linear_estimated_clipped_fqe,3.0442386587808783,0.044778780256005755,3.02233969759057,0.040034579641721045,-12.164274867631159,-11.831586406340458,-0.33268846129070084,0.33268846129070084,0.11068161227597416,5.023433475988713,0.14098402295236248,2.924802891890875,0.040645626346316306,2.890410539166153,0.04070215001299253,0.3470028226100707,0.3839956093858345,1.0000000000000002,0.05171656223665337,1.1654918829837673,1.0325065100315347,1.0764985513458356,1.1654908431383784,3989.3301264355027,0.9973325316088757,0.01,0.0,1.1652720838959651,0.05340738419154919,nan,0.034288675786421495,0.0026746028095776414,206.23912831544155,0.0,stable,0.95,0.95,discounted,matched_iid,linear,linear_clipped,0.004354553146927094,3.930630449788808e-06,0.0063526116399060355,0.005349218809117082,linear_reduced_moment
gamma_paper,0.95,0.0,4000,0.05,0.1,misspecified_affine,0,linear_neural_weighted_clipped_fqe,2.3880892605560677,0.04105029705878603,2.3610391882721413,0.03600035003624271,-12.34301901580655,-11.831586406340458,-0.5114326094660928,0.5114326094660928,0.26156331402529703,5.307890813595017,0.13710793619261136,2.2597995566279434,0.03599577643326707,2.2299932950776986,0.03622747328778494,0.3473921560905435,0.38407312633920915,1.0,0.06717087679087926,1.1230913923818653,1.0776355325571052,1.0905288639177007,1.1230891063802568,3982.0333574187493,0.9955083393546873,0.01,0.0,1.1230872118473052,0.0683672045028653,nan,0.057337701217522845,0.004511926688855481,197.58683032453814,0.0,stable,0.95,0.95,discounted,matched_iid,linear,neural_clipped,0.029604423211276893,0.00012088444828983747,0.02176824958126644,0.022456771813874964,neural_positive_rkhs_moment
gamma_paper,0.95,0.0,4000,0.05,0.1,misspecified_affine,0,neural_standard_fqe,1.476680679292025,0.08913863031408838,1.3415280454693375,0.07483958754041325,-8.588453678453453,-11.831586406340458,3.243132727887005,3.243132727887005,10.517909890691806,16.392778133336076,0.34166517376947314,1.396411512893426,0.08826273503766632,1.4224063048041382,0.09123049490325406,0.23726850579074193,0.28633153342175366,1.0,0.0,1.0,1.0,1.0,1.0,4000.0,1.0,0.0,0.0,nan,0.0,1.0,0.0,0.0,204.30936032778166,0.0,stable,0.95,0.95,discounted,matched_iid,neural,standard,nan,0.0,0.006476182437304353,0.006356790309403865,uniform
gamma_paper,0.95,0.0,4000,0.05,0.1,misspecified_affine,0,neural_oracle_clipped_fqe,1.476680679292025,0.08913863031408838,1.3415280454693375,0.07483958754041325,-8.588453678453453,-11.831586406340458,3.243132727887005,3.243132727887005,10.517909890691806,16.392778133336076,0.34166517376947314,1.396411512893426,0.08826273503766632,1.4224063048041382,0.09123049490325406,0.23726850579074193,0.28633153342175366,1.0,0.0,1.0,1.0,1.0,1.0,4000.0,1.0,0.0,0.0,1.0,0.0,1.0,0.0,0.0,204.30936032778166,0.0,stable,0.95,0.95,discounted,matched_iid,neural,oracle_clipped,0.0,0.0,0.006476182437304353,0.006356790309403865,oracle_exact_clipped
gamma_paper,0.95,0.0,4000,0.05,0.1,misspecified_affine,0,neural_estimated_clipped_fqe,1.4903757659408396,0.09042557913680657,1.3536017717638593,0.07599048256583323,-8.56894411516521,-11.831586406340458,3.262642291175247,3.262642291175247,10.644834720165266,16.621126152420686,0.3474405222572725,1.4061927086129284,0.08941136415148827,1.4356411411782302,0.09255103846242865,0.24272008568974482,0.2932012500729634,1.0000000000000002,0.05171656223665337,1.1654918829837673,1.0325065100315347,1.0764985513458356,1.1654908431383784,3989.3301264355027,0.9973325316088757,0.01,0.0,1.1652720838959651,0.05340738419154919,nan,0.034288675786421495,0.0026746028095776414,206.23912831544155,0.0,stable,0.95,0.95,discounted,matched_iid,neural,linear_clipped,0.004354553146927094,3.930630449788808e-06,0.0063526116399060355,0.005349218809117082,linear_reduced_moment
gamma_paper,0.95,0.0,4000,0.05,0.1,misspecified_affine,0,neural_neural_weighted_clipped_fqe,1.4753175191829184,0.08912294782285837,1.3402224736513044,0.07482222656060647,-8.599335993391916,-11.831586406340458,3.2322504129485417,3.2322504129485417,10.447442732006017,16.345599005276753,0.34186032306493785,1.3946227659076382,0.08820252494490262,1.4208264153250818,0.09118947111168109,0.23637018404543586,0.28546925319209426,1.0,0.06717087679087926,1.1230913923818653,1.0776355325571052,1.0905288639177007,1.1230891063802568,3982.0333574187493,0.9955083393546873,0.01,0.0,1.1230872118473052,0.0683672045028653,nan,0.057337701217522845,0.004511926688855481,197.58683032453814,0.0,stable,0.95,0.95,discounted,matched_iid,neural,neural_clipped,0.029604423211276893,0.00012088444828983747,0.02176824958126644,0.022456771813874964,neural_positive_rkhs_moment
gamma_paper,0.95,0.0,4000,0.05,0.1,misspecified_affine,1,linear_standard_fqe,4.233654157435516,0.049733855396265784,4.279307802340178,0.05036716322135189,-12.101458509695519,-11.831586406340458,-0.26987210335506084,0.26987210335506084,0.07283095216928465,4.93389424605202,0.16146263156138757,4.136489117173977,0.0511653019314466,4.147134770572721,0.05589476910424778,0.32210223926341064,0.35052977855252276,1.0,0.0,1.0,1.0,1.0,1.0,4000.0,1.0,0.0,0.0,nan,0.0,1.0,0.0,0.0,207.56408363721482,0.0,stable,0.95,0.95,discounted,matched_iid,linear,standard,nan,0.0,0.0038906478671685554,0.005510149962541447,uniform
gamma_paper,0.95,0.0,4000,0.05,0.1,misspecified_affine,1,linear_oracle_raw_fqe,4.233654157435516,0.049733855396265784,4.279307802340178,0.05036716322135189,-12.101458509695519,-11.831586406340458,-0.26987210335506084,0.26987210335506084,0.07283095216928465,4.93389424605202,0.16146263156138757,4.136489117173977,0.0511653019314466,4.147134770572721,0.05589476910424778,0.32210223926341064,0.35052977855252276,1.0,0.0,1.0,1.0,1.0,1.0,4000.0,1.0,0.0,0.0,nan,0.0,1.0,0.0,0.0,207.56408363721482,0.0,stable,0.95,0.95,discounted,matched_iid,linear,oracle_raw,0.0,0.0,0.0038906478671685554,0.005510149962541447,oracle_exact
gamma_paper,0.95,0.0,4000,0.05,0.1,misspecified_affine,1,linear_oracle_clipped_fqe,4.233654157435516,0.049733855396265784,4.279307802340178,0.05036716322135189,-12.101458509695519,-11.831586406340458,-0.26987210335506084,0.26987210335506084,0.07283095216928465,4.93389424605202,0.16146263156138757,4.136489117173977,0.0511653019314466,4.147134770572721,0.05589476910424778,0.32210223926341064,0.35052977855252276,1.0,0.0,1.0,1.0,1.0,1.0,4000.0,1.0,0.0,0.0,1.0,0.0,1.0,0.0,0.0,207.56408363721482,0.0,stable,0.95,0.95,discounted,matched_iid,linear,oracle_clipped,0.0,0.0,0.0038906478671685554,0.005510149962541447,oracle_exact_clipped
gamma_paper,0.95,0.0,4000,0.05,0.1,misspecified_affine,1,linear_estimated_clipped_fqe,3.3296844958098055,0.04413830778404091,3.3674631780625197,0.044945413793781745,-12.299917153517129,-11.831586406340458,-0.46833074717667067,0.46833074717667067,0.21933368875105863,5.190831842506011,0.1569104295524858,3.2378986030405152,0.04481345227517597,3.2503829149043595,0.04996975111641634,0.32195830305374457,0.3506550666197816,1.0,0.07273446422193833,1.1507770684591598,1.0751876106759395,1.0940488503512782,1.150768268859444,3978.95015092208,0.99473753773052,0.01,0.0,1.1505154430953752,0.07486236509344006,nan,0.05868539137041796,0.005290302285652426,205.87605584669214,0.0,stable,0.95,0.95,discounted,matched_iid,linear,linear_clipped,0.005215371388808457,-1.1509280825938717e-05,0.0034692417048263545,0.00386719463990508,linear_reduced_moment
gamma_paper,0.95,0.0,4000,0.05,0.1,misspecified_affine,1,linear_neural_weighted_clipped_fqe,3.5730826247241136,0.0454482102104154,3.6136084687546672,0.046117006695163165,-12.285215157178168,-11.831586406340458,-0.45362875083771037,0.45362875083771037,0.20577904358658153,5.093289162601954,0.15612237100450896,3.4781478912551513,0.04620927272369943,3.490022937895489,0.051196500334741414,0.3219015189047995,0.3508959122813678,0.9999999999999998,0.04422694532741378,1.0928044907216095,1.0531335414452636,1.0659741209044231,1.092788896283578,3992.1911834504,0.9980477958626,0.01,0.0,1.0887769043445583,0.04471184285200281,nan,0.03560575959419626,0.0019560226929940475,202.16302387655068,0.0,stable,0.95,0.95,discounted,matched_iid,linear,neural_clipped,0.017170796562904166,-0.0035294097661972,0.008842476197606686,0.008068156675442308,neural_positive_rkhs_moment
gamma_paper,0.95,0.0,4000,0.05,0.1,misspecified_affine,1,neural_standard_fqe,1.4991591209074455,0.08492473083503584,1.4044615149609527,0.08758020674438378,-8.60478274346364,-11.831586406340458,3.2268036628768186,3.2268036628768186,10.412261878755253,16.879402561965588,0.36635405536865473,1.5946667816864568,0.09777507853130267,1.3465080863651269,0.09826164593550185,0.22970821304308398,0.267507801836019,1.0,0.0,1.0,1.0,1.0,1.0,4000.0,1.0,0.0,0.0,nan,0.0,1.0,0.0,0.0,207.56408363721482,0.0,stable,0.95,0.95,discounted,matched_iid,neural,standard,nan,0.0,0.0038906478671685554,0.005510149962541447,uniform
gamma_paper,0.95,0.0,4000,0.05,0.1,misspecified_affine,1,neural_oracle_clipped_fqe,1.4991591209074455,0.08492473083503584,1.4044615149609527,0.08758020674438378,-8.60478274346364,-11.831586406340458,3.2268036628768186,3.2268036628768186,10.412261878755253,16.879402561965588,0.36635405536865473,1.5946667816864568,0.09777507853130267,1.3465080863651269,0.09826164593550185,0.22970821304308398,0.267507801836019,1.0,0.0,1.0,1.0,1.0,1.0,4000.0,1.0,0.0,0.0,1.0,0.0,1.0,0.0,0.0,207.56408363721482,0.0,stable,0.95,0.95,discounted,matched_iid,neural,oracle_clipped,0.0,0.0,0.0038906478671685554,0.005510149962541447,oracle_exact_clipped
gamma_paper,0.95,0.0,4000,0.05,0.1,misspecified_affine,1,neural_estimated_clipped_fqe,1.496292547227064,0.08503728462805701,1.4011928701921867,0.0875146731774044,-8.603995816285538,-11.831586406340458,3.2275905900549198,3.2275905900549198,10.417341017011065,16.884625071437366,0.3668993079726868,1.5904111237079197,0.09762899032405274,1.3442143111510754,0.09840295473416552,0.23003977457464422,0.2683906347820815,1.0,0.07273446422193833,1.1507770684591598,1.0751876106759395,1.0940488503512782,1.150768268859444,3978.95015092208,0.99473753773052,0.01,0.0,1.1505154430953752,0.07486236509344006,nan,0.05868539137041796,0.005290302285652426,205.87605584669214,0.0,stable,0.95,0.95,discounted,matched_iid,neural,linear_clipped,0.005215371388808457,-1.1509280825938717e-05,0.0034692417048263545,0.00386719463990508,linear_reduced_moment
gamma_paper,0.95,0.0,4000,0.05,0.1,misspecified_affine,1,neural_neural_weighted_clipped_fqe,1.4945414555051983,0.08472357468420251,1.4000641556089521,0.08736373802986573,-8.610409142176447,-11.831586406340458,3.2211772641640106,3.2211772641640106,10.37598296716714,16.82836488327488,0.3654771558396973,1.5892146666017828,0.09744441536766164,1.3427267121807513,0.09804444171423173,0.22887245747182505,0.2666203888756918,0.9999999999999998,0.04422694532741378,1.0928044907216095,1.0531335414452636,1.0659741209044231,1.092788896283578,3992.1911834504,0.9980477958626,0.01,0.0,1.0887769043445583,0.04471184285200281,nan,0.03560575959419626,0.0019560226929940475,202.16302387655068,0.0,stable,0.95,0.95,discounted,matched_iid,neural,neural_clipped,0.017170796562904166,-0.0035294097661972,0.008842476197606686,0.008068156675442308,neural_positive_rkhs_moment
gamma_paper,0.95,0.0,4000,0.05,0.1,misspecified_affine,2,linear_standard_fqe,3.197975581304217,0.039811843433180207,3.2334907534586517,0.04400669105157514,-11.921670581467135,-11.831586406340458,-0.09008417512667677,0.09008417512667677,0.00811515860825377,5.3775890800960795,0.17038933880907503,3.1113900009787345,0.0455524804026856,3.1588104795829683,0.05710972501497656,0.38007344259866144,0.3341697208773585,1.0,0.0,1.0,1.0,1.0,1.0,4000.0,1.0,0.0,0.0,nan,0.0,1.0,0.0,0.0,205.76085789249026,0.0,stable,0.95,0.95,discounted,matched_iid,linear,standard,nan,0.0,0.004511463954534858,0.003865247578507295,uniform
gamma_paper,0.95,0.0,4000,0.05,0.1,misspecified_affine,2,linear_oracle_raw_fqe,3.197975581304217,0.039811843433180207,3.2334907534586517,0.04400669105157514,-11.921670581467135,-11.831586406340458,-0.09008417512667677,0.09008417512667677,0.00811515860825377,5.3775890800960795,0.17038933880907503,3.1113900009787345,0.0455524804026856,3.1588104795829683,0.05710972501497656,0.38007344259866144,0.3341697208773585,1.0,0.0,1.0,1.0,1.0,1.0,4000.0,1.0,0.0,0.0,nan,0.0,1.0,0.0,0.0,205.76085789249026,0.0,stable,0.95,0.95,discounted,matched_iid,linear,oracle_raw,0.0,0.0,0.004511463954534858,0.003865247578507295,oracle_exact
gamma_paper,0.95,0.0,4000,0.05,0.1,misspecified_affine,2,linear_oracle_clipped_fqe,3.197975581304217,0.039811843433180207,3.2334907534586517,0.04400669105157514,-11.921670581467135,-11.831586406340458,-0.09008417512667677,0.09008417512667677,0.00811515860825377,5.3775890800960795,0.17038933880907503,3.1113900009787345,0.0455524804026856,3.1588104795829683,0.05710972501497656,0.38007344259866144,0.3341697208773585,1.0,0.0,1.0,1.0,1.0,1.0,4000.0,1.0,0.0,0.0,1.0,0.0,1.0,0.0,0.0,205.76085789249026,0.0,stable,0.95,0.95,discounted,matched_iid,linear,oracle_clipped,0.0,0.0,0.004511463954534858,0.003865247578507295,oracle_exact_clipped
gamma_paper,0.95,0.0,4000,0.05,0.1,misspecified_affine,2,linear_estimated_clipped_fqe,3.198869985249042,0.03889844328626217,3.228939962957008,0.04270143718509687,-12.088605608989859,-11.831586406340458,-0.2570192026494009,0.2570192026494009,0.06605887053053382,5.251831626593112,0.15974574281206638,3.1191111132222655,0.044366170791844996,3.162601418640707,0.055278624766491175,0.3789937231697414,0.3342218200522615,1.0,0.06284337132955993,1.2363674955243518,1.051513001566658,1.095970628971037,1.2363564061549115,3984.2649848470355,0.9960662462117589,0.01,0.0,1.2352975939247077,0.06273205034713482,nan,0.04272153874222471,0.0039492893200649545,212.27545292802677,0.0,stable,0.95,0.95,discounted,matched_iid,linear,linear_clipped,0.004167809394789032,-1.822837680376388e-05,0.0034645836145951337,0.004247149883484338,linear_reduced_moment
gamma_paper,0.95,0.0,4000,0.05,0.1,misspecified_affine,2,linear_neural_weighted_clipped_fqe,2.831826651372636,0.03825288937587495,2.8709877118423437,0.043344015337281785,-11.887509378200189,-11.831586406340458,-0.05592297185973116,0.05592297185973116,0.0031273787816242836,5.512142696337698,0.17701878942088703,2.744286737702157,0.0441499442692763,2.7977666621054924,0.056877352212228664,0.3879848941198346,0.3359450161858265,1.0,0.04814366995159584,1.0544907348463937,1.0367394287178269,1.043084830876881,1.05448710174679,3990.7501875096023,0.9976875468774006,0.01,0.0,1.045773330926895,0.05621364011784086,nan,0.02849955526396119,0.0023178129564081916,201.49176375942022,0.0,stable,0.95,0.95,discounted,matched_iid,linear,neural_clipped,0.06394409417937595,-0.008203765027224974,0.015164605602014476,0.0159073807573588,neural_positive_rkhs_moment
gamma_paper,0.95,0.0,4000,0.05,0.1,misspecified_affine,2,neural_standard_fqe,1.4283147687718583,0.07241852912142474,1.5806060864346498,0.08032468910427591,-8.544386844390157,-11.831586406340458,3.2871995619503007,3.2871995619503007,10.80568096008625,16.89253025815945,0.354048467049555,1.3401183753432397,0.08510876724734276,1.5114280838165077,0.10087421240631407,0.28931968882238784,0.23880263914439162,1.0,0.0,1.0,1.0,1.0,1.0,4000.0,1.0,0.0,0.0,nan,0.0,1.0,0.0,0.0,205.76085789249026,0.0,stable,0.95,0.95,discounted,matched_iid,neural,standard,nan,0.0,0.004511463954534858,0.003865247578507295,uniform
gamma_paper,0.95,0.0,4000,0.05,0.1,misspecified_affine,2,neural_oracle_clipped_fqe,1.4283147687718583,0.07241852912142474,1.5806060864346498,0.08032468910427591,-8.544386844390157,-11.831586406340458,3.2871995619503007,3.2871995619503007,10.80568096008625,16.89253025815945,0.354048467049555,1.3401183753432397,0.08510876724734276,1.5114280838165077,0.10087421240631407,0.28931968882238784,0.23880263914439162,1.0,0.0,1.0,1.0,1.0,1.0,4000.0,1.0,0.0,0.0,1.0,0.0,1.0,0.0,0.0,205.76085789249026,0.0,stable,0.95,0.95,discounted,matched_iid,neural,oracle_clipped,0.0,0.0,0.004511463954534858,0.003865247578507295,oracle_exact_clipped
gamma_paper,0.95,0.0,4000,0.05,0.1,misspecified_affine,2,neural_estimated_clipped_fqe,1.4329185594937048,0.07263748217700643,1.5868368362284409,0.08076046590565321,-8.536962925495104,-11.831586406340458,3.2946234808453543,3.2946234808453543,10.854543880537559,16.94269139371823,0.3557240908314079,1.342904749310726,0.08521326589510644,1.5160448463989624,0.10147323700540657,0.2924975856855457,0.24054887766530583,1.0,0.06284337132955993,1.2363674955243518,1.051513001566658,1.095970628971037,1.2363564061549115,3984.2649848470355,0.9960662462117589,0.01,0.0,1.2352975939247077,0.06273205034713482,nan,0.04272153874222471,0.0039492893200649545,212.27545292802677,0.0,stable,0.95,0.95,discounted,matched_iid,neural,linear_clipped,0.004167809394789032,-1.822837680376388e-05,0.0034645836145951337,0.004247149883484338,linear_reduced_moment
gamma_paper,0.95,0.0,4000,0.05,0.1,misspecified_affine,2,neural_neural_weighted_clipped_fqe,1.4271825621763914,0.07193358632941027,1.580991747318134,0.0801465643787689,-8.543602984454617,-11.831586406340458,3.2879834218858406,3.2879834218858406,10.810834982596122,16.80870062305377,0.35240305462703153,1.3374427438142886,0.08437729690252936,1.5100274453407667,0.10071561113175433,0.28872993214256953,0.23669073657070216,1.0,0.04814366995159584,1.0544907348463937,1.0367394287178269,1.043084830876881,1.05448710174679,3990.7501875096023,0.9976875468774006,0.01,0.0,1.045773330926895,0.05621364011784086,nan,0.02849955526396119,0.0023178129564081916,201.49176375942022,0.0,stable,0.95,0.95,discounted,matched_iid,neural,neural_clipped,0.06394409417937595,-0.008203765027224974,0.015164605602014476,0.0159073807573588,neural_positive_rkhs_moment
gamma_paper,0.95,0.0,4000,0.05,0.1,misspecified_affine,3,linear_standard_fqe,3.023293612668577,0.04920251322961501,3.000544890795163,0.03733676273102357,-12.417367092810599,-11.831586406340458,-0.5857806864701409,0.5857806864701409,0.34313901264142954,5.4744851070504446,0.15314218719400485,2.8300631028990484,0.055976892444502255,2.843202645342617,0.0399887172373731,0.34940363830059173,0.34516499386681604,1.0,0.0,1.0,1.0,1.0,1.0,4000.0,1.0,0.0,0.0,nan,0.0,1.0,0.0,0.0,220.3641161398121,0.0,stable,0.95,0.95,discounted,matched_iid,linear,standard,nan,0.0,0.009514372937813797,0.01037242002897602,uniform
gamma_paper,0.95,0.0,4000,0.05,0.1,misspecified_affine,3,linear_oracle_raw_fqe,3.023293612668577,0.04920251322961501,3.000544890795163,0.03733676273102357,-12.417367092810599,-11.831586406340458,-0.5857806864701409,0.5857806864701409,0.34313901264142954,5.4744851070504446,0.15314218719400485,2.8300631028990484,0.055976892444502255,2.843202645342617,0.0399887172373731,0.34940363830059173,0.34516499386681604,1.0,0.0,1.0,1.0,1.0,1.0,4000.0,1.0,0.0,0.0,nan,0.0,1.0,0.0,0.0,220.3641161398121,0.0,stable,0.95,0.95,discounted,matched_iid,linear,oracle_raw,0.0,0.0,0.009514372937813797,0.01037242002897602,oracle_exact
gamma_paper,0.95,0.0,4000,0.05,0.1,misspecified_affine,3,linear_oracle_clipped_fqe,3.023293612668577,0.04920251322961501,3.000544890795163,0.03733676273102357,-12.417367092810599,-11.831586406340458,-0.5857806864701409,0.5857806864701409,0.34313901264142954,5.4744851070504446,0.15314218719400485,2.8300631028990484,0.055976892444502255,2.843202645342617,0.0399887172373731,0.34940363830059173,0.34516499386681604,1.0,0.0,1.0,1.0,1.0,1.0,4000.0,1.0,0.0,0.0,1.0,0.0,1.0,0.0,0.0,220.3641161398121,0.0,stable,0.95,0.95,discounted,matched_iid,linear,oracle_clipped,0.0,0.0,0.009514372937813797,0.01037242002897602,oracle_exact_clipped
gamma_paper,0.95,0.0,4000,0.05,0.1,misspecified_affine,3,linear_estimated_clipped_fqe,2.8370114098716614,0.05149584449228826,2.8207797166704722,0.03837295577072008,-12.11834679005078,-11.831586406340458,-0.2867603837103214,0.2867603837103214,0.08223151766569077,5.616828507762041,0.1727558928078157,2.6508247939787797,0.05865714235698743,2.659136071344093,0.04104897890134906,0.3486427216226339,0.3433076548605005,1.0,0.06940480005674923,1.079208806512991,1.0616552873221723,1.067920667986165,1.0792072420674643,3980.824264935898,0.9952060662339746,0.01,0.0,1.0791415460545253,0.07877702257800542,nan,0.05013017556597183,0.004817026270917338,212.37878830524718,0.0,stable,0.95,0.95,discounted,matched_iid,linear,linear_clipped,0.012769909054997938,-1.4528853286455146e-05,0.0075797924600402335,0.007517214436702044,linear_reduced_moment
gamma_paper,0.95,0.0,4000,0.05,0.1,misspecified_affine,3,linear_neural_weighted_clipped_fqe,3.0281263859862912,0.049883673808267845,3.007217799501408,0.03783958556910767,-12.323805315936252,-11.831586406340458,-0.4922189095957936,0.4922189095957936,0.24227945496367206,5.444656715989121,0.15856365827884958,2.8386988658682384,0.05749952942987688,2.8499265596121077,0.040584627910881514,0.34859264468660806,0.34408251720971256,1.0,0.02428482531537996,1.039702830955397,1.0296575386970093,1.0352248899497796,1.039702616132235,3997.6423794507864,0.9994105948626966,0.01,0.0,1.039548614025116,0.02495456882697675,nan,0.015722410509790532,0.0005897527405985195,219.24122976376503,0.0,stable,0.95,0.95,discounted,matched_iid,linear,neural_clipped,0.013465430482742286,-0.00013592705130571758,0.008423472795543285,0.009659270143635879,neural_positive_rkhs_moment
gamma_paper,0.95,0.0,4000,0.05,0.1,misspecified_affine,3,neural_standard_fqe,1.2608032017574515,0.0790905112551804,1.301061566933336,0.07183057050076613,-8.787934605542471,-11.831586406340458,3.0436518007979867,3.0436518007979867,9.263816284500827,15.081840517843705,0.3336874796060298,1.2355889047965778,0.08519944517788208,1.1828919350825442,0.07505694975866879,0.22235952827231575,0.20826610222399558,1.0,0.0,1.0,1.0,1.0,1.0,4000.0,1.0,0.0,0.0,nan,0.0,1.0,0.0,0.0,220.3641161398121,0.0,stable,0.95,0.95,discounted,matched_iid,neural,standard,nan,0.0,0.009514372937813797,0.01037242002897602,uniform
gamma_paper,0.95,0.0,4000,0.05,0.1,misspecified_affine,3,neural_oracle_clipped_fqe,1.2608032017574515,0.0790905112551804,1.301061566933336,0.07183057050076613,-8.787934605542471,-11.831586406340458,3.0436518007979867,3.0436518007979867,9.263816284500827,15.081840517843705,0.3336874796060298,1.2355889047965778,0.08519944517788208,1.1828919350825442,0.07505694975866879,0.22235952827231575,0.20826610222399558,1.0,0.0,1.0,1.0,1.0,1.0,4000.0,1.0,0.0,0.0,1.0,0.0,1.0,0.0,0.0,220.3641161398121,0.0,stable,0.95,0.95,discounted,matched_iid,neural,oracle_clipped,0.0,0.0,0.009514372937813797,0.01037242002897602,oracle_exact_clipped
gamma_paper,0.95,0.0,4000,0.05,0.1,misspecified_affine,3,neural_estimated_clipped_fqe,1.2729717462331351,0.08066802345574217,1.3137865812345986,0.07330287764574624,-8.758353956158725,-11.831586406340458,3.0732324501817327,3.0732324501817327,9.444757692850017,15.392596016049167,0.3404030114178888,1.2472494829649967,0.08697098055007586,1.1930454760392788,0.07653678000953489,0.22728705004404556,0.21298928347276586,1.0,0.06940480005674923,1.079208806512991,1.0616552873221723,1.067920667986165,1.0792072420674643,3980.824264935898,0.9952060662339746,0.01,0.0,1.0791415460545253,0.07877702257800542,nan,0.05013017556597183,0.004817026270917338,212.37878830524718,0.0,stable,0.95,0.95,discounted,matched_iid,neural,linear_clipped,0.012769909054997938,-1.4528853286455146e-05,0.0075797924600402335,0.007517214436702044,linear_reduced_moment
gamma_paper,0.95,0.0,4000,0.05,0.1,misspecified_affine,3,neural_neural_weighted_clipped_fqe,1.259469069493779,0.07983221277811209,1.3004108171608837,0.07252180047387462,-8.78950659073608,-11.831586406340458,3.042079815604378,3.042079815604378,9.254249604507567,15.17978834941403,0.33790545052214643,1.2344056405998087,0.08618337289982403,1.1812171335774055,0.07581261947265035,0.22583246865813067,0.21135300920359087,1.0,0.02428482531537996,1.039702830955397,1.0296575386970093,1.0352248899497796,1.039702616132235,3997.6423794507864,0.9994105948626966,0.01,0.0,1.039548614025116,0.02495456882697675,nan,0.015722410509790532,0.0005897527405985195,219.24122976376503,0.0,stable,0.95,0.95,discounted,matched_iid,neural,neural_clipped,0.013465430482742286,-0.00013592705130571758,0.008423472795543285,0.009659270143635879,neural_positive_rkhs_moment
gamma_paper,0.95,0.0,4000,0.05,0.1,misspecified_affine,4,linear_standard_fqe,3.109217086172981,0.04071959505846311,3.0543513484853184,0.04056559165947546,-12.05221343998924,-11.831586406340458,-0.2206270336487819,0.2206270336487819,0.04867628797666074,5.237633990803072,0.1560573389284007,2.969767872347905,0.042172782189493066,2.959759404754351,0.037915689518437753,0.3175619666735788,0.3359523144921874,1.0,0.0,1.0,1.0,1.0,1.0,4000.0,1.0,0.0,0.0,nan,0.0,1.0,0.0,0.0,203.55776485185265,0.0,stable,0.95,0.95,discounted,matched_iid,linear,standard,nan,0.0,0.004601987067033325,0.004159318546164558,uniform
gamma_paper,0.95,0.0,4000,0.05,0.1,misspecified_affine,4,linear_oracle_raw_fqe,3.109217086172981,0.04071959505846311,3.0543513484853184,0.04056559165947546,-12.05221343998924,-11.831586406340458,-0.2206270336487819,0.2206270336487819,0.04867628797666074,5.237633990803072,0.1560573389284007,2.969767872347905,0.042172782189493066,2.959759404754351,0.037915689518437753,0.3175619666735788,0.3359523144921874,1.0,0.0,1.0,1.0,1.0,1.0,4000.0,1.0,0.0,0.0,nan,0.0,1.0,0.0,0.0,203.55776485185265,0.0,stable,0.95,0.95,discounted,matched_iid,linear,oracle_raw,0.0,0.0,0.004601987067033325,0.004159318546164558,oracle_exact
gamma_paper,0.95,0.0,4000,0.05,0.1,misspecified_affine,4,linear_oracle_clipped_fqe,3.109217086172981,0.04071959505846311,3.0543513484853184,0.04056559165947546,-12.05221343998924,-11.831586406340458,-0.2206270336487819,0.2206270336487819,0.04867628797666074,5.237633990803072,0.1560573389284007,2.969767872347905,0.042172782189493066,2.959759404754351,0.037915689518437753,0.3175619666735788,0.3359523144921874,1.0,0.0,1.0,1.0,1.0,1.0,4000.0,1.0,0.0,0.0,1.0,0.0,1.0,0.0,0.0,203.55776485185265,0.0,stable,0.95,0.95,discounted,matched_iid,linear,oracle_clipped,0.0,0.0,0.004601987067033325,0.004159318546164558,oracle_exact_clipped
gamma_paper,0.95,0.0,4000,0.05,0.1,misspecified_affine,4,linear_estimated_clipped_fqe,3.144004433044659,0.04028198551936727,3.093069666362124,0.04014536191999811,-12.15987802530676,-11.831586406340458,-0.3282916189663023,0.3282916189663023,0.10777538708351583,5.174165268479256,0.14921705983047456,3.0031645758482846,0.041603422398593326,2.9959076639635853,0.037776398762994066,0.31890249077805727,0.3358833222628951,1.0,0.04857783513722257,1.1583498120447941,1.0532002250098675,1.0774092814911433,1.1583493181504279,3990.582998031898,0.9976457495079746,0.01,0.0,1.1575584793263718,0.05014257372450842,nan,0.03170185909348804,0.0023598060666191758,202.46735073908252,0.0,stable,0.95,0.95,discounted,matched_iid,linear,linear_clipped,0.0007112230247054115,-3.988782905106625e-05,0.002349645189286118,0.0035416657789594493,linear_reduced_moment
gamma_paper,0.95,0.0,4000,0.05,0.1,misspecified_affine,4,linear_neural_weighted_clipped_fqe,2.9678618170397373,0.04020572842841503,2.9120761929185752,0.04046772019045108,-11.97108061499687,-11.831586406340458,-0.13949420865641216,0.13949420865641216,0.019458634248678653,5.31467460257469,0.16294460032939073,2.8350097614285406,0.04229719995497129,2.8196863838770927,0.03740601566065713,0.3153587679126026,0.3377163755836974,1.0,0.029648814621074607,1.036619352994846,1.014931706489098,1.021553691395102,1.036618491819599,3996.4868793826977,0.9991217198456744,0.01,0.0,1.0270967757701874,0.03193511798192764,nan,0.011811232107431761,0.0008790522084348474,200.39605556156334,0.0,stable,0.95,0.95,discounted,matched_iid,linear,neural_clipped,0.023086666215877624,-0.00909080399572848,0.007726436826843301,0.008755155616064506,neural_positive_rkhs_moment
gamma_paper,0.95,0.0,4000,0.05,0.1,misspecified_affine,4,neural_standard_fqe,1.33522843596137,0.06941688678756538,1.2393981352254182,0.06503939164569837,-8.61632319574232,-11.831586406340458,3.2152632105981382,3.2152632105981382,10.337917513425849,15.635756610117314,0.31823150979370696,1.2732255444366076,0.0748532814522289,1.1577439356293648,0.062134536371559246,0.19836648268345244,0.22031780649479393,1.0,0.0,1.0,1.0,1.0,1.0,4000.0,1.0,0.0,0.0,nan,0.0,1.0,0.0,0.0,203.55776485185265,0.0,stable,0.95,0.95,discounted,matched_iid,neural,standard,nan,0.0,0.004601987067033325,0.004159318546164558,uniform
gamma_paper,0.95,0.0,4000,0.05,0.1,misspecified_affine,4,neural_oracle_clipped_fqe,1.33522843596137,0.06941688678756538,1.2393981352254182,0.06503939164569837,-8.61632319574232,-11.831586406340458,3.2152632105981382,3.2152632105981382,10.337917513425849,15.635756610117314,0.31823150979370696,1.2732255444366076,0.0748532814522289,1.1577439356293648,0.062134536371559246,0.19836648268345244,0.22031780649479393,1.0,0.0,1.0,1.0,1.0,1.0,4000.0,1.0,0.0,0.0,1.0,0.0,1.0,0.0,0.0,203.55776485185265,0.0,stable,0.95,0.95,discounted,matched_iid,neural,oracle_clipped,0.0,0.0,0.004601987067033325,0.004159318546164558,oracle_exact_clipped
gamma_paper,0.95,0.0,4000,0.05,0.1,misspecified_affine,4,neural_estimated_clipped_fqe,1.3247897595048546,0.06882157250179728,1.2305276654702249,0.06441652288570822,-8.646960284498979,-11.831586406340458,3.184626121841479,3.184626121841479,10.141843535915097,15.43711393429621,0.315231305546112,1.2632815535544266,0.07399193289939741,1.1493180883586591,0.06149213903083584,0.1950157339138708,0.21596323137532392,1.0,0.04857783513722257,1.1583498120447941,1.0532002250098675,1.0774092814911433,1.1583493181504279,3990.582998031898,0.9976457495079746,0.01,0.0,1.1575584793263718,0.05014257372450842,nan,0.03170185909348804,0.0023598060666191758,202.46735073908252,0.0,stable,0.95,0.95,discounted,matched_iid,neural,linear_clipped,0.0007112230247054115,-3.988782905106625e-05,0.002349645189286118,0.0035416657789594493,linear_reduced_moment
gamma_paper,0.95,0.0,4000,0.05,0.1,misspecified_affine,4,neural_neural_weighted_clipped_fqe,1.3441533561040209,0.07068111118141579,1.2457191399710046,0.06639035394033276,-8.608555819138578,-11.831586406340458,3.2230305872018796,3.2230305872018796,10.387926166038893,15.874507670533383,0.32628268403847666,1.2816573363866435,0.07650386267657655,1.1627500354558904,0.0633049771763323,0.2033453960185786,0.22647464035699638,1.0,0.029648814621074607,1.036619352994846,1.014931706489098,1.021553691395102,1.036618491819599,3996.4868793826977,0.9991217198456744,0.01,0.0,1.0270967757701874,0.03193511798192764,nan,0.011811232107431761,0.0008790522084348474,200.39605556156334,0.0,stable,0.95,0.95,discounted,matched_iid,neural,neural_clipped,0.023086666215877624,-0.00909080399572848,0.007726436826843301,0.008755155616064506,neural_positive_rkhs_moment
gamma_paper,0.95,0.0,4000,0.05,0.1,misspecified_affine,5,linear_standard_fqe,3.4295044087631386,0.04418461597366673,3.516691875542979,0.04345629422291648,-12.328401878253889,-11.831586406340458,-0.4968154719134308,0.4968154719134308,0.24682561313256493,5.053918247353726,0.1371586195125938,3.3437722299820356,0.044340001590689515,3.4234652253131044,0.05009881070729206,0.3754998921405887,0.33682026476293314,1.0,0.0,1.0,1.0,1.0,1.0,4000.0,1.0,0.0,0.0,nan,0.0,1.0,0.0,0.0,209.18167903866018,0.0,stable,0.95,0.95,discounted,matched_iid,linear,standard,nan,0.0,0.016467374737879622,0.01520942985124497,uniform
gamma_paper,0.95,0.0,4000,0.05,0.1,misspecified_affine,5,linear_oracle_raw_fqe,3.4295044087631386,0.04418461597366673,3.516691875542979,0.04345629422291648,-12.328401878253889,-11.831586406340458,-0.4968154719134308,0.4968154719134308,0.24682561313256493,5.053918247353726,0.1371586195125938,3.3437722299820356,0.044340001590689515,3.4234652253131044,0.05009881070729206,0.3754998921405887,0.33682026476293314,1.0,0.0,1.0,1.0,1.0,1.0,4000.0,1.0,0.0,0.0,nan,0.0,1.0,0.0,0.0,209.18167903866018,0.0,stable,0.95,0.95,discounted,matched_iid,linear,oracle_raw,0.0,0.0,0.016467374737879622,0.01520942985124497,oracle_exact
gamma_paper,0.95,0.0,4000,0.05,0.1,misspecified_affine,5,linear_oracle_clipped_fqe,3.4295044087631386,0.04418461597366673,3.516691875542979,0.04345629422291648,-12.328401878253889,-11.831586406340458,-0.4968154719134308,0.4968154719134308,0.24682561313256493,5.053918247353726,0.1371586195125938,3.3437722299820356,0.044340001590689515,3.4234652253131044,0.05009881070729206,0.3754998921405887,0.33682026476293314,1.0,0.0,1.0,1.0,1.0,1.0,4000.0,1.0,0.0,0.0,1.0,0.0,1.0,0.0,0.0,209.18167903866018,0.0,stable,0.95,0.95,discounted,matched_iid,linear,oracle_clipped,0.0,0.0,0.016467374737879622,0.01520942985124497,oracle_exact_clipped
gamma_paper,0.95,0.0,4000,0.05,0.1,misspecified_affine,5,linear_estimated_clipped_fqe,3.423817602722268,0.044844625664512805,3.513769571963853,0.044381231120931584,-12.194166210626761,-11.831586406340458,-0.36257980428630354,0.36257980428630354,0.1314641144762942,5.06536212727,0.1448253991655577,3.3470804084568573,0.045323142555174646,3.4282019622267885,0.05156623454171627,0.3748675679110839,0.3358545093890389,0.9999999999999999,0.058085904421609824,1.0628883071119024,1.0448073677322824,1.0523709457039225,1.0628876149755897,3986.549492469821,0.9966373731174553,0.01,0.0,1.0628110178329662,0.07086810451327033,nan,0.03544048325114813,0.0033739722924763928,205.54609880543396,0.0,stable,0.95,0.95,discounted,matched_iid,linear,linear_clipped,0.002178595260961143,-2.56463870308421e-05,0.005836540909781052,0.004996468082668454,linear_reduced_moment
gamma_paper,0.95,0.0,4000,0.05,0.1,misspecified_affine,5,linear_neural_weighted_clipped_fqe,3.1041058125521874,0.042467545579595554,3.1903513351492667,0.04153991941558997,-12.364112640214252,-11.831586406340458,-0.5325262338737939,0.5325262338737939,0.28358418976380667,5.164443749271919,0.13851924476554217,3.023429723771186,0.04233709870400043,3.096602155292956,0.04827538615062036,0.3760928836636885,0.3370561011090305,0.9999999999999999,0.03574082346203957,1.044129711604101,1.0289736067320463,1.0334706122932642,1.044128650114093,3994.896892895012,0.998724223223753,0.01,0.0,1.0436227309703827,0.03787985344589277,nan,0.02223433385542424,0.0012774064617446781,204.59873812516275,0.0,stable,0.95,0.95,discounted,matched_iid,linear,neural_clipped,0.015159004781421683,-0.0003001375794410288,0.0070277605193458815,0.0048878125141444346,neural_positive_rkhs_moment
gamma_paper,0.95,0.0,4000,0.05,0.1,misspecified_affine,5,neural_standard_fqe,1.294412245414567,0.06586670028420329,1.401689034493003,0.07959893496865515,-8.535934057314059,-11.831586406340458,3.2956523490263994,3.2956523490263994,10.861324405643224,15.998887867707733,0.32635479963659714,1.4419412252993273,0.08699420215103061,1.5364262061779448,0.1063224881350756,0.24314717377090958,0.21110208934547842,1.0,0.0,1.0,1.0,1.0,1.0,4000.0,1.0,0.0,0.0,nan,0.0,1.0,0.0,0.0,209.18167903866018,0.0,stable,0.95,0.95,discounted,matched_iid,neural,standard,nan,0.0,0.016467374737879622,0.01520942985124497,uniform
gamma_paper,0.95,0.0,4000,0.05,0.1,misspecified_affine,5,neural_oracle_clipped_fqe,1.294412245414567,0.06586670028420329,1.401689034493003,0.07959893496865515,-8.535934057314059,-11.831586406340458,3.2956523490263994,3.2956523490263994,10.861324405643224,15.998887867707733,0.32635479963659714,1.4419412252993273,0.08699420215103061,1.5364262061779448,0.1063224881350756,0.24314717377090958,0.21110208934547842,1.0,0.0,1.0,1.0,1.0,1.0,4000.0,1.0,0.0,0.0,1.0,0.0,1.0,0.0,0.0,209.18167903866018,0.0,stable,0.95,0.95,discounted,matched_iid,neural,oracle_clipped,0.0,0.0,0.016467374737879622,0.01520942985124497,oracle_exact_clipped
gamma_paper,0.95,0.0,4000,0.05,0.1,misspecified_affine,5,neural_estimated_clipped_fqe,1.2784422742535226,0.06593031959254836,1.389895575768071,0.08031245428548667,-8.590469945619201,-11.831586406340458,3.2411164607212566,3.2411164607212566,10.504835911958285,15.921950962596119,0.3311427228589716,1.4289050253831856,0.08757862176093041,1.5271650949064097,0.10769174049552502,0.24352021975009466,0.20936652748348764,0.9999999999999999,0.058085904421609824,1.0628883071119024,1.0448073677322824,1.0523709457039225,1.0628876149755897,3986.549492469821,0.9966373731174553,0.01,0.0,1.0628110178329662,0.07086810451327033,nan,0.03544048325114813,0.0033739722924763928,205.54609880543396,0.0,stable,0.95,0.95,discounted,matched_iid,neural,linear_clipped,0.002178595260961143,-2.56463870308421e-05,0.005836540909781052,0.004996468082668454,linear_reduced_moment
gamma_paper,0.95,0.0,4000,0.05,0.1,misspecified_affine,5,neural_neural_weighted_clipped_fqe,1.298417810750149,0.0667910645212139,1.4072902474767695,0.08066635926075162,-8.534345214668354,-11.831586406340458,3.2972411916721036,3.2972411916721036,10.871799476059273,16.147409703859196,0.3318197437248167,1.4501879666086706,0.08834545735312271,1.54513608501214,0.10774081317319276,0.24699066077909168,0.21408816590950597,0.9999999999999999,0.03574082346203957,1.044129711604101,1.0289736067320463,1.0334706122932642,1.044128650114093,3994.896892895012,0.998724223223753,0.01,0.0,1.0436227309703827,0.03787985344589277,nan,0.02223433385542424,0.0012774064617446781,204.59873812516275,0.0,stable,0.95,0.95,discounted,matched_iid,neural,neural_clipped,0.015159004781421683,-0.0003001375794410288,0.0070277605193458815,0.0048878125141444346,neural_positive_rkhs_moment
gamma_paper,0.95,0.0,4000,0.05,0.1,misspecified_affine,6,linear_standard_fqe,3.585912555782436,0.05428978241305144,3.577030838881001,0.04916690011534783,-12.307580123052972,-11.831586406340458,-0.4759937167125141,0.4759937167125141,0.22657001834979315,5.441246736101443,0.1829424527496258,3.369930961370063,0.04276950385935027,3.449665070837589,0.05195718831296795,0.37344151953562343,0.4205184908107693,1.0,0.0,1.0,1.0,1.0,1.0,4000.0,1.0,0.0,0.0,nan,0.0,1.0,0.0,0.0,200.10664011063864,0.0,stable,0.95,0.95,discounted,matched_iid,linear,standard,nan,0.0,0.0069554972689849035,0.005175887218158247,uniform
gamma_paper,0.95,0.0,4000,0.05,0.1,misspecified_affine,6,linear_oracle_raw_fqe,3.585912555782436,0.05428978241305144,3.577030838881001,0.04916690011534783,-12.307580123052972,-11.831586406340458,-0.4759937167125141,0.4759937167125141,0.22657001834979315,5.441246736101443,0.1829424527496258,3.369930961370063,0.04276950385935027,3.449665070837589,0.05195718831296795,0.37344151953562343,0.4205184908107693,1.0,0.0,1.0,1.0,1.0,1.0,4000.0,1.0,0.0,0.0,nan,0.0,1.0,0.0,0.0,200.10664011063864,0.0,stable,0.95,0.95,discounted,matched_iid,linear,oracle_raw,0.0,0.0,0.0069554972689849035,0.005175887218158247,oracle_exact
gamma_paper,0.95,0.0,4000,0.05,0.1,misspecified_affine,6,linear_oracle_clipped_fqe,3.585912555782436,0.05428978241305144,3.577030838881001,0.04916690011534783,-12.307580123052972,-11.831586406340458,-0.4759937167125141,0.4759937167125141,0.22657001834979315,5.441246736101443,0.1829424527496258,3.369930961370063,0.04276950385935027,3.449665070837589,0.05195718831296795,0.37344151953562343,0.4205184908107693,1.0,0.0,1.0,1.0,1.0,1.0,4000.0,1.0,0.0,0.0,1.0,0.0,1.0,0.0,0.0,200.10664011063864,0.0,stable,0.95,0.95,discounted,matched_iid,linear,oracle_clipped,0.0,0.0,0.0069554972689849035,0.005175887218158247,oracle_exact_clipped
gamma_paper,0.95,0.0,4000,0.05,0.1,misspecified_affine,6,linear_estimated_clipped_fqe,3.1664290133930466,0.05486251472846706,3.1495403491321734,0.048881555866363856,-12.170586450866747,-11.831586406340458,-0.33900004452628885,0.33900004452628885,0.11492103018882582,5.673291460300374,0.19569726029954287,2.9444625932478465,0.04102703933799241,3.0282849994507184,0.05199764605084846,0.373521190295579,0.421002904663699,0.9999999999999998,0.08435563806640761,1.2601534431075883,1.10432228846046,1.182800093349377,1.2601475818901196,3971.7376168538194,0.9929344042134548,0.01,0.0,1.259907257713335,0.08454639547706576,nan,0.05599014869781251,0.007115873673590755,205.23490995656067,0.0,stable,0.95,0.95,discounted,matched_iid,linear,linear_clipped,0.0021001815697108757,-2.101793753606085e-05,0.0019249739078955846,0.002640235097298074,linear_reduced_moment
gamma_paper,0.95,0.0,4000,0.05,0.1,misspecified_affine,6,linear_neural_weighted_clipped_fqe,3.2679816445070533,0.055867008281830915,3.2487957343790344,0.049547648374854536,-12.12748555344986,-11.831586406340458,-0.29589914710940235,0.29589914710940235,0.08755630526007173,5.594969884502411,0.19955341752487524,3.049356911303808,0.041786378776500106,3.1369332921376274,0.053138888149327025,0.38146326921563695,0.43765140235495015,1.0,0.052481090299589875,1.0491474925586055,1.0361134196925292,1.0405961661664003,1.0491473013703605,3989.013201197501,0.9972533002993753,0.01,0.0,1.0556215798854829,0.0587302664343031,nan,0.03273989347539713,0.0027542648390337064,192.77353397010071,0.0,stable,0.95,0.95,discounted,matched_iid,linear,neural_clipped,0.05811667626775629,0.006207050263881575,0.02149406282549871,0.02078147422062076,neural_positive_rkhs_moment
gamma_paper,0.95,0.0,4000,0.05,0.1,misspecified_affine,6,neural_standard_fqe,1.716077151790767,0.11249711303021455,1.6019269442607078,0.09819705801880667,-8.661695655496649,-11.831586406340458,3.169890750843809,3.169890750843809,10.048207372285127,17.85078781679392,0.43709674372531276,1.457510195822937,0.08944450905952485,1.672970459120376,0.11473654988353306,0.2896925686635262,0.3375884545877227,1.0,0.0,1.0,1.0,1.0,1.0,4000.0,1.0,0.0,0.0,nan,0.0,1.0,0.0,0.0,200.10664011063864,0.0,stable,0.95,0.95,discounted,matched_iid,neural,standard,nan,0.0,0.0069554972689849035,0.005175887218158247,uniform
gamma_paper,0.95,0.0,4000,0.05,0.1,misspecified_affine,6,neural_oracle_clipped_fqe,1.716077151790767,0.11249711303021455,1.6019269442607078,0.09819705801880667,-8.661695655496649,-11.831586406340458,3.169890750843809,3.169890750843809,10.048207372285127,17.85078781679392,0.43709674372531276,1.457510195822937,0.08944450905952485,1.672970459120376,0.11473654988353306,0.2896925686635262,0.3375884545877227,1.0,0.0,1.0,1.0,1.0,1.0,4000.0,1.0,0.0,0.0,1.0,0.0,1.0,0.0,0.0,200.10664011063864,0.0,stable,0.95,0.95,discounted,matched_iid,neural,oracle_clipped,0.0,0.0,0.0069554972689849035,0.005175887218158247,oracle_exact_clipped
gamma_paper,0.95,0.0,4000,0.05,0.1,misspecified_affine,6,neural_estimated_clipped_fqe,1.7336924406896421,0.11437053833856914,1.6180376627689597,0.09973758657446348,-8.617442410668087,-11.831586406340458,3.214143995672371,3.214143995672371,10.330721624916755,18.272807932803406,0.44396095399205354,1.4747651474604784,0.09138030107342665,1.6923703760590736,0.11673023091430174,0.2974732199735008,0.3464190277685936,0.9999999999999998,0.08435563806640761,1.2601534431075883,1.10432228846046,1.182800093349377,1.2601475818901196,3971.7376168538194,0.9929344042134548,0.01,0.0,1.259907257713335,0.08454639547706576,nan,0.05599014869781251,0.007115873673590755,205.23490995656067,0.0,stable,0.95,0.95,discounted,matched_iid,neural,linear_clipped,0.0021001815697108757,-2.101793753606085e-05,0.0019249739078955846,0.002640235097298074,linear_reduced_moment
gamma_paper,0.95,0.0,4000,0.05,0.1,misspecified_affine,6,neural_neural_weighted_clipped_fqe,1.7181305008847774,0.11496432959162134,1.6003180599486664,0.10019107039024305,-8.667799725182453,-11.831586406340458,3.1637866811580047,3.1637866811580047,10.009546163872782,18.011267229458973,0.4473621953593478,1.4495859220722278,0.09074436313164176,1.67126335290037,0.116801757659002,0.2995498276310512,0.3505341347478076,1.0,0.052481090299589875,1.0491474925586055,1.0361134196925292,1.0405961661664003,1.0491473013703605,3989.013201197501,0.9972533002993753,0.01,0.0,1.0556215798854829,0.0587302664343031,nan,0.03273989347539713,0.0027542648390337064,192.77353397010071,0.0,stable,0.95,0.95,discounted,matched_iid,neural,neural_clipped,0.05811667626775629,0.006207050263881575,0.02149406282549871,0.02078147422062076,neural_positive_rkhs_moment
gamma_paper,0.95,0.0,4000,0.05,0.1,misspecified_affine,7,linear_standard_fqe,3.0419727940518086,0.03832395478940496,3.011651502997477,0.03828050588977346,-12.485090716199522,-11.831586406340458,-0.6535043098590645,0.6535043098590645,0.42706788300437215,5.028063807969611,0.1207617799612739,2.879594237850962,0.041792021067224815,2.8655696712404994,0.03954665144477372,0.36755056175531203,0.359767760318977,1.0,0.0,1.0,1.0,1.0,1.0,4000.0,1.0,0.0,0.0,nan,0.0,1.0,0.0,0.0,208.2175059390566,0.0,stable,0.95,0.95,discounted,matched_iid,linear,standard,nan,0.0,0.004947913543103644,0.004530317836140428,uniform
gamma_paper,0.95,0.0,4000,0.05,0.1,misspecified_affine,7,linear_oracle_raw_fqe,3.0419727940518086,0.03832395478940496,3.011651502997477,0.03828050588977346,-12.485090716199522,-11.831586406340458,-0.6535043098590645,0.6535043098590645,0.42706788300437215,5.028063807969611,0.1207617799612739,2.879594237850962,0.041792021067224815,2.8655696712404994,0.03954665144477372,0.36755056175531203,0.359767760318977,1.0,0.0,1.0,1.0,1.0,1.0,4000.0,1.0,0.0,0.0,nan,0.0,1.0,0.0,0.0,208.2175059390566,0.0,stable,0.95,0.95,discounted,matched_iid,linear,oracle_raw,0.0,0.0,0.004947913543103644,0.004530317836140428,oracle_exact
gamma_paper,0.95,0.0,4000,0.05,0.1,misspecified_affine,7,linear_oracle_clipped_fqe,3.0419727940518086,0.03832395478940496,3.011651502997477,0.03828050588977346,-12.485090716199522,-11.831586406340458,-0.6535043098590645,0.6535043098590645,0.42706788300437215,5.028063807969611,0.1207617799612739,2.879594237850962,0.041792021067224815,2.8655696712404994,0.03954665144477372,0.36755056175531203,0.359767760318977,1.0,0.0,1.0,1.0,1.0,1.0,4000.0,1.0,0.0,0.0,1.0,0.0,1.0,0.0,0.0,208.2175059390566,0.0,stable,0.95,0.95,discounted,matched_iid,linear,oracle_clipped,0.0,0.0,0.004947913543103644,0.004530317836140428,oracle_exact_clipped
gamma_paper,0.95,0.0,4000,0.05,0.1,misspecified_affine,7,linear_estimated_clipped_fqe,3.4242676038321296,0.04165720662530825,3.398136711253781,0.04182515390250709,-12.178099463714467,-11.831586406340458,-0.3465130573740094,0.3465130573740094,0.12007129893068352,4.832129826963944,0.13382500914108958,3.2634201335373523,0.04600640582009118,3.2464049507357764,0.04354470942605621,0.3687137671828033,0.3582640789853821,1.0,0.05289800948856576,1.1269274261311317,1.046188106309882,1.0633020902913368,1.1269042503477056,3988.8384346541325,0.9972096086635331,0.01,0.0,1.12639270982139,0.05648950026075481,nan,0.03692069967216744,0.0027981994078523933,208.59589306028406,0.0,stable,0.95,0.95,discounted,matched_iid,linear,linear_clipped,0.0014866395683996955,-6.114264661571944e-06,0.005551768157176136,0.004697716819589143,linear_reduced_moment
gamma_paper,0.95,0.0,4000,0.05,0.1,misspecified_affine,7,linear_neural_weighted_clipped_fqe,3.112299506321697,0.03820472361005458,3.0810482465547397,0.03811357306323057,-12.584816385597856,-11.831586406340458,-0.753229979257398,0.753229979257398,0.5673554016521002,5.050323186222969,0.11543147647576348,2.9493480323376784,0.04165033660134264,2.934999372484915,0.039441027600503616,0.3679821800922738,0.36073882238329197,1.0,0.04188274602903319,1.1915365075201187,1.050291839457479,1.095507688554265,1.1915188911711996,3992.99562915835,0.9982489072895875,0.01,0.0,1.190663714408874,0.039992002783256535,nan,0.02751075326747467,0.0017541644149324958,211.05621333597506,0.0,stable,0.95,0.95,discounted,matched_iid,linear,neural_clipped,0.019467720460249603,-0.00013340157270436137,0.011392359640014137,0.010910964521111855,neural_positive_rkhs_moment
gamma_paper,0.95,0.0,4000,0.05,0.1,misspecified_affine,7,neural_standard_fqe,1.4427314457435754,0.070385911342656,1.3997613282145172,0.06888476836797812,-8.82395965814465,-11.831586406340458,3.0076267481958077,3.0076267481958077,9.045818656462888,13.897812350016341,0.2892663433900314,1.397780808892506,0.07450478419421618,1.3925420691926012,0.07651648549752815,0.22190091566132564,0.22854589386058222,1.0,0.0,1.0,1.0,1.0,1.0,4000.0,1.0,0.0,0.0,nan,0.0,1.0,0.0,0.0,208.2175059390566,0.0,stable,0.95,0.95,discounted,matched_iid,neural,standard,nan,0.0,0.004947913543103644,0.004530317836140428,uniform
gamma_paper,0.95,0.0,4000,0.05,0.1,misspecified_affine,7,neural_oracle_clipped_fqe,1.4427314457435754,0.070385911342656,1.3997613282145172,0.06888476836797812,-8.82395965814465,-11.831586406340458,3.0076267481958077,3.0076267481958077,9.045818656462888,13.897812350016341,0.2892663433900314,1.397780808892506,0.07450478419421618,1.3925420691926012,0.07651648549752815,0.22190091566132564,0.22854589386058222,1.0,0.0,1.0,1.0,1.0,1.0,4000.0,1.0,0.0,0.0,1.0,0.0,1.0,0.0,0.0,208.2175059390566,0.0,stable,0.95,0.95,discounted,matched_iid,neural,oracle_clipped,0.0,0.0,0.004947913543103644,0.004530317836140428,oracle_exact_clipped
gamma_paper,0.95,0.0,4000,0.05,0.1,misspecified_affine,7,neural_estimated_clipped_fqe,1.466454223362041,0.0726298766432652,1.4251225336081095,0.07136910621793803,-8.762699592329467,-11.831586406340458,3.068886814010991,3.068886814010991,9.418066277210531,14.430866864753387,0.3004118796718231,1.421397187802715,0.07730702230918446,1.4159733530808174,0.0791604649018991,0.23672140310214335,0.24169640394558597,1.0,0.05289800948856576,1.1269274261311317,1.046188106309882,1.0633020902913368,1.1269042503477056,3988.8384346541325,0.9972096086635331,0.01,0.0,1.12639270982139,0.05648950026075481,nan,0.03692069967216744,0.0027981994078523933,208.59589306028406,0.0,stable,0.95,0.95,discounted,matched_iid,neural,linear_clipped,0.0014866395683996955,-6.114264661571944e-06,0.005551768157176136,0.004697716819589143,linear_reduced_moment
gamma_paper,0.95,0.0,4000,0.05,0.1,misspecified_affine,7,neural_neural_weighted_clipped_fqe,1.4378661841458165,0.07012196872329879,1.3946514435387052,0.068595313454477,-8.845454672247918,-11.831586406340458,2.98613173409254,2.98613173409254,8.91698273335452,13.779670769462381,0.2882227048079701,1.3925807779608212,0.07413590458553414,1.3872712393729738,0.07619399945167206,0.21940210489731315,0.22636776882715834,1.0,0.04188274602903319,1.1915365075201187,1.050291839457479,1.095507688554265,1.1915188911711996,3992.99562915835,0.9982489072895875,0.01,0.0,1.190663714408874,0.039992002783256535,nan,0.02751075326747467,0.0017541644149324958,211.05621333597506,0.0,stable,0.95,0.95,discounted,matched_iid,neural,neural_clipped,0.019467720460249603,-0.00013340157270436137,0.011392359640014137,0.010910964521111855,neural_positive_rkhs_moment
gamma_paper,0.95,0.0,4000,0.05,0.1,misspecified_affine,8,linear_standard_fqe,2.17722507280341,0.030707028864610943,2.205152641361931,0.050936555565052145,-12.33816484900529,-11.831586406340458,-0.5065784426648321,0.5065784426648321,0.2566217185727266,5.413759540951416,0.13805555847480203,2.104637838356789,0.03819255481745529,2.1115937557442708,0.046884088715288416,0.3955186393666006,0.3427052492191327,1.0,0.0,1.0,1.0,1.0,1.0,4000.0,1.0,0.0,0.0,nan,0.0,1.0,0.0,0.0,203.07908136836227,0.0,stable,0.95,0.95,discounted,matched_iid,linear,standard,nan,0.0,0.009143511065783892,0.010815559173889985,uniform
gamma_paper,0.95,0.0,4000,0.05,0.1,misspecified_affine,8,linear_oracle_raw_fqe,2.17722507280341,0.030707028864610943,2.205152641361931,0.050936555565052145,-12.33816484900529,-11.831586406340458,-0.5065784426648321,0.5065784426648321,0.2566217185727266,5.413759540951416,0.13805555847480203,2.104637838356789,0.03819255481745529,2.1115937557442708,0.046884088715288416,0.3955186393666006,0.3427052492191327,1.0,0.0,1.0,1.0,1.0,1.0,4000.0,1.0,0.0,0.0,nan,0.0,1.0,0.0,0.0,203.07908136836227,0.0,stable,0.95,0.95,discounted,matched_iid,linear,oracle_raw,0.0,0.0,0.009143511065783892,0.010815559173889985,oracle_exact
gamma_paper,0.95,0.0,4000,0.05,0.1,misspecified_affine,8,linear_oracle_clipped_fqe,2.17722507280341,0.030707028864610943,2.205152641361931,0.050936555565052145,-12.33816484900529,-11.831586406340458,-0.5065784426648321,0.5065784426648321,0.2566217185727266,5.413759540951416,0.13805555847480203,2.104637838356789,0.03819255481745529,2.1115937557442708,0.046884088715288416,0.3955186393666006,0.3427052492191327,1.0,0.0,1.0,1.0,1.0,1.0,4000.0,1.0,0.0,0.0,1.0,0.0,1.0,0.0,0.0,203.07908136836227,0.0,stable,0.95,0.95,discounted,matched_iid,linear,oracle_clipped,0.0,0.0,0.009143511065783892,0.010815559173889985,oracle_exact_clipped
gamma_paper,0.95,0.0,4000,0.05,0.1,misspecified_affine,8,linear_estimated_clipped_fqe,2.9499384483300464,0.036119709941770474,2.9627676393114775,0.05433256185780408,-12.123508923103607,-11.831586406340458,-0.2919225167631492,0.2919225167631492,0.08521875579333112,5.073776615345657,0.14194028280109353,2.8736542687604683,0.04301614112022473,2.8615637247406975,0.051366986831483115,0.3926093667461335,0.3407796362740402,1.0,0.07394926446150407,1.2653663959986579,1.0920722867635746,1.1286480348562298,1.2653090101328373,3978.2449922654637,0.9945612480663659,0.01,0.0,1.2643925268917633,0.07243802614939764,nan,0.0570532975899293,0.00546849371439747,207.3058590484247,0.0,stable,0.95,0.95,discounted,matched_iid,linear,linear_clipped,0.0010340945096808467,-1.0291026151243443e-05,0.0040721044630009666,0.003807493508081259,linear_reduced_moment
gamma_paper,0.95,0.0,4000,0.05,0.1,misspecified_affine,8,linear_neural_weighted_clipped_fqe,2.2562414632224717,0.031171258384817834,2.281886069597702,0.05100316356266768,-12.332737569719614,-11.831586406340458,-0.5011511633791557,0.5011511633791557,0.2511524885562812,5.380182114983122,0.13724093703905577,2.1826971313969454,0.03847467284437817,2.1874257825185777,0.0470832219307135,0.39436149849432733,0.3418586941917365,1.0,0.034680215774609266,1.1263822868107123,1.0265392278311636,1.0369106459266935,1.1263720863481248,3995.1949097008546,0.9987987274252137,0.01,0.0,1.125574275255203,0.034839537509731976,nan,0.024224168004759055,0.0012027173661734575,204.1890880140687,0.0,stable,0.95,0.95,discounted,matched_iid,linear,neural_clipped,0.02047099068561348,-0.0003038436174392922,0.007590329249858662,0.0074908480324716465,neural_positive_rkhs_moment
gamma_paper,0.95,0.0,4000,0.05,0.1,misspecified_affine,8,neural_standard_fqe,1.3305993255976991,0.07555674804454798,1.4818060467591876,0.10908812730915002,-8.553467583572093,-11.831586406340458,3.2781188227683646,3.2781188227683646,10.746063016188248,16.45464914022548,0.3514998582134963,1.3879839029840246,0.09598482296532196,1.4443641224530632,0.11160445670199158,0.33275657694046434,0.2672295879445266,1.0,0.0,1.0,1.0,1.0,1.0,4000.0,1.0,0.0,0.0,nan,0.0,1.0,0.0,0.0,203.07908136836227,0.0,stable,0.95,0.95,discounted,matched_iid,neural,standard,nan,0.0,0.009143511065783892,0.010815559173889985,uniform
gamma_paper,0.95,0.0,4000,0.05,0.1,misspecified_affine,8,neural_oracle_clipped_fqe,1.3305993255976991,0.07555674804454798,1.4818060467591876,0.10908812730915002,-8.553467583572093,-11.831586406340458,3.2781188227683646,3.2781188227683646,10.746063016188248,16.45464914022548,0.3514998582134963,1.3879839029840246,0.09598482296532196,1.4443641224530632,0.11160445670199158,0.33275657694046434,0.2672295879445266,1.0,0.0,1.0,1.0,1.0,1.0,4000.0,1.0,0.0,0.0,1.0,0.0,1.0,0.0,0.0,203.07908136836227,0.0,stable,0.95,0.95,discounted,matched_iid,neural,oracle_clipped,0.0,0.0,0.009143511065783892,0.010815559173889985,oracle_exact_clipped
gamma_paper,0.95,0.0,4000,0.05,0.1,misspecified_affine,8,neural_estimated_clipped_fqe,1.3161590837984027,0.07424121722977639,1.4651870598701264,0.10723100075184605,-8.57384140247873,-11.831586406340458,3.2577450038617286,3.2577450038617286,10.612902510186053,16.191605429591863,0.344972488398443,1.3724857408947264,0.09425259598836568,1.4281223321832444,0.10963974988108949,0.3256739116942301,0.26101248590791487,1.0,0.07394926446150407,1.2653663959986579,1.0920722867635746,1.1286480348562298,1.2653090101328373,3978.2449922654637,0.9945612480663659,0.01,0.0,1.2643925268917633,0.07243802614939764,nan,0.0570532975899293,0.00546849371439747,207.3058590484247,0.0,stable,0.95,0.95,discounted,matched_iid,neural,linear_clipped,0.0010340945096808467,-1.0291026151243443e-05,0.0040721044630009666,0.003807493508081259,linear_reduced_moment
gamma_paper,0.95,0.0,4000,0.05,0.1,misspecified_affine,8,neural_neural_weighted_clipped_fqe,1.3285384377351275,0.07520479059256276,1.4790825885543164,0.10851056792977479,-8.554642432826734,-11.831586406340458,3.276943973513724,3.276943973513724,10.738361805547914,16.400642211163095,0.34949082906892404,1.3854219487155865,0.09546645691629693,1.4416258930970367,0.11101771382635285,0.33041747372283203,0.26531898115432545,1.0,0.034680215774609266,1.1263822868107123,1.0265392278311636,1.0369106459266935,1.1263720863481248,3995.1949097008546,0.9987987274252137,0.01,0.0,1.125574275255203,0.034839537509731976,nan,0.024224168004759055,0.0012027173661734575,204.1890880140687,0.0,stable,0.95,0.95,discounted,matched_iid,neural,neural_clipped,0.02047099068561348,-0.0003038436174392922,0.007590329249858662,0.0074908480324716465,neural_positive_rkhs_moment
gamma_paper,0.95,0.0,4000,0.05,0.1,misspecified_affine,9,linear_standard_fqe,2.915933764177117,0.039169161406174276,2.9438247031628966,0.05236015680254598,-12.288785520933331,-11.831586406340458,-0.4571991145928731,0.4571991145928731,0.2090310303845071,5.660451716037528,0.18291085514030772,2.7948049139696765,0.039377531677719874,2.740805415165647,0.0437624756881502,0.4236154711504393,0.3597370180603709,1.0,0.0,1.0,1.0,1.0,1.0,4000.0,1.0,0.0,0.0,nan,0.0,1.0,0.0,0.0,200.03218927445107,0.0,stable,0.95,0.95,discounted,matched_iid,linear,standard,nan,0.0,0.008352252192575384,0.01009704597335541,uniform
gamma_paper,0.95,0.0,4000,0.05,0.1,misspecified_affine,9,linear_oracle_raw_fqe,2.915933764177117,0.039169161406174276,2.9438247031628966,0.05236015680254598,-12.288785520933331,-11.831586406340458,-0.4571991145928731,0.4571991145928731,0.2090310303845071,5.660451716037528,0.18291085514030772,2.7948049139696765,0.039377531677719874,2.740805415165647,0.0437624756881502,0.4236154711504393,0.3597370180603709,1.0,0.0,1.0,1.0,1.0,1.0,4000.0,1.0,0.0,0.0,nan,0.0,1.0,0.0,0.0,200.03218927445107,0.0,stable,0.95,0.95,discounted,matched_iid,linear,oracle_raw,0.0,0.0,0.008352252192575384,0.01009704597335541,oracle_exact
gamma_paper,0.95,0.0,4000,0.05,0.1,misspecified_affine,9,linear_oracle_clipped_fqe,2.915933764177117,0.039169161406174276,2.9438247031628966,0.05236015680254598,-12.288785520933331,-11.831586406340458,-0.4571991145928731,0.4571991145928731,0.2090310303845071,5.660451716037528,0.18291085514030772,2.7948049139696765,0.039377531677719874,2.740805415165647,0.0437624756881502,0.4236154711504393,0.3597370180603709,1.0,0.0,1.0,1.0,1.0,1.0,4000.0,1.0,0.0,0.0,1.0,0.0,1.0,0.0,0.0,200.03218927445107,0.0,stable,0.95,0.95,discounted,matched_iid,linear,oracle_clipped,0.0,0.0,0.008352252192575384,0.01009704597335541,oracle_exact_clipped
gamma_paper,0.95,0.0,4000,0.05,0.1,misspecified_affine,9,linear_estimated_clipped_fqe,3.7331566976457817,0.04423300774937309,3.7499378342667753,0.05676798374188975,-12.07819458228297,-11.831586406340458,-0.24660817594251228,0.24660817594251228,0.060815592441693093,5.397029445990597,0.1888897210376437,3.6092102293987254,0.0451869285906363,3.536076264746264,0.04915086404123652,0.423793260544888,0.35792117013187175,1.0,0.0808782095163042,1.2955044486552167,1.0900711749223029,1.1255033102459322,1.2954964403917824,3974.0049022389444,0.9935012255597361,0.01,0.0,1.2937515458267348,0.07981610297519641,nan,0.06083473286981675,0.006541284774563199,205.4611224831407,0.0,stable,0.95,0.95,discounted,matched_iid,linear,linear_clipped,0.005476516663984123,-3.918813751968564e-05,0.004994802354111749,0.0037964887991006175,linear_reduced_moment
gamma_paper,0.95,0.0,4000,0.05,0.1,misspecified_affine,9,linear_neural_weighted_clipped_fqe,3.1360374587210087,0.039535557293670795,3.150685680838887,0.051314020972922085,-12.42113866533219,-11.831586406340458,-0.5895522589917324,0.5895522589917324,0.34757186608225465,5.604545939769714,0.17226864489901308,3.0091712674337927,0.039987497310120884,2.951905836402707,0.04392553611775682,0.42274206712290485,0.3659304703805327,1.0,0.05388018310058481,1.2574632538566983,1.0547681442805585,1.12326252494253,1.2574460539760601,3988.42131725055,0.9971053293126375,0.01,0.0,1.2564239048957822,0.05016826414556414,nan,0.03338669785364897,0.0029030741309525447,207.10897307086725,0.0,stable,0.95,0.95,discounted,matched_iid,linear,neural_clipped,0.0228552189711467,-0.00039537894725794054,0.01326591611208375,0.011364340977206906,neural_positive_rkhs_moment
gamma_paper,0.95,0.0,4000,0.05,0.1,misspecified_affine,9,neural_standard_fqe,1.4612385881853278,0.0730299195806727,1.7323222896067898,0.09514038222232847,-8.616642743349308,-11.831586406340458,3.21494366299115,3.21494366299115,10.335862756206952,16.685460143164917,0.3663475418502128,1.507067352156685,0.08398806588096072,1.5287594955861605,0.0882863793824513,0.2816791505709991,0.20953854201464708,1.0,0.0,1.0,1.0,1.0,1.0,4000.0,1.0,0.0,0.0,nan,0.0,1.0,0.0,0.0,200.03218927445107,0.0,stable,0.95,0.95,discounted,matched_iid,neural,standard,nan,0.0,0.008352252192575384,0.01009704597335541,uniform
gamma_paper,0.95,0.0,4000,0.05,0.1,misspecified_affine,9,neural_oracle_clipped_fqe,1.4612385881853278,0.0730299195806727,1.7323222896067898,0.09514038222232847,-8.616642743349308,-11.831586406340458,3.21494366299115,3.21494366299115,10.335862756206952,16.685460143164917,0.3663475418502128,1.507067352156685,0.08398806588096072,1.5287594955861605,0.0882863793824513,0.2816791505709991,0.20953854201464708,1.0,0.0,1.0,1.0,1.0,1.0,4000.0,1.0,0.0,0.0,1.0,0.0,1.0,0.0,0.0,200.03218927445107,0.0,stable,0.95,0.95,discounted,matched_iid,neural,oracle_clipped,0.0,0.0,0.008352252192575384,0.01009704597335541,oracle_exact_clipped
gamma_paper,0.95,0.0,4000,0.05,0.1,misspecified_affine,9,neural_estimated_clipped_fqe,1.480868504867522,0.07460471822298977,1.7591890116532949,0.09744199500946477,-8.56065788595694,-11.831586406340458,3.2709285203835172,3.2709285203835172,10.698973385458306,17.087577499162386,0.3744598553843606,1.5244465856126224,0.08511520085719211,1.5446534402394694,0.08952119034024109,0.2947392178145581,0.21789074424258795,1.0,0.0808782095163042,1.2955044486552167,1.0900711749223029,1.1255033102459322,1.2954964403917824,3974.0049022389444,0.9935012255597361,0.01,0.0,1.2937515458267348,0.07981610297519641,nan,0.06083473286981675,0.006541284774563199,205.4611224831407,0.0,stable,0.95,0.95,discounted,matched_iid,neural,linear_clipped,0.005476516663984123,-3.918813751968564e-05,0.004994802354111749,0.0037964887991006175,linear_reduced_moment
gamma_paper,0.95,0.0,4000,0.05,0.1,misspecified_affine,9,neural_neural_weighted_clipped_fqe,1.4587366106899304,0.07240689449641073,1.7278845811257098,0.09432099817217912,-8.621813403018193,-11.831586406340458,3.2097730033222653,3.2097730033222653,10.302642732856436,16.572036220008165,0.3629360764757014,1.5043870010832603,0.0833022573826319,1.526351222656685,0.08757510971594203,0.27928954465664335,0.20801548711293957,1.0,0.05388018310058481,1.2574632538566983,1.0547681442805585,1.12326252494253,1.2574460539760601,3988.42131725055,0.9971053293126375,0.01,0.0,1.2564239048957822,0.05016826414556414,nan,0.03338669785364897,0.0029030741309525447,207.10897307086725,0.0,stable,0.95,0.95,discounted,matched_iid,neural,neural_clipped,0.0228552189711467,-0.00039537894725794054,0.01326591611208375,0.011364340977206906,neural_positive_rkhs_moment
gamma_paper,0.95,0.0,4000,0.05,0.1,misspecified_affine,10,linear_standard_fqe,2.6569483653226427,0.03445987081902621,2.6468273215976286,0.03403712349545754,-12.223912505853113,-11.831586406340458,-0.39232609951265474,0.39232609951265474,0.15391976835881346,5.191468373383416,0.13335875643621364,2.549546213316228,0.043223964547534355,2.5379896041559533,0.04634758680359938,0.3242734256904348,0.34120191580309894,1.0,0.0,1.0,1.0,1.0,1.0,4000.0,1.0,0.0,0.0,nan,0.0,1.0,0.0,0.0,195.55714030837743,0.0,stable,0.95,0.95,discounted,matched_iid,linear,standard,nan,0.0,0.0030020988738783663,0.0007795908272664796,uniform
gamma_paper,0.95,0.0,4000,0.05,0.1,misspecified_affine,10,linear_oracle_raw_fqe,2.6569483653226427,0.03445987081902621,2.6468273215976286,0.03403712349545754,-12.223912505853113,-11.831586406340458,-0.39232609951265474,0.39232609951265474,0.15391976835881346,5.191468373383416,0.13335875643621364,2.549546213316228,0.043223964547534355,2.5379896041559533,0.04634758680359938,0.3242734256904348,0.34120191580309894,1.0,0.0,1.0,1.0,1.0,1.0,4000.0,1.0,0.0,0.0,nan,0.0,1.0,0.0,0.0,195.55714030837743,0.0,stable,0.95,0.95,discounted,matched_iid,linear,oracle_raw,0.0,0.0,0.0030020988738783663,0.0007795908272664796,oracle_exact
gamma_paper,0.95,0.0,4000,0.05,0.1,misspecified_affine,10,linear_oracle_clipped_fqe,2.6569483653226427,0.03445987081902621,2.6468273215976286,0.03403712349545754,-12.223912505853113,-11.831586406340458,-0.39232609951265474,0.39232609951265474,0.15391976835881346,5.191468373383416,0.13335875643621364,2.549546213316228,0.043223964547534355,2.5379896041559533,0.04634758680359938,0.3242734256904348,0.34120191580309894,1.0,0.0,1.0,1.0,1.0,1.0,4000.0,1.0,0.0,0.0,1.0,0.0,1.0,0.0,0.0,195.55714030837743,0.0,stable,0.95,0.95,discounted,matched_iid,linear,oracle_clipped,0.0,0.0,0.0030020988738783663,0.0007795908272664796,oracle_exact_clipped
gamma_paper,0.95,0.0,4000,0.05,0.1,misspecified_affine,10,linear_estimated_clipped_fqe,2.7109488268222357,0.034854154975137996,2.6997095333436794,0.03441678087091364,-12.193031730797953,-11.831586406340458,-0.36144532445749533,0.36144532445749533,0.13064272257218407,5.171461895807733,0.1345765505490667,2.6067047283999147,0.04372025431761527,2.593946686815251,0.04682833764229951,0.32416029127716317,0.34127214384309734,1.0,0.06815131620772948,1.162376887282233,1.074281251177906,1.1067408472410636,1.1623722658174989,3981.507482777261,0.9953768706943152,0.01,0.0,1.1616667601223818,0.07330176130129717,nan,0.04772504251484375,0.004644601900845931,195.21587465100419,0.0,stable,0.95,0.95,discounted,matched_iid,linear,linear_clipped,0.005998990425795444,-2.5432644924827663e-05,0.0024573999058794507,0.0016999396467178606,linear_reduced_moment
gamma_paper,0.95,0.0,4000,0.05,0.1,misspecified_affine,10,linear_neural_weighted_clipped_fqe,2.3251482079067065,0.032192250784218474,2.3181424767310674,0.031724680554515695,-12.318387677533066,-11.831586406340458,-0.48680127119260774,0.48680127119260774,0.23697547763473883,5.3281400193274395,0.13150141962562734,2.220346932833776,0.04115667573780684,2.214518912328447,0.04442587671770831,0.3247505205287862,0.34227328079675223,1.0000000000000002,0.048473598383924635,1.0680047526754726,1.0474630244200864,1.0557634271437732,1.067998831132544,3990.623273437059,0.9976558183592648,0.01,0.0,1.0621458172798155,0.04978266469590211,nan,0.039363563026608886,0.002349689740286021,189.92328476452445,0.0,stable,0.95,0.95,discounted,matched_iid,linear,neural_clipped,0.03807353604289686,-0.005422672361135472,0.015688849477459528,0.0154402439356236,neural_positive_rkhs_moment
gamma_paper,0.95,0.0,4000,0.05,0.1,misspecified_affine,10,neural_standard_fqe,1.4955980676879388,0.07382881194789684,1.4239816701334251,0.07053563606924618,-8.538091053811188,-11.831586406340458,3.29349535252927,3.29349535252927,10.8471116371319,17.351712343222864,0.3491575397450244,1.5342215530058108,0.09308525571522874,1.4914624345414738,0.10086615861140416,0.24095129220967454,0.2619889266746225,1.0,0.0,1.0,1.0,1.0,1.0,4000.0,1.0,0.0,0.0,nan,0.0,1.0,0.0,0.0,195.55714030837743,0.0,stable,0.95,0.95,discounted,matched_iid,neural,standard,nan,0.0,0.0030020988738783663,0.0007795908272664796,uniform
gamma_paper,0.95,0.0,4000,0.05,0.1,misspecified_affine,10,neural_oracle_clipped_fqe,1.4955980676879388,0.07382881194789684,1.4239816701334251,0.07053563606924618,-8.538091053811188,-11.831586406340458,3.29349535252927,3.29349535252927,10.8471116371319,17.351712343222864,0.3491575397450244,1.5342215530058108,0.09308525571522874,1.4914624345414738,0.10086615861140416,0.24095129220967454,0.2619889266746225,1.0,0.0,1.0,1.0,1.0,1.0,4000.0,1.0,0.0,0.0,1.0,0.0,1.0,0.0,0.0,195.55714030837743,0.0,stable,0.95,0.95,discounted,matched_iid,neural,oracle_clipped,0.0,0.0,0.0030020988738783663,0.0007795908272664796,oracle_exact_clipped
gamma_paper,0.95,0.0,4000,0.05,0.1,misspecified_affine,10,neural_estimated_clipped_fqe,1.4969882232661544,0.07384082960851726,1.4259175593754594,0.07059736922022411,-8.51874816072527,-11.831586406340458,3.312838245615188,3.312838245615188,10.974897241610716,17.420195228902056,0.3487523052917634,1.5351571693909567,0.09315315292367592,1.4917953496913439,0.10077693682784691,0.24287585426212216,0.2638865377113592,1.0,0.06815131620772948,1.162376887282233,1.074281251177906,1.1067408472410636,1.1623722658174989,3981.507482777261,0.9953768706943152,0.01,0.0,1.1616667601223818,0.07330176130129717,nan,0.04772504251484375,0.004644601900845931,195.21587465100419,0.0,stable,0.95,0.95,discounted,matched_iid,neural,linear_clipped,0.005998990425795444,-2.5432644924827663e-05,0.0024573999058794507,0.0016999396467178606,linear_reduced_moment
gamma_paper,0.95,0.0,4000,0.05,0.1,misspecified_affine,10,neural_neural_weighted_clipped_fqe,1.4940625215995629,0.07397080935977596,1.4221721393852718,0.07066544590639125,-8.551289560893323,-11.831586406340458,3.2802968454471344,3.2802968454471344,10.760347394250422,17.334428029912914,0.35037997034821206,1.533086278998763,0.09327552239235792,1.490388796749207,0.10114183991220108,0.24055747938619995,0.26159658904579575,1.0000000000000002,0.048473598383924635,1.0680047526754726,1.0474630244200864,1.0557634271437732,1.067998831132544,3990.623273437059,0.9976558183592648,0.01,0.0,1.0621458172798155,0.04978266469590211,nan,0.039363563026608886,0.002349689740286021,189.92328476452445,0.0,stable,0.95,0.95,discounted,matched_iid,neural,neural_clipped,0.03807353604289686,-0.005422672361135472,0.015688849477459528,0.0154402439356236,neural_positive_rkhs_moment
gamma_paper,0.95,0.0,4000,0.05,0.1,misspecified_affine,11,linear_standard_fqe,3.1987191177725234,0.04412127319798878,3.2017736565275534,0.03923940063098104,-12.009582835638689,-11.831586406340458,-0.177996429298231,0.177996429298231,0.03168272884292015,4.972462598876607,0.1556706604092678,3.1425108000564212,0.04785558085831995,3.151313749896037,0.07183671821427973,0.342073287096258,0.36801167416160363,1.0,0.0,1.0,1.0,1.0,1.0,4000.0,1.0,0.0,0.0,nan,0.0,1.0,0.0,0.0,203.76457277762722,0.0,stable,0.95,0.95,discounted,matched_iid,linear,standard,nan,0.0,0.008615008193130437,0.00743912427821821,uniform
gamma_paper,0.95,0.0,4000,0.05,0.1,misspecified_affine,11,linear_oracle_raw_fqe,3.1987191177725234,0.04412127319798878,3.2017736565275534,0.03923940063098104,-12.009582835638689,-11.831586406340458,-0.177996429298231,0.177996429298231,0.03168272884292015,4.972462598876607,0.1556706604092678,3.1425108000564212,0.04785558085831995,3.151313749896037,0.07183671821427973,0.342073287096258,0.36801167416160363,1.0,0.0,1.0,1.0,1.0,1.0,4000.0,1.0,0.0,0.0,nan,0.0,1.0,0.0,0.0,203.76457277762722,0.0,stable,0.95,0.95,discounted,matched_iid,linear,oracle_raw,0.0,0.0,0.008615008193130437,0.00743912427821821,oracle_exact
gamma_paper,0.95,0.0,4000,0.05,0.1,misspecified_affine,11,linear_oracle_clipped_fqe,3.1987191177725234,0.04412127319798878,3.2017736565275534,0.03923940063098104,-12.009582835638689,-11.831586406340458,-0.177996429298231,0.177996429298231,0.03168272884292015,4.972462598876607,0.1556706604092678,3.1425108000564212,0.04785558085831995,3.151313749896037,0.07183671821427973,0.342073287096258,0.36801167416160363,1.0,0.0,1.0,1.0,1.0,1.0,4000.0,1.0,0.0,0.0,1.0,0.0,1.0,0.0,0.0,203.76457277762722,0.0,stable,0.95,0.95,discounted,matched_iid,linear,oracle_clipped,0.0,0.0,0.008615008193130437,0.00743912427821821,oracle_exact_clipped
gamma_paper,0.95,0.0,4000,0.05,0.1,misspecified_affine,11,linear_estimated_clipped_fqe,3.222083711357592,0.04294396094615482,3.225731410572631,0.038522369539033444,-12.177813001098967,-11.831586406340458,-0.3462265947585088,0.3462265947585088,0.11987285491807267,4.907102331956859,0.14570107168439742,3.1650612294061697,0.04658577987882775,3.1752446583224154,0.0694800523914694,0.341461026196931,0.3664649761385118,1.0,0.05422331322340959,1.172738232268546,1.0588945462584443,1.084095939611986,1.1727377208233372,3988.2738061885566,0.9970684515471392,0.01,0.0,1.1715310396757126,0.05486397216430257,nan,0.038217159979262304,0.0029401676969239856,206.1100514086425,0.0,stable,0.95,0.95,discounted,matched_iid,linear,linear_clipped,0.0042590917392030326,-1.0298397882801957e-05,0.005582622845318468,0.004383178189006625,linear_reduced_moment
gamma_paper,0.95,0.0,4000,0.05,0.1,misspecified_affine,11,linear_neural_weighted_clipped_fqe,2.8693603260118996,0.04049745978095767,2.870157040387611,0.03607240646767102,-12.304523891855244,-11.831586406340458,-0.47293748551478565,0.47293748551478565,0.22366986520504809,5.054559596002666,0.1419388145720382,2.80221012942355,0.04376476291394585,2.817428576397835,0.06742667823299521,0.34176338361820163,0.3659101332755044,1.0,0.039801867916764246,1.1567723013782778,1.0460739022012329,1.0664048499265721,1.1567710991892246,3993.673267978657,0.9984183169946642,0.01,0.0,1.1401293325424193,0.039254637034128244,nan,0.029757778640620926,0.001584188689663547,206.5448988006805,0.0,stable,0.95,0.95,discounted,matched_iid,linear,neural_clipped,0.019304800344428608,-0.013872550681233387,0.004133600933301844,0.002914057446867971,neural_positive_rkhs_moment
gamma_paper,0.95,0.0,4000,0.05,0.1,misspecified_affine,11,neural_standard_fqe,1.408262388342621,0.08392787612336679,1.364332200754183,0.07430490208111762,-8.541747831496748,-11.831586406340458,3.28983857484371,3.28983857484371,10.823037848529692,16.552216163257675,0.3602754851993842,1.4323272741743949,0.09456670016012411,1.38734843431629,0.12846781182069578,0.2663253729395968,0.29324130208769655,1.0,0.0,1.0,1.0,1.0,1.0,4000.0,1.0,0.0,0.0,nan,0.0,1.0,0.0,0.0,203.76457277762722,0.0,stable,0.95,0.95,discounted,matched_iid,neural,standard,nan,0.0,0.008615008193130437,0.00743912427821821,uniform
gamma_paper,0.95,0.0,4000,0.05,0.1,misspecified_affine,11,neural_oracle_clipped_fqe,1.408262388342621,0.08392787612336679,1.364332200754183,0.07430490208111762,-8.541747831496748,-11.831586406340458,3.28983857484371,3.28983857484371,10.823037848529692,16.552216163257675,0.3602754851993842,1.4323272741743949,0.09456670016012411,1.38734843431629,0.12846781182069578,0.2663253729395968,0.29324130208769655,1.0,0.0,1.0,1.0,1.0,1.0,4000.0,1.0,0.0,0.0,1.0,0.0,1.0,0.0,0.0,203.76457277762722,0.0,stable,0.95,0.95,discounted,matched_iid,neural,oracle_clipped,0.0,0.0,0.008615008193130437,0.00743912427821821,oracle_exact_clipped
gamma_paper,0.95,0.0,4000,0.05,0.1,misspecified_affine,11,neural_estimated_clipped_fqe,1.3951804623184816,0.08265986888218173,1.351272244852681,0.07316838545928926,-8.572381067328456,-11.831586406340458,3.259205339012002,3.259205339012002,10.62241944184434,16.273240241475225,0.35498415955747686,1.4196235917080806,0.09322345463950711,1.3757049912687653,0.12686829477275402,0.2597763125661632,0.2861739275864818,1.0,0.05422331322340959,1.172738232268546,1.0588945462584443,1.084095939611986,1.1727377208233372,3988.2738061885566,0.9970684515471392,0.01,0.0,1.1715310396757126,0.05486397216430257,nan,0.038217159979262304,0.0029401676969239856,206.1100514086425,0.0,stable,0.95,0.95,discounted,matched_iid,neural,linear_clipped,0.0042590917392030326,-1.0298397882801957e-05,0.005582622845318468,0.004383178189006625,linear_reduced_moment
gamma_paper,0.95,0.0,4000,0.05,0.1,misspecified_affine,11,neural_neural_weighted_clipped_fqe,1.392443116767918,0.08249544010633389,1.3490783869368679,0.07305803224110115,-8.583689479070001,-11.831586406340458,3.2478969272704568,3.2478969272704568,10.548834450172874,16.22124044336369,0.3546220282396351,1.4173710429035604,0.09306121201487891,1.3735178850739025,0.12683761178706934,0.258848947404796,0.28472637111931526,1.0,0.039801867916764246,1.1567723013782778,1.0460739022012329,1.0664048499265721,1.1567710991892246,3993.673267978657,0.9984183169946642,0.01,0.0,1.1401293325424193,0.039254637034128244,nan,0.029757778640620926,0.001584188689663547,206.5448988006805,0.0,stable,0.95,0.95,discounted,matched_iid,neural,neural_clipped,0.019304800344428608,-0.013872550681233387,0.004133600933301844,0.002914057446867971,neural_positive_rkhs_moment
gamma_paper,0.95,0.0,4000,0.05,0.1,misspecified_affine,12,linear_standard_fqe,2.803089679733458,0.03594581548772327,2.896418910126738,0.03639875459294907,-12.195755722667208,-11.831586406340458,-0.3641693163267501,0.3641693163267501,0.13261929095389258,5.38726440382144,0.16118517225533013,2.817085971481578,0.04781934114291431,2.7670016209914476,0.041163000337920655,0.3342874506897271,0.3574809623316623,1.0,0.0,1.0,1.0,1.0,1.0,4000.0,1.0,0.0,0.0,nan,0.0,1.0,0.0,0.0,207.77399123364052,0.0,stable,0.95,0.95,discounted,matched_iid,linear,standard,nan,0.0,0.003249429043552096,0.0030557439603292108,uniform
gamma_paper,0.95,0.0,4000,0.05,0.1,misspecified_affine,12,linear_oracle_raw_fqe,2.803089679733458,0.03594581548772327,2.896418910126738,0.03639875459294907,-12.195755722667208,-11.831586406340458,-0.3641693163267501,0.3641693163267501,0.13261929095389258,5.38726440382144,0.16118517225533013,2.817085971481578,0.04781934114291431,2.7670016209914476,0.041163000337920655,0.3342874506897271,0.3574809623316623,1.0,0.0,1.0,1.0,1.0,1.0,4000.0,1.0,0.0,0.0,nan,0.0,1.0,0.0,0.0,207.77399123364052,0.0,stable,0.95,0.95,discounted,matched_iid,linear,oracle_raw,0.0,0.0,0.003249429043552096,0.0030557439603292108,oracle_exact
gamma_paper,0.95,0.0,4000,0.05,0.1,misspecified_affine,12,linear_oracle_clipped_fqe,2.803089679733458,0.03594581548772327,2.896418910126738,0.03639875459294907,-12.195755722667208,-11.831586406340458,-0.3641693163267501,0.3641693163267501,0.13261929095389258,5.38726440382144,0.16118517225533013,2.817085971481578,0.04781934114291431,2.7670016209914476,0.041163000337920655,0.3342874506897271,0.3574809623316623,1.0,0.0,1.0,1.0,1.0,1.0,4000.0,1.0,0.0,0.0,1.0,0.0,1.0,0.0,0.0,207.77399123364052,0.0,stable,0.95,0.95,discounted,matched_iid,linear,oracle_clipped,0.0,0.0,0.003249429043552096,0.0030557439603292108,oracle_exact_clipped
gamma_paper,0.95,0.0,4000,0.05,0.1,misspecified_affine,12,linear_estimated_clipped_fqe,3.064913045649386,0.03773571157544334,3.1633225851674482,0.03813138132964117,-12.131800377329673,-11.831586406340458,-0.30021397098921554,0.30021397098921554,0.09012842837711355,5.299032715983963,0.16272292890722553,3.082584832566605,0.04942174172625566,3.0286353688735166,0.04295121563759505,0.33399903271353204,0.357383276975212,0.9999999999999999,0.04869710396662421,1.1120070674092828,1.0526174293327395,1.0735630853087865,1.1120051485232225,3990.536809346459,0.9976342023366147,0.01,0.0,1.1118443161063625,0.057385521469382875,nan,0.03011946271180612,0.0023714079347362067,205.00832468105654,0.0,stable,0.95,0.95,discounted,matched_iid,linear,linear_clipped,0.0009644825334156516,-2.0665037035572098e-05,0.008753599812602394,0.009163264426076196,linear_reduced_moment
gamma_paper,0.95,0.0,4000,0.05,0.1,misspecified_affine,12,linear_neural_weighted_clipped_fqe,2.3423480455055063,0.03267481428339043,2.4243392397630092,0.033106273459008066,-12.349376906152635,-11.831586406340458,-0.5177904998121772,0.5177904998121772,0.26810700169574425,5.572895819112416,0.15722878855613331,2.345083750088659,0.044667869936632625,2.304108206831039,0.03774633549548855,0.3344547611699526,0.35877856056410984,1.0,0.05299926768325251,1.0811482732955482,1.0560687863785718,1.0650313757224446,1.081147468906912,3988.7957822780095,0.9971989455695024,0.01,0.0,1.0770463693141936,0.054235569147389404,nan,0.043678226582366135,0.002808922374961054,200.90809724312618,0.0,stable,0.95,0.95,discounted,matched_iid,linear,neural_clipped,0.021310122656677873,-0.0037288092970848563,0.017145878268075943,0.018936855023400246,neural_positive_rkhs_moment
gamma_paper,0.95,0.0,4000,0.05,0.1,misspecified_affine,12,neural_standard_fqe,1.7342792938047813,0.07758327458234472,1.6841881711269397,0.08102480477613433,-8.423646851628893,-11.831586406340458,3.4079395547115645,3.4079395547115645,11.614052008567656,17.71957155655382,0.36360881938456524,1.7367499826043689,0.10523712533093998,1.6553744048088825,0.09396761782299076,0.2503211543802662,0.2754447879354558,1.0,0.0,1.0,1.0,1.0,1.0,4000.0,1.0,0.0,0.0,nan,0.0,1.0,0.0,0.0,207.77399123364052,0.0,stable,0.95,0.95,discounted,matched_iid,neural,standard,nan,0.0,0.003249429043552096,0.0030557439603292108,uniform
gamma_paper,0.95,0.0,4000,0.05,0.1,misspecified_affine,12,neural_oracle_clipped_fqe,1.7342792938047813,0.07758327458234472,1.6841881711269397,0.08102480477613433,-8.423646851628893,-11.831586406340458,3.4079395547115645,3.4079395547115645,11.614052008567656,17.71957155655382,0.36360881938456524,1.7367499826043689,0.10523712533093998,1.6553744048088825,0.09396761782299076,0.2503211543802662,0.2754447879354558,1.0,0.0,1.0,1.0,1.0,1.0,4000.0,1.0,0.0,0.0,1.0,0.0,1.0,0.0,0.0,207.77399123364052,0.0,stable,0.95,0.95,discounted,matched_iid,neural,oracle_clipped,0.0,0.0,0.003249429043552096,0.0030557439603292108,oracle_exact_clipped
gamma_paper,0.95,0.0,4000,0.05,0.1,misspecified_affine,12,neural_estimated_clipped_fqe,1.7384023302907872,0.07815072388968015,1.68899983181654,0.08177208719232464,-8.437237469727497,-11.831586406340458,3.3943489366129604,3.3943489366129604,11.521604703485535,17.7476381204266,0.3672083696967623,1.7410947894764164,0.10612317357974155,1.659444307542072,0.0947323800636901,0.2504023243335586,0.27555474855924633,0.9999999999999999,0.04869710396662421,1.1120070674092828,1.0526174293327395,1.0735630853087865,1.1120051485232225,3990.536809346459,0.9976342023366147,0.01,0.0,1.1118443161063625,0.057385521469382875,nan,0.03011946271180612,0.0023714079347362067,205.00832468105654,0.0,stable,0.95,0.95,discounted,matched_iid,neural,linear_clipped,0.0009644825334156516,-2.0665037035572098e-05,0.008753599812602394,0.009163264426076196,linear_reduced_moment
gamma_paper,0.95,0.0,4000,0.05,0.1,misspecified_affine,12,neural_neural_weighted_clipped_fqe,1.7388990677390808,0.07795266116496004,1.6884047801881825,0.08137240225289655,-8.42474912514056,-11.831586406340458,3.4068372811998984,3.4068372811998984,11.606540260573516,17.76693374421181,0.3655961602106337,1.7418589694539484,0.10573309873317159,1.6595631331411114,0.09438552262349557,0.2504885102197893,0.27595870885703516,1.0,0.05299926768325251,1.0811482732955482,1.0560687863785718,1.0650313757224446,1.081147468906912,3988.7957822780095,0.9971989455695024,0.01,0.0,1.0770463693141936,0.054235569147389404,nan,0.043678226582366135,0.002808922374961054,200.90809724312618,0.0,stable,0.95,0.95,discounted,matched_iid,neural,neural_clipped,0.021310122656677873,-0.0037288092970848563,0.017145878268075943,0.018936855023400246,neural_positive_rkhs_moment
gamma_paper,0.95,0.0,4000,0.05,0.1,misspecified_affine,13,linear_standard_fqe,4.490081398329098,0.05310359261069202,4.423637530669388,0.043438794639514604,-12.025454557791644,-11.831586406340458,-0.19386815145118597,0.19386815145118597,0.037584860147099976,4.943852186372236,0.15380886712835234,4.352687563217371,0.05459955626033974,4.336970827801389,0.06343407722217351,0.3026766505718477,0.37977779331730815,1.0,0.0,1.0,1.0,1.0,1.0,4000.0,1.0,0.0,0.0,nan,0.0,1.0,0.0,0.0,198.73818859861916,0.0,stable,0.95,0.95,discounted,matched_iid,linear,standard,nan,0.0,0.004605429569420781,0.004516680836938732,uniform
gamma_paper,0.95,0.0,4000,0.05,0.1,misspecified_affine,13,linear_oracle_raw_fqe,4.490081398329098,0.05310359261069202,4.423637530669388,0.043438794639514604,-12.025454557791644,-11.831586406340458,-0.19386815145118597,0.19386815145118597,0.037584860147099976,4.943852186372236,0.15380886712835234,4.352687563217371,0.05459955626033974,4.336970827801389,0.06343407722217351,0.3026766505718477,0.37977779331730815,1.0,0.0,1.0,1.0,1.0,1.0,4000.0,1.0,0.0,0.0,nan,0.0,1.0,0.0,0.0,198.73818859861916,0.0,stable,0.95,0.95,discounted,matched_iid,linear,oracle_raw,0.0,0.0,0.004605429569420781,0.004516680836938732,oracle_exact
gamma_paper,0.95,0.0,4000,0.05,0.1,misspecified_affine,13,linear_oracle_clipped_fqe,4.490081398329098,0.05310359261069202,4.423637530669388,0.043438794639514604,-12.025454557791644,-11.831586406340458,-0.19386815145118597,0.19386815145118597,0.037584860147099976,4.943852186372236,0.15380886712835234,4.352687563217371,0.05459955626033974,4.336970827801389,0.06343407722217351,0.3026766505718477,0.37977779331730815,1.0,0.0,1.0,1.0,1.0,1.0,4000.0,1.0,0.0,0.0,1.0,0.0,1.0,0.0,0.0,198.73818859861916,0.0,stable,0.95,0.95,discounted,matched_iid,linear,oracle_clipped,0.0,0.0,0.004605429569420781,0.004516680836938732,oracle_exact_clipped
gamma_paper,0.95,0.0,4000,0.05,0.1,misspecified_affine,13,linear_estimated_clipped_fqe,3.6658851500768916,0.047865108727225096,3.5922278958674076,0.03757627365564703,-12.247635221991198,-11.831586406340458,-0.4160488156507398,0.4160488156507398,0.17309661700438328,5.113436107408784,0.1466211917151853,3.5295331554121465,0.048549854767551054,3.5152809337679147,0.0581559626203597,0.30218128016152435,0.3802141216926084,1.0000000000000002,0.04807941334850203,1.150055859286333,1.0522559053489458,1.071055724751876,1.1500524139812907,3990.774805285003,0.9976937013212507,0.01,0.0,1.1495203816757285,0.049120965642172346,nan,0.03449557483180682,0.0023116299879361152,198.8417249681103,0.0,stable,0.95,0.95,discounted,matched_iid,linear,linear_clipped,0.00027864178991831543,-8.959286394327748e-06,0.005625832055133772,0.006207394202706044,linear_reduced_moment
gamma_paper,0.95,0.0,4000,0.05,0.1,misspecified_affine,13,linear_neural_weighted_clipped_fqe,4.6545758946709554,0.05278972278817278,4.595355909787435,0.04448338039453591,-12.185298495252859,-11.831586406340458,-0.3537120889124008,0.3537120889124008,0.12511224184277414,4.844070693318453,0.14274600665101436,4.516222051516779,0.054443789895614374,4.5015260621126725,0.0627611983863492,0.30813030125083263,0.3810337182790123,1.0,0.05617725067339315,1.2346062013826944,1.0685156064425447,1.1283800762224905,1.234603194936712,3987.4161790997755,0.9968540447749439,0.01,0.0,1.2212958574295043,0.05337400846674026,nan,0.03804144100611129,0.0031558834932212516,205.9693434334932,0.0,stable,0.95,0.95,discounted,matched_iid,linear,neural_clipped,0.03218046625065416,-0.01019610296189788,0.013071842093321583,0.012674566908314951,neural_positive_rkhs_moment
gamma_paper,0.95,0.0,4000,0.05,0.1,misspecified_affine,13,neural_standard_fqe,1.6828455344679605,0.09182195923119273,1.4576961310657763,0.06504098521164325,-8.409354822346812,-11.831586406340458,3.4222315839936464,3.4222315839936464,11.711669014483661,18.00230999855397,0.3747910303422341,1.704328216705282,0.10789910443484911,1.5610116421963145,0.10465734336864282,0.2048183333644014,0.28119328258365134,1.0,0.0,1.0,1.0,1.0,1.0,4000.0,1.0,0.0,0.0,nan,0.0,1.0,0.0,0.0,198.73818859861916,0.0,stable,0.95,0.95,discounted,matched_iid,neural,standard,nan,0.0,0.004605429569420781,0.004516680836938732,uniform
gamma_paper,0.95,0.0,4000,0.05,0.1,misspecified_affine,13,neural_oracle_clipped_fqe,1.6828455344679605,0.09182195923119273,1.4576961310657763,0.06504098521164325,-8.409354822346812,-11.831586406340458,3.4222315839936464,3.4222315839936464,11.711669014483661,18.00230999855397,0.3747910303422341,1.704328216705282,0.10789910443484911,1.5610116421963145,0.10465734336864282,0.2048183333644014,0.28119328258365134,1.0,0.0,1.0,1.0,1.0,1.0,4000.0,1.0,0.0,0.0,1.0,0.0,1.0,0.0,0.0,198.73818859861916,0.0,stable,0.95,0.95,discounted,matched_iid,neural,oracle_clipped,0.0,0.0,0.004605429569420781,0.004516680836938732,oracle_exact_clipped
gamma_paper,0.95,0.0,4000,0.05,0.1,misspecified_affine,13,neural_estimated_clipped_fqe,1.7099544772126214,0.09460049832963591,1.4762362880040532,0.06677565957256862,-8.371891256391635,-11.831586406340458,3.459695149948823,3.459695149948823,11.96949053057941,18.490845728242977,0.3865588361601314,1.729220881370614,0.11068279657355008,1.5832016001900222,0.10768401358479147,0.21211238823238324,0.2930863465666883,1.0000000000000002,0.04807941334850203,1.150055859286333,1.0522559053489458,1.071055724751876,1.1500524139812907,3990.774805285003,0.9976937013212507,0.01,0.0,1.1495203816757285,0.049120965642172346,nan,0.03449557483180682,0.0023116299879361152,198.8417249681103,0.0,stable,0.95,0.95,discounted,matched_iid,neural,linear_clipped,0.00027864178991831543,-8.959286394327748e-06,0.005625832055133772,0.006207394202706044,linear_reduced_moment
gamma_paper,0.95,0.0,4000,0.05,0.1,misspecified_affine,13,neural_neural_weighted_clipped_fqe,1.659494861051042,0.08923300176791914,1.4430239378498513,0.06355520504060079,-8.429731792178174,-11.831586406340458,3.401854614162284,3.401854614162284,11.572614815897222,17.6390224806532,0.3638402903093296,1.6824455346812222,0.1052945953153193,1.541101685092949,0.10177216178710595,0.20047857762368398,0.27267633420883547,1.0,0.05617725067339315,1.2346062013826944,1.0685156064425447,1.1283800762224905,1.234603194936712,3987.4161790997755,0.9968540447749439,0.01,0.0,1.2212958574295043,0.05337400846674026,nan,0.03804144100611129,0.0031558834932212516,205.9693434334932,0.0,stable,0.95,0.95,discounted,matched_iid,neural,neural_clipped,0.03218046625065416,-0.01019610296189788,0.013071842093321583,0.012674566908314951,neural_positive_rkhs_moment
gamma_paper,0.95,0.0,4000,0.05,0.1,misspecified_affine,14,linear_standard_fqe,2.161250026886671,0.03449623758053111,2.284281087713992,0.04158614238512342,-12.17231897926002,-11.831586406340458,-0.3407325729195616,0.3407325729195616,0.11609868624838436,5.88305247440771,0.16500557734649562,2.015299309613063,0.03553845919695298,2.0348895365292012,0.029656164563977436,0.3784856515823571,0.3270665793821303,1.0,0.0,1.0,1.0,1.0,1.0,4000.0,1.0,0.0,0.0,nan,0.0,1.0,0.0,0.0,201.20377498535444,0.0,stable,0.95,0.95,discounted,matched_iid,linear,standard,nan,0.0,0.004046073340607161,0.003493777654602713,uniform
gamma_paper,0.95,0.0,4000,0.05,0.1,misspecified_affine,14,linear_oracle_raw_fqe,2.161250026886671,0.03449623758053111,2.284281087713992,0.04158614238512342,-12.17231897926002,-11.831586406340458,-0.3407325729195616,0.3407325729195616,0.11609868624838436,5.88305247440771,0.16500557734649562,2.015299309613063,0.03553845919695298,2.0348895365292012,0.029656164563977436,0.3784856515823571,0.3270665793821303,1.0,0.0,1.0,1.0,1.0,1.0,4000.0,1.0,0.0,0.0,nan,0.0,1.0,0.0,0.0,201.20377498535444,0.0,stable,0.95,0.95,discounted,matched_iid,linear,oracle_raw,0.0,0.0,0.004046073340607161,0.003493777654602713,oracle_exact
gamma_paper,0.95,0.0,4000,0.05,0.1,misspecified_affine,14,linear_oracle_clipped_fqe,2.161250026886671,0.03449623758053111,2.284281087713992,0.04158614238512342,-12.17231897926002,-11.831586406340458,-0.3407325729195616,0.3407325729195616,0.11609868624838436,5.88305247440771,0.16500557734649562,2.015299309613063,0.03553845919695298,2.0348895365292012,0.029656164563977436,0.3784856515823571,0.3270665793821303,1.0,0.0,1.0,1.0,1.0,1.0,4000.0,1.0,0.0,0.0,1.0,0.0,1.0,0.0,0.0,201.20377498535444,0.0,stable,0.95,0.95,discounted,matched_iid,linear,oracle_clipped,0.0,0.0,0.004046073340607161,0.003493777654602713,oracle_exact_clipped
gamma_paper,0.95,0.0,4000,0.05,0.1,misspecified_affine,14,linear_estimated_clipped_fqe,2.3789110614879605,0.03555342185887999,2.498201700352537,0.042266233282417714,-12.127427710482262,-11.831586406340458,-0.29584130414180443,0.29584130414180443,0.08752207723632363,5.751792398941517,0.16547645025600946,2.229130888568911,0.03668698758389567,2.256254403939875,0.03111594306486554,0.3774868722705289,0.3257987695730668,1.0,0.05178600326607244,1.1737261886483374,1.0639881909391453,1.0898513253533157,1.1737051237883942,3989.301530512828,0.9973253826282069,0.01,0.0,1.1733726337976036,0.05203095763321329,nan,0.036009436848034995,0.0026817901342736654,203.378087520112,0.0,stable,0.95,0.95,discounted,matched_iid,linear,linear_clipped,0.002970556513279954,-5.497199467352498e-05,0.005471880992000185,0.005645355830036515,linear_reduced_moment
gamma_paper,0.95,0.0,4000,0.05,0.1,misspecified_affine,14,linear_neural_weighted_clipped_fqe,1.9664256699200147,0.032372247137473796,2.0820691661169675,0.03871890003418379,-12.41695356894529,-11.831586406340458,-0.5853671626048325,0.5853671626048325,0.34265471505603234,5.930697403328922,0.1529540778322461,1.8222135162727742,0.03299909507466178,1.8367724554105571,0.02759955679626212,0.3786810469247824,0.32873818176121156,1.0,0.030612044787434383,1.1220472540071689,1.0340233437269095,1.0503748959512147,1.1220388871191456,3996.2551201724523,0.999063780043113,0.01,0.0,1.1200610125064847,0.030266146383937,nan,0.022390803264947284,0.0009370972860678886,202.0420377236441,0.0,stable,0.95,0.95,discounted,matched_iid,linear,neural_clipped,0.011344148594795564,-0.001219792827963806,0.005952133599076102,0.005254227872721039,neural_positive_rkhs_moment
gamma_paper,0.95,0.0,4000,0.05,0.1,misspecified_affine,14,neural_standard_fqe,1.3113990782051237,0.07298125177596008,1.640992759637751,0.09589272451510882,-8.409027684230777,-11.831586406340458,3.422558722109681,3.422558722109681,11.713908206289052,19.160351188884903,0.3852690925014756,1.4112924625946048,0.08335044366861796,1.3797470372447815,0.07327236789011289,0.3243955571412108,0.2327301245640267,1.0,0.0,1.0,1.0,1.0,1.0,4000.0,1.0,0.0,0.0,nan,0.0,1.0,0.0,0.0,201.20377498535444,0.0,stable,0.95,0.95,discounted,matched_iid,neural,standard,nan,0.0,0.004046073340607161,0.003493777654602713,uniform
gamma_paper,0.95,0.0,4000,0.05,0.1,misspecified_affine,14,neural_oracle_clipped_fqe,1.3113990782051237,0.07298125177596008,1.640992759637751,0.09589272451510882,-8.409027684230777,-11.831586406340458,3.422558722109681,3.422558722109681,11.713908206289052,19.160351188884903,0.3852690925014756,1.4112924625946048,0.08335044366861796,1.3797470372447815,0.07327236789011289,0.3243955571412108,0.2327301245640267,1.0,0.0,1.0,1.0,1.0,1.0,4000.0,1.0,0.0,0.0,1.0,0.0,1.0,0.0,0.0,201.20377498535444,0.0,stable,0.95,0.95,discounted,matched_iid,neural,oracle_clipped,0.0,0.0,0.004046073340607161,0.003493777654602713,oracle_exact_clipped
gamma_paper,0.95,0.0,4000,0.05,0.1,misspecified_affine,14,neural_estimated_clipped_fqe,1.3121038218960583,0.07286431170918167,1.6395345031953779,0.0955495165606961,-8.401763587434333,-11.831586406340458,3.429822818906125,3.429822818906125,11.763684569089156,19.12948398041176,0.38437971683333527,1.4113751427420762,0.08316317633210447,1.3796054635547765,0.07305819620920558,0.32265818131944696,0.23234809814472684,1.0,0.05178600326607244,1.1737261886483374,1.0639881909391453,1.0898513253533157,1.1737051237883942,3989.301530512828,0.9973253826282069,0.01,0.0,1.1733726337976036,0.05203095763321329,nan,0.036009436848034995,0.0026817901342736654,203.378087520112,0.0,stable,0.95,0.95,discounted,matched_iid,neural,linear_clipped,0.002970556513279954,-5.497199467352498e-05,0.005471880992000185,0.005645355830036515,linear_reduced_moment
gamma_paper,0.95,0.0,4000,0.05,0.1,misspecified_affine,14,neural_neural_weighted_clipped_fqe,1.2993555391319762,0.07214468355387785,1.6261734630435924,0.09485414977657054,-8.448168926596464,-11.831586406340458,3.3834174797439935,3.3834174797439935,11.447513842237196,18.851915060904723,0.3813289906179895,1.3992152326729586,0.08238731219546723,1.3673319442827165,0.07239164982951952,0.3178844344740003,0.22768728135569086,1.0,0.030612044787434383,1.1220472540071689,1.0340233437269095,1.0503748959512147,1.1220388871191456,3996.2551201724523,0.999063780043113,0.01,0.0,1.1200610125064847,0.030266146383937,nan,0.022390803264947284,0.0009370972860678886,202.0420377236441,0.0,stable,0.95,0.95,discounted,matched_iid,neural,neural_clipped,0.011344148594795564,-0.001219792827963806,0.005952133599076102,0.005254227872721039,neural_positive_rkhs_moment
gamma_paper,0.95,0.0,4000,0.05,0.1,misspecified_affine,15,linear_standard_fqe,3.3082285860583043,0.037550319928684746,3.3212304876740433,0.038935619614081776,-12.165853585090145,-11.831586406340458,-0.3342671787496876,0.3342671787496876,0.1117345467892756,4.714407818225328,0.11709443589635853,3.2304125783785977,0.04473165855799227,3.16044155750653,0.040409494030030864,0.3310951984787154,0.33627411704364696,1.0,0.0,1.0,1.0,1.0,1.0,4000.0,1.0,0.0,0.0,nan,0.0,1.0,0.0,0.0,205.46404478446718,0.0,stable,0.95,0.95,discounted,matched_iid,linear,standard,nan,0.0,0.005428995649903697,0.006087421772288555,uniform
gamma_paper,0.95,0.0,4000,0.05,0.1,misspecified_affine,15,linear_oracle_raw_fqe,3.3082285860583043,0.037550319928684746,3.3212304876740433,0.038935619614081776,-12.165853585090145,-11.831586406340458,-0.3342671787496876,0.3342671787496876,0.1117345467892756,4.714407818225328,0.11709443589635853,3.2304125783785977,0.04473165855799227,3.16044155750653,0.040409494030030864,0.3310951984787154,0.33627411704364696,1.0,0.0,1.0,1.0,1.0,1.0,4000.0,1.0,0.0,0.0,nan,0.0,1.0,0.0,0.0,205.46404478446718,0.0,stable,0.95,0.95,discounted,matched_iid,linear,oracle_raw,0.0,0.0,0.005428995649903697,0.006087421772288555,oracle_exact
