Larsvanderlaan/rl-eval-kit/experiments/neurips_bellman/fqe_stationary_weighting/FQE_neurips/results/final_summary.csv
study_stage,gamma,shift,sample_size,process_noise_sd,behavior_action_sd,feature_regime,seed,estimator,target_q_mse,target_q_mse_se,behavior_q_mse,behavior_q_mse_se,policy_value_estimate,policy_value_true,policy_value_error,policy_value_absolute_error,policy_value_squared_error,initial_v_mse,initial_v_mse_se,behavior_v_mse,behavior_v_mse_se,target_v_mse,target_v_mse_se,behavior_bellman_residual_mse,target_bellman_residual_mse,weight_mean,weight_std,weight_max,weight_q90,weight_q95,weight_q99,effective_sample_size,effective_sample_size_fraction,fraction_clipped,chosen_uniform_mix,clip_level,oracle_log_ratio_rmse,oracle_estimated_weight_corr,oracle_estimated_weight_mae,oracle_estimated_weight_rel_mse,weighted_design_condition_number,unstable_run_flag,unstable_reason,n_seeds,policy_value_bias,policy_value_variance,policy_value_mse,unstable_run_count,unstable_run_fraction
final,0.95,0.0,1000,0.05,0.1,misspecified_affine,9.5,estimated_weighted_fqe,3.3240486450831077,0.045406273292232666,3.3220802047968285,0.043945469035908784,-12.113673869082124,-11.831586406340456,-0.28208746274166535,0.28208746274166535,0.10480394206771111,5.217254231381297,0.15091963474753817,3.2093126623822728,0.04676910570064809,3.1848420711221506,0.047962776530231954,0.35170852829223626,0.36324429691465454,1.0,0.1461086325891308,1.8111175582210581,1.1570564081341463,1.210649039104436,1.3570100007266421,978.0324070715333,0.9780324070715333,0.0,0.0,nan,0.25921391149604395,nan,0.10534518954663397,0.022571551221038242,204.2942127800008,0.05,finite_sample_variance_or_clipping,20,-0.28208746274166535,0.02523060543168067,0.10480394206771111,1,0.05
final,0.95,0.0,1000,0.05,0.1,misspecified_affine,9.5,estimated_weighted_fqe_clip95,3.236955429102005,0.04532793234361402,3.2343171217263027,0.043809050277616376,-12.078729980833923,-11.831586406340456,-0.24714357449346408,0.28855102260223464,0.11011024473477415,5.27968965746957,0.15391449629265017,3.122845168591369,0.04664248132025391,3.099373095583737,0.04797892346229898,0.3530870680749855,0.36474883444079614,1.0,0.13264573663967666,1.2167874344326246,1.1629083622023746,1.2167121084076702,1.2167874344326246,981.6921493123024,0.9816921493123022,0.05000000000000001,0.0,1.2106198120784175,0.25276805351280135,nan,0.10085193012088978,0.018733155506380997,202.9060157750274,0.0,stable,20,-0.24714357449346408,0.049030298321367724,0.11011024473477415,0,0.0
final,0.95,0.0,1000,0.05,0.1,misspecified_affine,9.5,estimated_weighted_fqe_clip99_ess40,3.2908007309743974,0.0454478287455155,3.2885304729569347,0.04394699293195966,-12.088119320605585,-11.831586406340456,-0.2565329142651275,0.2811841805005268,0.10286552201857999,5.244830925508362,0.15277644681534214,3.1763850629417454,0.04679888779146595,3.1527796693333388,0.04810171819602719,0.35223336997523547,0.36394742692784077,1.0,0.1397612467120292,1.3590846487300738,1.1587722871638235,1.2124485899694042,1.3589598530091709,979.8886661615472,0.9798886661615474,0.010000000000000002,0.0,1.356980606424423,0.2571135807413282,nan,0.10399704464498487,0.02061330283392943,203.6064088479648,0.0,stable,20,-0.2565329142651275,0.03705638591722073,0.10286552201857999,0,0.0
final,0.95,0.0,1000,0.05,0.1,misspecified_affine,9.5,estimated_weighted_fqe_clipped,3.2908007309743974,0.0454478287455155,3.2885304729569347,0.04394699293195966,-12.088119320605585,-11.831586406340456,-0.2565329142651275,0.2811841805005268,0.10286552201857999,5.244830925508362,0.15277644681534214,3.1763850629417454,0.04679888779146595,3.1527796693333388,0.04810171819602719,0.35223336997523547,0.36394742692784077,1.0,0.1397612467120292,1.3590846487300738,1.1587722871638235,1.2124485899694042,1.3589598530091709,979.8886661615472,0.9798886661615474,0.010000000000000002,0.0,1.356980606424423,0.2571135807413282,nan,0.10399704464498487,0.02061330283392943,203.6064088479648,0.0,stable,20,-0.2565329142651275,0.03705638591722073,0.10286552201857999,0,0.0
final,0.95,0.0,1000,0.05,0.1,misspecified_affine,9.5,oracle_weighted_fqe,3.280763315993282,0.04393779043461495,3.2735118986834886,0.0425803379596288,-12.384566548783628,-11.831586406340456,-0.5529801424431724,0.6267445201563807,0.47866045033211124,5.430858338932819,0.1385801033308362,3.1597511594162904,0.044967542390843204,3.134245828487294,0.04607921150917252,0.36191387206946835,0.37248982118299895,1.0,0.0,1.0,1.0,1.0,1.0,1000.0,1.0,0.0,0.0,nan,0.0,1.0,0.0,0.0,204.44797949411128,0.0,stable,20,-0.5529801424431724,0.17287341239564008,0.47866045033211124,0,0.0
final,0.95,0.0,1000,0.05,0.1,misspecified_affine,9.5,oracle_weighted_fqe_clipped,3.280763315993282,0.04393779043461495,3.2735118986834886,0.0425803379596288,-12.384566548783628,-11.831586406340456,-0.5529801424431724,0.6267445201563807,0.47866045033211124,5.430858338932819,0.1385801033308362,3.1597511594162904,0.044967542390843204,3.134245828487294,0.04607921150917252,0.36191387206946835,0.37248982118299895,1.0,0.0,1.0,1.0,1.0,1.0,1000.0,1.0,0.0,0.0,1.0,0.0,1.0,0.0,0.0,204.44797949411128,0.0,stable,20,-0.5529801424431724,0.17287341239564008,0.47866045033211124,0,0.0
final,0.95,0.0,1000,0.05,0.1,misspecified_affine,9.5,standard_fqe,3.280763315993282,0.04393779043461495,3.2735118986834886,0.0425803379596288,-12.384566548783628,-11.831586406340456,-0.5529801424431724,0.6267445201563807,0.47866045033211124,5.430858338932819,0.1385801033308362,3.1597511594162904,0.044967542390843204,3.134245828487294,0.04607921150917252,0.36191387206946835,0.37248982118299895,1.0,0.0,1.0,1.0,1.0,1.0,1000.0,1.0,0.0,0.0,nan,0.0,1.0,0.0,0.0,204.44797949411128,0.0,stable,20,-0.5529801424431724,0.17287341239564008,0.47866045033211124,0,0.0
final,0.95,0.0,1000,0.05,0.1,misspecified_diag_quad,9.5,estimated_weighted_fqe,0.014018140492453382,0.00034650558554262664,0.013969003926349302,0.00034787991210076996,-11.754163175402162,-11.831586406340456,0.07742323093829526,0.08952649770996324,0.01195637886361862,0.036462371201517726,0.0008837137838089568,0.011734261614719754,0.00023529159631106443,0.011706314306972887,0.0002198299124517657,0.004304211636956633,0.004387658454114465,1.0,0.1461086325891308,1.8111175582210581,1.1570564081341463,1.210649039104436,1.3570100007266421,978.0324070715333,0.9780324070715333,0.0,0.0,nan,0.25921391149604395,nan,0.10534518954663397,0.022571551221038242,563.0767901108187,0.05,finite_sample_variance_or_clipping,20,0.07742323093829526,0.005962022174694017,0.01195637886361862,1,0.05
final,0.95,0.0,1000,0.05,0.1,misspecified_diag_quad,9.5,estimated_weighted_fqe_clip95,0.013737148372126334,0.0003467219976271007,0.013689734920696523,0.00035034674440862884,-11.755873879637521,-11.831586406340456,0.07571252670293553,0.08765706063199268,0.011618459977657784,0.036822134040839186,0.0009093756301127833,0.01149480981676612,0.0002421563254207496,0.01145786837936479,0.00022493484524757564,0.004303762202479218,0.004383080206779753,1.0,0.13264573663967666,1.2167874344326246,1.1629083622023746,1.2167121084076702,1.2167874344326246,981.6921493123024,0.9816921493123022,0.05000000000000001,0.0,1.2106198120784175,0.25276805351280135,nan,0.10085193012088978,0.018733155506380997,538.8043282100147,0.0,stable,20,0.07571252670293553,0.005886073277915056,0.011618459977657784,0,0.0
final,0.95,0.0,1000,0.05,0.1,misspecified_diag_quad,9.5,estimated_weighted_fqe_clip99_ess40,0.013861002460837166,0.0003465612371022159,0.013816397501906533,0.00034999542160403177,-11.75583818477398,-11.831586406340456,0.07574822156647879,0.0881262249161403,0.011686299830533762,0.03661891777814717,0.0009013178198583235,0.011604993159311735,0.00023975846371751362,0.011573369489107721,0.00022371263046601163,0.004307203253609492,0.004385417513682576,1.0,0.1397612467120292,1.3590846487300738,1.1587722871638235,1.2124485899694042,1.3589598530091709,979.8886661615472,0.9798886661615474,0.010000000000000002,0.0,1.356980606424423,0.2571135807413282,nan,0.10399704464498487,0.02061330283392943,549.4631780919213,0.0,stable,20,0.07574822156647879,0.0059485067600494,0.011686299830533762,0,0.0
final,0.95,0.0,1000,0.05,0.1,misspecified_diag_quad,9.5,estimated_weighted_fqe_clipped,0.013861002460837166,0.0003465612371022159,0.013816397501906533,0.00034999542160403177,-11.75583818477398,-11.831586406340456,0.07574822156647879,0.0881262249161403,0.011686299830533762,0.03661891777814717,0.0009013178198583235,0.011604993159311735,0.00023975846371751362,0.011573369489107721,0.00022371263046601163,0.004307203253609492,0.004385417513682576,1.0,0.1397612467120292,1.3590846487300738,1.1587722871638235,1.2124485899694042,1.3589598530091709,979.8886661615472,0.9798886661615474,0.010000000000000002,0.0,1.356980606424423,0.2571135807413282,nan,0.10399704464498487,0.02061330283392943,549.4631780919213,0.0,stable,20,0.07574822156647879,0.0059485067600494,0.011686299830533762,0,0.0
final,0.95,0.0,1000,0.05,0.1,misspecified_diag_quad,9.5,oracle_weighted_fqe,0.01346929354144969,0.0003547951739322166,0.013387144857396543,0.0003591243756307417,-11.761178040590996,-11.831586406340456,0.07040836574946008,0.08492039293940516,0.011380709059336717,0.039239035372962416,0.00098844095463505,0.011248527291456046,0.00027190850853507756,0.011185883502792199,0.00024883921521969406,0.004373970786575272,0.004472900120137404,1.0,0.0,1.0,1.0,1.0,1.0,1000.0,1.0,0.0,0.0,nan,0.0,1.0,0.0,0.0,604.4514139281621,0.0,stable,20,0.07040836574946008,0.006423371091826976,0.011380709059336717,0,0.0
final,0.95,0.0,1000,0.05,0.1,misspecified_diag_quad,9.5,oracle_weighted_fqe_clipped,0.01346929354144969,0.0003547951739322166,0.013387144857396543,0.0003591243756307417,-11.761178040590996,-11.831586406340456,0.07040836574946008,0.08492039293940516,0.011380709059336717,0.039239035372962416,0.00098844095463505,0.011248527291456046,0.00027190850853507756,0.011185883502792199,0.00024883921521969406,0.004373970786575272,0.004472900120137404,1.0,0.0,1.0,1.0,1.0,1.0,1000.0,1.0,0.0,0.0,1.0,0.0,1.0,0.0,0.0,604.4514139281621,0.0,stable,20,0.07040836574946008,0.006423371091826976,0.011380709059336717,0,0.0
final,0.95,0.0,1000,0.05,0.1,misspecified_diag_quad,9.5,standard_fqe,0.01346929354144969,0.0003547951739322166,0.013387144857396543,0.0003591243756307417,-11.761178040590996,-11.831586406340456,0.07040836574946008,0.08492039293940516,0.011380709059336717,0.039239035372962416,0.00098844095463505,0.011248527291456046,0.00027190850853507756,0.011185883502792199,0.00024883921521969406,0.004373970786575272,0.004472900120137404,1.0,0.0,1.0,1.0,1.0,1.0,1000.0,1.0,0.0,0.0,nan,0.0,1.0,0.0,0.0,604.4514139281621,0.0,stable,20,0.07040836574946008,0.006423371091826976,0.011380709059336717,0,0.0
final,0.95,0.0,1000,0.05,0.1,well_specified,9.5,estimated_weighted_fqe,0.008180789949935499,8.218199223970375e-05,0.008187837881517123,8.182798447508397e-05,-11.751577327727105,-11.831586406340456,0.08000907861335191,0.08624080917579784,0.009785112937858945,0.01530915015852775,0.00024309250968518244,0.008040256797785243,8.272310120288388e-05,0.008050529913605331,8.296982082907776e-05,0.00046560852626245506,0.00047484080142243154,1.0,0.1461086325891308,1.8111175582210581,1.1570564081341463,1.210649039104436,1.3570100007266421,978.0324070715333,0.9780324070715333,0.0,0.0,nan,0.25921391149604395,nan,0.10534518954663397,0.022571551221038242,3965.4005366210963,0.05,finite_sample_variance_or_clipping,20,0.08000907861335191,0.003383660277301417,0.009785112937858945,1,0.05
final,0.95,0.0,1000,0.05,0.1,well_specified,9.5,estimated_weighted_fqe_clip95,0.008082625843113376,8.027148271033749e-05,0.008094374762499695,8.07007983864392e-05,-11.75163027524702,-11.831586406340456,0.07995613109343847,0.08603920095823411,0.009884789521341485,0.015190152348809735,0.00023853135743261326,0.00795685446056053,8.209220868936098e-05,0.007961730254367387,8.16076453460121e-05,0.00044340027258849923,0.00044817342748977124,1.0,0.13264573663967666,1.2167874344326246,1.1629083622023746,1.2167121084076702,1.2167874344326246,981.6921493123024,0.9816921493123022,0.05000000000000001,0.0,1.2106198120784175,0.25276805351280135,nan,0.10085193012088978,0.018733155506380997,3741.4592096694205,0.0,stable,20,0.07995613109343847,0.0034918066219103705,0.009884789521341485,0,0.0
final,0.95,0.0,1000,0.05,0.1,well_specified,9.5,estimated_weighted_fqe_clip99_ess40,0.008118023443095552,8.06219983795083e-05,0.008130841641717698,8.098194174231583e-05,-11.752279445875013,-11.831586406340456,0.07930696046544491,0.08542835472409775,0.009759605589577329,0.01512460379581566,0.0002397376842295989,0.007989225276160666,8.20845797222537e-05,0.007995475599493786,8.186779071240883e-05,0.00044931477580608975,0.0004538709645396992,1.0,0.1397612467120292,1.3590846487300738,1.1587722871638235,1.2124485899694042,1.3589598530091709,979.8886661615472,0.9798886661615474,0.010000000000000002,0.0,1.356980606424423,0.2571135807413282,nan,0.10399704464498487,0.02061330283392943,3839.9200484476205,0.0,stable,20,0.07930696046544491,0.0034700116113096846,0.009759605589577329,0,0.0
final,0.95,0.0,1000,0.05,0.1,well_specified,9.5,estimated_weighted_fqe_clipped,0.008118023443095552,8.06219983795083e-05,0.008130841641717698,8.098194174231583e-05,-11.752279445875013,-11.831586406340456,0.07930696046544491,0.08542835472409775,0.009759605589577329,0.01512460379581566,0.0002397376842295989,0.007989225276160666,8.20845797222537e-05,0.007995475599493786,8.186779071240883e-05,0.00044931477580608975,0.0004538709645396992,1.0,0.1397612467120292,1.3590846487300738,1.1587722871638235,1.2124485899694042,1.3589598530091709,979.8886661615472,0.9798886661615474,0.010000000000000002,0.0,1.356980606424423,0.2571135807413282,nan,0.10399704464498487,0.02061330283392943,3839.9200484476205,0.0,stable,20,0.07930696046544491,0.0034700116113096846,0.009759605589577329,0,0.0
final,0.95,0.0,1000,0.05,0.1,well_specified,9.5,oracle_weighted_fqe,0.008092377241664762,8.482687822250668e-05,0.008115397175522548,8.700424868523734e-05,-11.749977498196657,-11.831586406340456,0.08160890814380135,0.08889980630124494,0.010634383506669887,0.01635929300075598,0.00025463116823985646,0.007980833352416198,8.927518003450907e-05,0.007971777092741283,8.717128738589948e-05,0.0004520141228885002,0.00045504852118278345,1.0,0.0,1.0,1.0,1.0,1.0,1000.0,1.0,0.0,0.0,nan,0.0,1.0,0.0,0.0,4315.300722876528,0.0,stable,20,0.08160890814380135,0.003974369618246483,0.010634383506669887,0,0.0
final,0.95,0.0,1000,0.05,0.1,well_specified,9.5,oracle_weighted_fqe_clipped,0.008092377241664762,8.482687822250668e-05,0.008115397175522548,8.700424868523734e-05,-11.749977498196657,-11.831586406340456,0.08160890814380135,0.08889980630124494,0.010634383506669887,0.01635929300075598,0.00025463116823985646,0.007980833352416198,8.927518003450907e-05,0.007971777092741283,8.717128738589948e-05,0.0004520141228885002,0.00045504852118278345,1.0,0.0,1.0,1.0,1.0,1.0,1000.0,1.0,0.0,0.0,1.0,0.0,1.0,0.0,0.0,4315.300722876528,0.0,stable,20,0.08160890814380135,0.003974369618246483,0.010634383506669887,0,0.0
final,0.95,0.0,1000,0.05,0.1,well_specified,9.5,standard_fqe,0.008092377241664762,8.482687822250668e-05,0.008115397175522548,8.700424868523734e-05,-11.749977498196657,-11.831586406340456,0.08160890814380135,0.08889980630124494,0.010634383506669887,0.01635929300075598,0.00025463116823985646,0.007980833352416198,8.927518003450907e-05,0.007971777092741283,8.717128738589948e-05,0.0004520141228885002,0.00045504852118278345,1.0,0.0,1.0,1.0,1.0,1.0,1000.0,1.0,0.0,0.0,nan,0.0,1.0,0.0,0.0,4315.300722876528,0.0,stable,20,0.08160890814380135,0.003974369618246483,0.010634383506669887,0,0.0
final,0.95,0.0,4000,0.05,0.1,misspecified_affine,9.5,estimated_weighted_fqe,3.214238879098969,0.04415145754952536,3.210213886303196,0.0424408803675855,-12.16672420357805,-11.831586406340456,-0.3351377972375936,0.3351377972375936,0.11543363343372326,5.179659389053188,0.14756280792511603,3.096400005309267,0.04539163824858124,3.074445290119427,0.046411209751777024,0.3496128420441552,0.3602219247885841,1.0,0.0675808620084216,1.4270505414909684,1.0632688990208348,1.0934429863633874,1.1807118455701908,3980.279870541971,0.9950699676354926,0.0,0.0,nan,0.08270593728800084,nan,0.04614026871989153,0.004966138669973043,206.17154887655556,0.1,finite_sample_variance_or_clipping,20,-0.3351377972375936,0.0031162902964568073,0.11543363343372326,2,0.1
final,0.95,0.0,4000,0.05,0.1,misspecified_affine,9.5,estimated_weighted_fqe_clip95,3.131442884385655,0.043851772768043244,3.1275746964170894,0.042171886002262904,-12.150059913218517,-11.831586406340456,-0.31847350687805714,0.31847350687805714,0.10509864828517494,5.218533340739216,0.14922679645601877,3.0136577067133685,0.0450458613716868,2.992066994037117,0.04619634114576236,0.3496209359786578,0.36032212714128276,1.0,0.06062945974041446,1.0964450804053976,1.0661758590426653,1.096432869621245,1.0964450804053976,3983.879853619309,0.9959699634048272,0.05000000000000001,0.0,1.09342062131014,0.07769406373142865,nan,0.043713689261166894,0.004056154663568163,205.05676233898402,0.0,stable,20,-0.31847350687805714,0.003673273701967063,0.10509864828517494,0,0.0
final,0.95,0.0,4000,0.05,0.1,misspecified_affine,9.5,estimated_weighted_fqe_clip99_ess40,3.1772806733054653,0.04402656833733361,3.1733412758065795,0.04233747577118989,-12.15631643145622,-11.831586406340456,-0.32473002511576093,0.32473002511576093,0.10873105651577945,5.197517985138548,0.14847625113565854,3.0594604812366115,0.04523523696160601,3.0377437161338374,0.0463406022927844,0.34955677089905185,0.36020591588425127,1.0,0.06541433463084764,1.1813497620140985,1.0638341032363479,1.094025231148453,1.181334514325507,3981.4424911193446,0.9953606227798361,0.010000000000000002,0.0,1.1806875211132115,0.08130741726913777,nan,0.04565557517112392,0.004672313527104515,205.87660194365125,0.0,stable,20,-0.32473002511576093,0.0032814673040967206,0.10873105651577945,0,0.0
final,0.95,0.0,4000,0.05,0.1,misspecified_affine,9.5,estimated_weighted_fqe_clipped,3.1772806733054653,0.04402656833733361,3.1733412758065795,0.04233747577118989,-12.15631643145622,-11.831586406340456,-0.32473002511576093,0.32473002511576093,0.10873105651577945,5.197517985138548,0.14847625113565854,3.0594604812366115,0.04523523696160601,3.0377437161338374,0.0463406022927844,0.34955677089905185,0.36020591588425127,1.0,0.06541433463084764,1.1813497620140985,1.0638341032363479,1.094025231148453,1.181334514325507,3981.4424911193446,0.9953606227798361,0.010000000000000002,0.0,1.1806875211132115,0.08130741726913777,nan,0.04565557517112392,0.004672313527104515,205.87660194365125,0.0,stable,20,-0.32473002511576093,0.0032814673040967206,0.10873105651577945,0,0.0
final,0.95,0.0,4000,0.05,0.1,misspecified_affine,9.5,oracle_weighted_fqe,3.187282291560239,0.04373934231741953,3.183739025787024,0.04216042905713275,-12.21100466180172,-11.831586406340456,-0.3794182554612628,0.3794182554612628,0.16993542472256978,5.230598227706372,0.1456014614646855,3.0650906785117322,0.04494764834952944,3.0432533101858015,0.0461776731327696,0.3514374343238934,0.36219905023265164,1.0,0.0,1.0,1.0,1.0,1.0,4000.0,1.0,0.0,0.0,nan,0.0,1.0,0.0,0.0,204.6704247747645,0.0,stable,20,-0.3794182554612628,0.025977212145301697,0.16993542472256978,0,0.0
final,0.95,0.0,4000,0.05,0.1,misspecified_affine,9.5,oracle_weighted_fqe_clipped,3.187282291560239,0.04373934231741953,3.183739025787024,0.04216042905713275,-12.21100466180172,-11.831586406340456,-0.3794182554612628,0.3794182554612628,0.16993542472256978,5.230598227706372,0.1456014614646855,3.0650906785117322,0.04494764834952944,3.0432533101858015,0.0461776731327696,0.3514374343238934,0.36219905023265164,1.0,0.0,1.0,1.0,1.0,1.0,4000.0,1.0,0.0,0.0,1.0,0.0,1.0,0.0,0.0,204.6704247747645,0.0,stable,20,-0.3794182554612628,0.025977212145301697,0.16993542472256978,0,0.0
final,0.95,0.0,4000,0.05,0.1,misspecified_affine,9.5,standard_fqe,3.187282291560239,0.04373934231741953,3.183739025787024,0.04216042905713275,-12.21100466180172,-11.831586406340456,-0.3794182554612628,0.3794182554612628,0.16993542472256978,5.230598227706372,0.1456014614646855,3.0650906785117322,0.04494764834952944,3.0432533101858015,0.0461776731327696,0.3514374343238934,0.36219905023265164,1.0,0.0,1.0,1.0,1.0,1.0,4000.0,1.0,0.0,0.0,nan,0.0,1.0,0.0,0.0,204.6704247747645,0.0,stable,20,-0.3794182554612628,0.025977212145301697,0.16993542472256978,0,0.0
final,0.95,0.0,4000,0.05,0.1,misspecified_diag_quad,9.5,estimated_weighted_fqe,0.012590537320960082,0.0002895743809920279,0.012518367632887805,0.0002859023261874221,-11.766244295998131,-11.831586406340456,0.06534211034232432,0.06534211034232432,0.005082044861415425,0.020245124360761195,0.0005648931551938593,0.010132596187407302,0.00013512108064806232,0.01011310683704093,0.0001297346649522366,0.0038141367556878336,0.003858167316534261,1.0,0.0675808620084216,1.4270505414909684,1.0632688990208348,1.0934429863633874,1.1807118455701908,3980.279870541971,0.9950699676354926,0.0,0.0,nan,0.08270593728800084,nan,0.04614026871989153,0.004966138669973043,568.5040800738685,0.0,stable,20,0.06534211034232432,0.0008124534774269389,0.005082044861415425,0,0.0
final,0.95,0.0,4000,0.05,0.1,misspecified_diag_quad,9.5,estimated_weighted_fqe_clip95,0.012471080384908803,0.0002895574966925776,0.012398472378433145,0.0002854110078673259,-11.765119760496113,-11.831586406340456,0.06646664584434755,0.06646664584434755,0.005263709922497034,0.020601810880861875,0.00057156947561652,0.010028971614565979,0.00013529446114077386,0.010015691458622291,0.00013124357849302282,0.0038120917612091644,0.0038559852458939807,1.0,0.06062945974041446,1.0964450804053976,1.0661758590426653,1.096432869621245,1.0964450804053976,3983.879853619309,0.9959699634048272,0.05000000000000001,0.0,1.09342062131014,0.07769406373142865,nan,0.043713689261166894,0.004056154663568163,555.9686112719822,0.0,stable,20,0.06646664584434755,0.0008458949126991082,0.005263709922497034,0,0.0
final,0.95,0.0,4000,0.05,0.1,misspecified_diag_quad,9.5,estimated_weighted_fqe_clip99_ess40,0.01254542803773993,0.0002893801708155481,0.012473098999707536,0.00028541861811979527,-11.766006341929248,-11.831586406340456,0.06558006441121016,0.06558006441121016,0.005109148241370638,0.020392364345908038,0.0005700980030567109,0.010097627306308862,0.0001351912294232525,0.010082224978126945,0.00013045104924732054,0.0038121089884024044,0.0038560352431356013,1.0,0.06541433463084764,1.1813497620140985,1.0638341032363479,1.094025231148453,1.181334514325507,3981.4424911193446,0.9953606227798361,0.010000000000000002,0.0,1.1806875211132115,0.08130741726913777,nan,0.04565557517112392,0.004672313527104515,564.5150358497791,0.0,stable,20,0.06558006441121016,0.0008084033931921644,0.005109148241370638,0,0.0
final,0.95,0.0,4000,0.05,0.1,misspecified_diag_quad,9.5,estimated_weighted_fqe_clipped,0.01254542803773993,0.0002893801708155481,0.012473098999707536,0.00028541861811979527,-11.766006341929248,-11.831586406340456,0.06558006441121016,0.06558006441121016,0.005109148241370638,0.020392364345908038,0.0005700980030567109,0.010097627306308862,0.0001351912294232525,0.010082224978126945,0.00013045104924732054,0.0038121089884024044,0.0038560352431356013,1.0,0.06541433463084764,1.1813497620140985,1.0638341032363479,1.094025231148453,1.181334514325507,3981.4424911193446,0.9953606227798361,0.010000000000000002,0.0,1.1806875211132115,0.08130741726913777,nan,0.04565557517112392,0.004672313527104515,564.5150358497791,0.0,stable,20,0.06558006441121016,0.0008084033931921644,0.005109148241370638,0,0.0
final,0.95,0.0,4000,0.05,0.1,misspecified_diag_quad,9.5,oracle_weighted_fqe,0.012523686542836535,0.0002941981724804365,0.012431416175118967,0.0002866457886670963,-11.763149805757221,-11.831586406340456,0.06843660058323531,0.06843660058323531,0.0056668418010997505,0.020662255045755223,0.000557911573710542,0.01004080603443558,0.000133180113801688,0.010030074067552403,0.0001311385178121315,0.0038153471836967095,0.0038730352488483646,1.0,0.0,1.0,1.0,1.0,1.0,4000.0,1.0,0.0,0.0,nan,0.0,1.0,0.0,0.0,572.003388345894,0.0,stable,20,0.06843660058323531,0.0009832735017104683,0.0056668418010997505,0,0.0
final,0.95,0.0,4000,0.05,0.1,misspecified_diag_quad,9.5,oracle_weighted_fqe_clipped,0.012523686542836535,0.0002941981724804365,0.012431416175118967,0.0002866457886670963,-11.763149805757221,-11.831586406340456,0.06843660058323531,0.06843660058323531,0.0056668418010997505,0.020662255045755223,0.000557911573710542,0.01004080603443558,0.000133180113801688,0.010030074067552403,0.0001311385178121315,0.0038153471836967095,0.0038730352488483646,1.0,0.0,1.0,1.0,1.0,1.0,4000.0,1.0,0.0,0.0,1.0,0.0,1.0,0.0,0.0,572.003388345894,0.0,stable,20,0.06843660058323531,0.0009832735017104683,0.0056668418010997505,0,0.0
final,0.95,0.0,4000,0.05,0.1,misspecified_diag_quad,9.5,standard_fqe,0.012523686542836535,0.0002941981724804365,0.012431416175118967,0.0002866457886670963,-11.763149805757221,-11.831586406340456,0.06843660058323531,0.06843660058323531,0.0056668418010997505,0.020662255045755223,0.000557911573710542,0.01004080603443558,0.000133180113801688,0.010030074067552403,0.0001311385178121315,0.0038153471836967095,0.0038730352488483646,1.0,0.0,1.0,1.0,1.0,1.0,4000.0,1.0,0.0,0.0,nan,0.0,1.0,0.0,0.0,572.003388345894,0.0,stable,20,0.06843660058323531,0.0009832735017104683,0.0056668418010997505,0,0.0
final,0.95,0.0,4000,0.05,0.1,well_specified,9.5,estimated_weighted_fqe,0.006289981945063023,2.5031043615192914e-05,0.006298737002755047,2.538058266404517e-05,-11.762301329317781,-11.831586406340456,0.06928507702267775,0.06928507702267775,0.005264503583576956,0.0060866340327968066,5.458457840725421e-05,0.006244995042017621,2.5185341333424233e-05,0.0062515911610905184,2.4811383653886628e-05,0.00010026918306136964,0.00010075914863477502,1.0,0.0675808620084216,1.4270505414909684,1.0632688990208348,1.0934429863633874,1.1807118455701908,3980.279870541971,0.9950699676354926,0.0,0.0,nan,0.08270593728800084,nan,0.04614026871989153,0.004966138669973043,4027.1827430728904,0.0,stable,20,0.06928507702267775,0.0004640816855385685,0.005264503583576956,0,0.0
final,0.95,0.0,4000,0.05,0.1,well_specified,9.5,estimated_weighted_fqe_clip95,0.0062441916403844396,2.4307416469505034e-05,0.006251633191192969,2.4647277237542835e-05,-11.762206891786008,-11.831586406340456,0.06937951455444917,0.06937951455444917,0.005281637324838962,0.006056614730761995,5.225902593130402e-05,0.00619959200678886,2.434512138408548e-05,0.006206702351033761,2.3983269588629466e-05,9.657262885369794e-05,9.722469419503306e-05,1.0,0.06062945974041446,1.0964450804053976,1.0661758590426653,1.096432869621245,1.0964450804053976,3983.879853619309,0.9959699634048272,0.05000000000000001,0.0,1.09342062131014,0.07769406373142865,nan,0.043713689261166894,0.004056154663568163,3919.1647547271687,0.0,stable,20,0.06937951455444917,0.00046812028502793657,0.005281637324838962,0,0.0
final,0.95,0.0,4000,0.05,0.1,well_specified,9.5,estimated_weighted_fqe_clip99_ess40,0.006267945360358712,2.4667290402367646e-05,0.006276384450492214,2.5022790016227664e-05,-11.762244735816454,-11.831586406340456,0.0693416705240046,0.0693416705240046,0.005272481815640811,0.006067495850663267,5.328792229313288e-05,0.006223819887791389,2.478125932691495e-05,0.006230654597339842,2.4405871979466708e-05,9.803371053185074e-05,9.857641986985293e-05,1.0,0.06541433463084764,1.1813497620140985,1.0638341032363479,1.094025231148453,1.181334514325507,3981.4424911193446,0.9953606227798361,0.010000000000000002,0.0,1.1806875211132115,0.08130741726913777,nan,0.04565557517112392,0.004672313527104515,3989.4888382333456,0.0,stable,20,0.0693416705240046,0.00046421454458120284,0.005272481815640811,0,0.0
final,0.95,0.0,4000,0.05,0.1,well_specified,9.5,estimated_weighted_fqe_clipped,0.006267945360358712,2.4667290402367646e-05,0.006276384450492214,2.5022790016227664e-05,-11.762244735816454,-11.831586406340456,0.0693416705240046,0.0693416705240046,0.005272481815640811,0.006067495850663267,5.328792229313288e-05,0.006223819887791389,2.478125932691495e-05,0.006230654597339842,2.4405871979466708e-05,9.803371053185074e-05,9.857641986985293e-05,1.0,0.06541433463084764,1.1813497620140985,1.0638341032363479,1.094025231148453,1.181334514325507,3981.4424911193446,0.9953606227798361,0.010000000000000002,0.0,1.1806875211132115,0.08130741726913777,nan,0.04565557517112392,0.004672313527104515,3989.4888382333456,0.0,stable,20,0.0693416705240046,0.00046421454458120284,0.005272481815640811,0,0.0
final,0.95,0.0,4000,0.05,0.1,well_specified,9.5,oracle_weighted_fqe,0.006303947608005738,2.5456756139378458e-05,0.006309983234748398,2.5814234431812545e-05,-11.761110965267767,-11.831586406340456,0.07047544107269221,0.07047544107269221,0.005416327191556611,0.006181296978802419,5.322669498627377e-05,0.006258224897643152,2.5397135366888564e-05,0.006264307642675533,2.5099913674449248e-05,9.668051990471355e-05,9.780749288492518e-05,1.0,0.0,1.0,1.0,1.0,1.0,4000.0,1.0,0.0,0.0,nan,0.0,1.0,0.0,0.0,4090.678807794705,0.0,stable,20,0.07047544107269221,0.0004495393971660974,0.005416327191556611,0,0.0
final,0.95,0.0,4000,0.05,0.1,well_specified,9.5,oracle_weighted_fqe_clipped,0.006303947608005738,2.5456756139378458e-05,0.006309983234748398,2.5814234431812545e-05,-11.761110965267767,-11.831586406340456,0.07047544107269221,0.07047544107269221,0.005416327191556611,0.006181296978802419,5.322669498627377e-05,0.006258224897643152,2.5397135366888564e-05,0.006264307642675533,2.5099913674449248e-05,9.668051990471355e-05,9.780749288492518e-05,1.0,0.0,1.0,1.0,1.0,1.0,4000.0,1.0,0.0,0.0,1.0,0.0,1.0,0.0,0.0,4090.678807794705,0.0,stable,20,0.07047544107269221,0.0004495393971660974,0.005416327191556611,0,0.0
final,0.95,0.0,4000,0.05,0.1,well_specified,9.5,standard_fqe,0.006303947608005738,2.5456756139378458e-05,0.006309983234748398,2.5814234431812545e-05,-11.761110965267767,-11.831586406340456,0.07047544107269221,0.07047544107269221,0.005416327191556611,0.006181296978802419,5.322669498627377e-05,0.006258224897643152,2.5397135366888564e-05,0.006264307642675533,2.5099913674449248e-05,9.668051990471355e-05,9.780749288492518e-05,1.0,0.0,1.0,1.0,1.0,1.0,4000.0,1.0,0.0,0.0,nan,0.0,1.0,0.0,0.0,4090.678807794705,0.0,stable,20,0.07047544107269221,0.0004495393971660974,0.005416327191556611,0,0.0
final,0.95,0.0,12000,0.05,0.1,misspecified_affine,9.5,estimated_weighted_fqe,3.3392927825531777,0.04458027671883484,3.335507585322496,0.04309276060251106,-12.154339555950461,-11.831586406340456,-0.32275314961000207,0.32275314961000207,0.10533841614045394,5.12340585102227,0.1472431220362714,3.2222007379569164,0.04613056296059389,3.200684070081281,0.04709680683076369,0.3494321650989061,0.3596425302366381,1.0,0.035388645818338074,1.2876652608522297,1.038046099491615,1.051646502149247,1.0908568202349405,11984.21321193615,0.9986844343280123,0.0,0.0,nan,0.03571372033868454,nan,0.024964578362854737,0.0013176817832273905,204.31115810072126,0.0,stable,20,-0.32275314961000207,0.0011688205572775664,0.10533841614045394,0,0.0
final,0.95,0.0,12000,0.05,0.1,misspecified_affine,9.5,estimated_weighted_fqe_clip95,3.2990827310596,0.044530218670043295,3.294961186588998,0.04300651938021666,-12.134866160010299,-11.831586406340456,-0.30327975366983945,0.30327975366983945,0.09338054586552312,5.144280929113468,0.1487970500216936,3.1824606978227226,0.046039243070918605,3.16091764032802,0.04703701340765016,0.3494551997705809,0.35984996686476134,1.0,0.031895643423589484,1.0530004928889025,1.039381409255018,1.0529988529528178,1.0530004928889025,11986.92863104025,0.9989107192533544,0.05000000000000001,0.0,1.0516331694321681,0.032678002533366106,nan,0.023737044905406016,0.0010908239273016394,203.88964706012985,0.0,stable,20,-0.30327975366983945,0.0014019368794846222,0.09338054586552312,0,0.0
final,0.95,0.0,12000,0.05,0.1,misspecified_affine,9.5,estimated_weighted_fqe_clip99_ess40,3.317208855572286,0.04456533398801463,3.3131704490371083,0.04305939187583155,-12.141301376834626,-11.831586406340456,-0.3097149704941666,0.3097149704941666,0.09717914781809854,5.135158549755458,0.14824114514883074,3.200436457157238,0.0461023339560789,3.178904036748345,0.047088972123914934,0.3494165870364485,0.35974756545977477,1.0,0.03399640591694854,1.0912247539245459,1.038394686741602,1.051999550241929,1.0912225347140156,11985.343141775667,0.9987785951479722,0.010000000000000002,0.0,1.0908430172456578,0.03458727430911103,nan,0.024640310901480916,0.0012232711710038085,204.13656922053144,0.0,stable,20,-0.3097149704941666,0.0012557848698960532,0.09717914781809854,0,0.0
final,0.95,0.0,12000,0.05,0.1,misspecified_affine,9.5,estimated_weighted_fqe_clipped,3.317208855572286,0.04456533398801463,3.3131704490371083,0.04305939187583155,-12.141301376834626,-11.831586406340456,-0.3097149704941666,0.3097149704941666,0.09717914781809854,5.135158549755458,0.14824114514883074,3.200436457157238,0.0461023339560789,3.178904036748345,0.047088972123914934,0.3494165870364485,0.35974756545977477,1.0,0.03399640591694854,1.0912247539245459,1.038394686741602,1.051999550241929,1.0912225347140156,11985.343141775667,0.9987785951479722,0.010000000000000002,0.0,1.0908430172456578,0.03458727430911103,nan,0.024640310901480916,0.0012232711710038085,204.13656922053144,0.0,stable,20,-0.3097149704941666,0.0012557848698960532,0.09717914781809854,0,0.0
final,0.95,0.0,12000,0.05,0.1,misspecified_affine,9.5,oracle_weighted_fqe,3.4105923815594417,0.04499157903183858,3.4077780338127246,0.04346367007130691,-12.146259996696102,-11.831586406340456,-0.31467359035564535,0.31467359035564535,0.10840358707604802,5.1135707685714555,0.1473533444681458,3.2942360785904747,0.046486107906814296,3.271535492009619,0.04743802810067452,0.3501310960308609,0.36012067201459985,1.0,0.0,1.0,1.0,1.0,1.0,12000.0,1.0,0.0,0.0,nan,0.0,1.0,0.0,0.0,204.2236066480852,0.0,stable,20,-0.31467359035564535,0.00938411860873553,0.10840358707604802,0,0.0
final,0.95,0.0,12000,0.05,0.1,misspecified_affine,9.5,oracle_weighted_fqe_clipped,3.4105923815594417,0.04499157903183858,3.4077780338127246,0.04346367007130691,-12.146259996696102,-11.831586406340456,-0.31467359035564535,0.31467359035564535,0.10840358707604802,5.1135707685714555,0.1473533444681458,3.2942360785904747,0.046486107906814296,3.271535492009619,0.04743802810067452,0.3501310960308609,0.36012067201459985,1.0,0.0,1.0,1.0,1.0,1.0,12000.0,1.0,0.0,0.0,1.0,0.0,1.0,0.0,0.0,204.2236066480852,0.0,stable,20,-0.31467359035564535,0.00938411860873553,0.10840358707604802,0,0.0
final,0.95,0.0,12000,0.05,0.1,misspecified_affine,9.5,standard_fqe,3.4105923815594417,0.04499157903183858,3.4077780338127246,0.04346367007130691,-12.146259996696102,-11.831586406340456,-0.31467359035564535,0.31467359035564535,0.10840358707604802,5.1135707685714555,0.1473533444681458,3.2942360785904747,0.046486107906814296,3.271535492009619,0.04743802810067452,0.3501310960308609,0.36012067201459985,1.0,0.0,1.0,1.0,1.0,1.0,12000.0,1.0,0.0,0.0,nan,0.0,1.0,0.0,0.0,204.2236066480852,0.0,stable,20,-0.31467359035564535,0.00938411860873553,0.10840358707604802,0,0.0
final,0.95,0.0,12000,0.05,0.1,misspecified_diag_quad,9.5,estimated_weighted_fqe,0.011295570802904891,0.00028338580799224254,0.011206859195160632,0.000277982774855984,-11.757446828206096,-11.831586406340456,0.07413957813436092,0.07413957813436092,0.005964860503352145,0.019768609774771174,0.0004991205615585325,0.00877312631912772,0.00011517096565555874,0.008781038872507172,0.00012320584587128316,0.0037344088055419056,0.003799282768816006,1.0,0.035388645818338074,1.2876652608522297,1.038046099491615,1.051646502149247,1.0908568202349405,11984.21321193615,0.9986844343280123,0.0,0.0,nan,0.03571372033868454,nan,0.024964578362854737,0.0013176817832273905,561.472872499414,0.0,stable,20,0.07413957813436092,0.00046818345741113696,0.005964860503352145,0,0.0
final,0.95,0.0,12000,0.05,0.1,misspecified_diag_quad,9.5,estimated_weighted_fqe_clip95,0.011247631480508235,0.00028333056165160455,0.011158758563981002,0.00027804532603157027,-11.75796087556489,-11.831586406340456,0.07362553077556636,0.07362553077556636,0.005887702346844358,0.01980780040731715,0.0005050012808168632,0.0087306855083952,0.00011604700982069456,0.008737154268285974,0.00012323516163321104,0.0037340328125445668,0.0037987531079727256,1.0,0.031895643423589484,1.0530004928889025,1.039381409255018,1.0529988529528178,1.0530004928889025,11986.92863104025,0.9989107192533544,0.05000000000000001,0.0,1.0516331694321681,0.032678002533366106,nan,0.023737044905406016,0.0010908239273016394,554.5136957445541,0.0,stable,20,0.07362553077556636,0.0004669835648604898,0.005887702346844358,0,0.0
final,0.95,0.0,12000,0.05,0.1,misspecified_diag_quad,9.5,estimated_weighted_fqe_clip99_ess40,0.011264296801400273,0.0002833206120895907,0.011176016262580532,0.00027800512355796985,-11.757780207829168,-11.831586406340456,0.07380619851128953,0.07380619851128953,0.005916814437476388,0.019808829104918702,0.0005033931785069027,0.008746188820767477,0.00011587719021270097,0.008752829931887559,0.00012314760835181745,0.0037345221722274993,0.0037990561174353543,1.0,0.03399640591694854,1.0912247539245459,1.038394686741602,1.051999550241929,1.0912225347140156,11985.343141775667,0.9987785951479722,0.010000000000000002,0.0,1.0908430172456578,0.03458727430911103,nan,0.024640310901480916,0.0012232711710038085,558.0540205882751,0.0,stable,20,0.07380619851128953,0.0004694594987885097,0.005916814437476388,0,0.0
final,0.95,0.0,12000,0.05,0.1,misspecified_diag_quad,9.5,estimated_weighted_fqe_clipped,0.011264296801400273,0.0002833206120895907,0.011176016262580532,0.00027800512355796985,-11.757780207829168,-11.831586406340456,0.07380619851128953,0.07380619851128953,0.005916814437476388,0.019808829104918702,0.0005033931785069027,0.008746188820767477,0.00011587719021270097,0.008752829931887559,0.00012314760835181745,0.0037345221722274993,0.0037990561174353543,1.0,0.03399640591694854,1.0912247539245459,1.038394686741602,1.051999550241929,1.0912225347140156,11985.343141775667,0.9987785951479722,0.010000000000000002,0.0,1.0908430172456578,0.03458727430911103,nan,0.024640310901480916,0.0012232711710038085,558.0540205882751,0.0,stable,20,0.07380619851128953,0.0004694594987885097,0.005916814437476388,0,0.0
final,0.95,0.0,12000,0.05,0.1,misspecified_diag_quad,9.5,oracle_weighted_fqe,0.011491208216964465,0.0002831474343326013,0.011397006612307138,0.00027713401877087587,-11.75698961653475,-11.831586406340456,0.07459678980570761,0.07459678980570761,0.006024279263426321,0.01959006040890435,0.0004887046912401044,0.008947215295991903,0.00011267275329003615,0.008958002181803468,0.0001223287506511532,0.0037304264789557407,0.0037981349044213714,1.0,0.0,1.0,1.0,1.0,1.0,12000.0,1.0,0.0,0.0,nan,0.0,1.0,0.0,0.0,564.551107192551,0.0,stable,20,0.07459678980570761,0.0004595982141093988,0.006024279263426321,0,0.0
final,0.95,0.0,12000,0.05,0.1,misspecified_diag_quad,9.5,oracle_weighted_fqe_clipped,0.011491208216964465,0.0002831474343326013,0.011397006612307138,0.00027713401877087587,-11.75698961653475,-11.831586406340456,0.07459678980570761,0.07459678980570761,0.006024279263426321,0.01959006040890435,0.0004887046912401044,0.008947215295991903,0.00011267275329003615,0.008958002181803468,0.0001223287506511532,0.0037304264789557407,0.0037981349044213714,1.0,0.0,1.0,1.0,1.0,1.0,12000.0,1.0,0.0,0.0,1.0,0.0,1.0,0.0,0.0,564.551107192551,0.0,stable,20,0.07459678980570761,0.0004595982141093988,0.006024279263426321,0,0.0
final,0.95,0.0,12000,0.05,0.1,misspecified_diag_quad,9.5,standard_fqe,0.011491208216964465,0.0002831474343326013,0.011397006612307138,0.00027713401877087587,-11.75698961653475,-11.831586406340456,0.07459678980570761,0.07459678980570761,0.006024279263426321,0.01959006040890435,0.0004887046912401044,0.008947215295991903,0.00011267275329003615,0.008958002181803468,0.0001223287506511532,0.0037304264789557407,0.0037981349044213714,1.0,0.0,1.0,1.0,1.0,1.0,12000.0,1.0,0.0,0.0,nan,0.0,1.0,0.0,0.0,564.551107192551,0.0,stable,20,0.07459678980570761,0.0004595982141093988,0.006024279263426321,0,0.0
final,0.95,0.0,12000,0.05,0.1,well_specified,9.5,estimated_weighted_fqe,0.0055304647669051805,1.7467427772898193e-05,0.005531552079225939,1.7834710147868816e-05,-11.757087829962881,-11.831586406340456,0.07449857637757909,0.07449857637757909,0.005861458935898692,0.0062582796932529995,3.9353171079515755e-05,0.0055237989282527315,1.9008962688667676e-05,0.0055164178203842475,1.8999491468228648e-05,5.119413287285223e-05,5.053988113473699e-05,1.0,0.035388645818338074,1.2876652608522297,1.038046099491615,1.051646502149247,1.0908568202349405,11984.21321193615,0.9986844343280123,0.0,0.0,nan,0.03571372033868454,nan,0.024964578362854737,0.0013176817832273905,4034.6645793029993,0.0,stable,20,0.07449857637757909,0.0003114210536127075,0.005861458935898692,0,0.0
final,0.95,0.0,12000,0.05,0.1,well_specified,9.5,estimated_weighted_fqe_clip95,0.005533424968469666,1.7382445002175622e-05,0.005534623872218688,1.7748987594936698e-05,-11.757145612846148,-11.831586406340456,0.0744407934943105,0.0744407934943105,0.005851249451268257,0.006245725253835021,3.9156883021775846e-05,0.005526706849863557,1.8896780047233285e-05,0.005519380323450819,1.89093030971432e-05,5.0888260794194276e-05,5.021349853551078e-05,1.0,0.031895643423589484,1.0530004928889025,1.039381409255018,1.0529988529528178,1.0530004928889025,11986.92863104025,0.9989107192533544,0.05000000000000001,0.0,1.0516331694321681,0.032678002533366106,nan,0.023737044905406016,0.0010908239273016394,3970.536413534594,0.0,stable,20,0.0744407934943105,0.00030981771520567625,0.005851249451268257,0,0.0
final,0.95,0.0,12000,0.05,0.1,well_specified,9.5,estimated_weighted_fqe_clip99_ess40,0.005531519963787082,1.7441730303884886e-05,0.005532778472532357,1.78106872973397e-05,-11.757122970661554,-11.831586406340456,0.07446343567890405,0.07446343567890405,0.005856049552485566,0.006252655023890399,3.928300475290806e-05,0.005524820381038744,1.8959546853432e-05,0.005517449410137638,1.8969733643974965e-05,5.1120449144498474e-05,5.043522215144608e-05,1.0,0.03399640591694854,1.0912247539245459,1.038394686741602,1.051999550241929,1.0912225347140156,11985.343141775667,0.9987785951479722,0.010000000000000002,0.0,1.0908430172456578,0.03458727430911103,nan,0.024640310901480916,0.0012232711710038085,4002.321421274948,0.0,stable,20,0.07446343567890405,0.00031124629937928476,0.005856049552485566,0,0.0
final,0.95,0.0,12000,0.05,0.1,well_specified,9.5,estimated_weighted_fqe_clipped,0.005531519963787082,1.7441730303884886e-05,0.005532778472532357,1.78106872973397e-05,-11.757122970661554,-11.831586406340456,0.07446343567890405,0.07446343567890405,0.005856049552485566,0.006252655023890399,3.928300475290806e-05,0.005524820381038744,1.8959546853432e-05,0.005517449410137638,1.8969733643974965e-05,5.1120449144498474e-05,5.043522215144608e-05,1.0,0.03399640591694854,1.0912247539245459,1.038394686741602,1.051999550241929,1.0912225347140156,11985.343141775667,0.9987785951479722,0.010000000000000002,0.0,1.0908430172456578,0.03458727430911103,nan,0.024640310901480916,0.0012232711710038085,4002.321421274948,0.0,stable,20,0.07446343567890405,0.00031124629937928476,0.005856049552485566,0,0.0
final,0.95,0.0,12000,0.05,0.1,well_specified,9.5,oracle_weighted_fqe,0.005533354236065005,1.7725096020441026e-05,0.005534638708177457,1.807580463422252e-05,-11.757123429226985,-11.831586406340456,0.07446297711347594,0.07446297711347594,0.0058529002853236495,0.006259356282124285,3.973892113641322e-05,0.005526539861012626,1.9310171763179387e-05,0.005519176158222182,1.935464448442915e-05,5.1624291823635046e-05,5.100675534810776e-05,1.0,0.0,1.0,1.0,1.0,1.0,12000.0,1.0,0.0,0.0,nan,0.0,1.0,0.0,0.0,4065.8015026954427,0.0,stable,20,0.07446297711347594,0.00030816532472160925,0.0058529002853236495,0,0.0
final,0.95,0.0,12000,0.05,0.1,well_specified,9.5,oracle_weighted_fqe_clipped,0.005533354236065005,1.7725096020441026e-05,0.005534638708177457,1.807580463422252e-05,-11.757123429226985,-11.831586406340456,0.07446297711347594,0.07446297711347594,0.0058529002853236495,0.006259356282124285,3.973892113641322e-05,0.005526539861012626,1.9310171763179387e-05,0.005519176158222182,1.935464448442915e-05,5.1624291823635046e-05,5.100675534810776e-05,1.0,0.0,1.0,1.0,1.0,1.0,12000.0,1.0,0.0,0.0,1.0,0.0,1.0,0.0,0.0,4065.8015026954427,0.0,stable,20,0.07446297711347594,0.00030816532472160925,0.0058529002853236495,0,0.0
final,0.95,0.0,12000,0.05,0.1,well_specified,9.5,standard_fqe,0.005533354236065005,1.7725096020441026e-05,0.005534638708177457,1.807580463422252e-05,-11.757123429226985,-11.831586406340456,0.07446297711347594,0.07446297711347594,0.0058529002853236495,0.006259356282124285,3.973892113641322e-05,0.005526539861012626,1.9310171763179387e-05,0.005519176158222182,1.935464448442915e-05,5.1624291823635046e-05,5.100675534810776e-05,1.0,0.0,1.0,1.0,1.0,1.0,12000.0,1.0,0.0,0.0,nan,0.0,1.0,0.0,0.0,4065.8015026954427,0.0,stable,20,0.07446297711347594,0.00030816532472160925,0.0058529002853236495,0,0.0
final,0.95,1.1,1000,0.05,0.1,misspecified_affine,9.5,estimated_weighted_fqe,47.251398865308985,1.2546374648509584,80.73443997722907,1.896060394070314,-12.991100773308617,-11.831586406340456,-1.1595143669681582,12.803889254960518,340.5337212362453,376.5871202908171,2.8917990848164314,88.9115409983412,2.13576348273481,47.30832044159747,1.4505343989179236,5.361524964171112,3.65234919939243,1.0,1.3306834682229964,7.2198438869179835,3.064323410262833,3.782169596361409,5.156911491511248,361.6573348800283,0.3616573348800283,0.0,0.0,nan,9.865996046761737,0.3545604786646956,1.2250173961874127,0.8157469989312711,255.07516810603965,0.25,finite_sample_variance_or_clipping;metric_instability_unclassified,20,-1.1595143669681582,339.18924766903973,340.5337212362453,5,0.25
final,0.95,1.1,1000,0.05,0.1,misspecified_affine,9.5,estimated_weighted_fqe_clip95,54.32758002308442,1.3276090822155406,87.14714953114425,2.1291902066998203,-9.300351109535042,-11.831586406340456,2.5312352968054137,14.200756419112233,365.4561503399688,404.40442193945483,3.2042295144631874,104.58222076431055,2.4320413041101254,54.218594291163626,1.5334225296512796,5.251678565985971,3.903495281001196,1.0,1.2626141162315105,3.954465198351964,3.203889034747733,3.953256016057106,3.954465198351964,386.21567807255866,0.38621567807255863,0.05000000000000001,0.0,4.760772232210583,9.883413041591094,0.3951692686984473,1.200932053516992,0.7921684462678166,261.80629945390046,0.3,metric_instability_unclassified,20,2.5312352968054137,359.04899821217515,365.4561503399688,6,0.3
final,0.95,1.1,1000,0.05,0.1,misspecified_affine,9.5,estimated_weighted_fqe_clip99_ess40,32.40179140928619,0.7721637112108001,51.38118888424651,1.4075066537573708,-12.520109025069377,-11.831586406340456,-0.6885226187289187,10.761966348888595,203.5586536501963,228.43535307425446,1.8959452481209902,57.1684904652591,1.4608352640782842,32.415986296660876,0.8889449286844444,4.763683331593279,2.531683895927653,1.0,1.2247448709380635,4.908567043218712,2.943819981037395,3.617005160412719,4.907906021572648,400.00000017774494,0.40000000017774495,0.010000000000000002,0.06570710186846554,6.488844327363344,13.466746382881814,0.36336068265757226,1.2475816118546397,0.8127127304643859,273.16314463187734,0.25,metric_instability_unclassified,20,-0.6885226187289187,203.08459025369496,203.5586536501963,5,0.25
final,0.95,1.1,1000,0.05,0.1,misspecified_affine,9.5,estimated_weighted_fqe_clipped,47.881005059058865,1.2603726831687303,81.56495861383343,1.9478352258850236,-11.998481036061964,-11.831586406340456,-0.16689462972150793,13.039986310123425,343.06020231137086,379.69577796976284,2.9457077221806633,91.8843831876098,2.20023274500627,47.83260421959115,1.4559736745408762,5.332076819450981,3.700718334899637,1.0,1.3135474355281782,5.193798701925382,3.0861489140661833,3.809187851962492,5.193096020516922,367.6509622974108,0.3676509622974108,0.010000000000000002,0.0,6.488844327363344,9.86824495552989,0.36336068265757226,1.220783796356922,0.8103119228853444,255.40443888774394,0.2,metric_instability_unclassified,20,-0.16689462972150793,343.03234849394096,343.06020231137086,4,0.2
final,0.95,1.1,1000,0.05,0.1,misspecified_affine,9.5,oracle_weighted_fqe,9.935199011949368,0.5636383906044169,201.4985376529231,5.431007088936978,-1.6476807212786686,-11.831586406340456,10.183905685061788,10.914709638820113,120.31072869756547,152.7753006293362,2.0456971530057686,75.08518320023441,2.3036410609852007,9.922755287283996,0.6374970963327021,39.66512982085063,3.8861162081557383,1.0,4.982274788031511,104.14003174115885,3.0242147675365074,6.096383986775228,13.479056061463059,58.321081603312585,0.058321081603312584,0.0,0.0,nan,0.0,1.0,0.0,0.0,245.79308103669305,1.0,overlap_collapse;overlap_collapse;finite_sample_variance_or_clipping,20,10.183905685061788,16.59879369533165,120.31072869756547,20,1.0
final,0.95,1.1,1000,0.05,0.1,misspecified_affine,9.5,oracle_weighted_fqe_clipped,28.64655779109006,0.22063763242379886,35.44714488856372,0.9814528667733219,-11.879730968596181,-11.831586406340456,-0.048144562255723056,2.697663560834912,14.815244876961865,22.44990696797156,0.3313532376378797,31.86372801923178,0.5755399930478029,28.501666020219574,0.25031152365741344,3.7044434103209154,0.8782996483500627,1.0,1.732050806674413,10.316417698346308,2.643037379795883,4.886309057573191,10.308487254298111,250.0000001936572,0.2500000001936572,0.010000000000000002,0.4036708670668304,8.122361878439117,14.170786713700306,0.7933079255997739,0.7180173802470315,0.46046538463705095,239.3344847092848,0.05,metric_instability_unclassified,20,-0.048144562255723056,14.812926978087072,14.815244876961865,1,0.05
final,0.95,1.1,1000,0.05,0.1,misspecified_affine,9.5,standard_fqe,487.0401327413627,1.985911029926413,385.8850914909061,2.227059701620276,-2.1064854245677713,-11.831586406340456,9.725100981772687,9.725100981772687,119.32161236833599,131.78750159768566,0.9233622716718456,412.056400941184,2.1854926706006337,486.19856373018877,2.2883062686918962,3.1024667634736796,1.737122078877272,1.0,0.0,1.0,1.0,1.0,1.0,1000.0,1.0,0.0,0.0,nan,14.975009479442567,nan,1.6737866163557051,0.9416789183966874,595.2765263187621,0.0,stable,20,9.725100981772687,24.744023262659937,119.32161236833599,0,0.0
final,0.95,1.1,1000,0.05,0.1,misspecified_diag_quad,9.5,estimated_weighted_fqe,3.1729923730272264e+39,2.5202732610525894e+38,5.556323433295875e+39,1.4332723457172283e+38,-2.9644520204769927e+19,-11.831586406340456,-2.9644520204769927e+19,2.9644520204769927e+19,1.7575951562525114e+40,5.214060046412271e+40,1.263539001724471e+39,8.780116275164868e+40,2.8229020267787273e+39,2.742008205719293e+39,2.3612323580273286e+38,4.719760397080847e+40,3.604653587146061e+39,1.0,1.3306834682229964,7.2198438869179835,3.064323410262833,3.782169596361409,5.156911491511248,361.6573348800283,0.3616573348800283,0.0,0.0,nan,9.865996046761737,0.3545604786646956,1.2250173961874127,0.8157469989312711,6715.458059471564,0.1,finite_sample_variance_or_clipping;metric_instability_unclassified,20,-2.9644520204769927e+19,1.6697153984354096e+40,1.7575951562525114e+40,2,0.1
final,0.95,1.1,1000,0.05,0.1,misspecified_diag_quad,9.5,estimated_weighted_fqe_clip95,1.9215385992246845e+38,1.553111120656582e+37,3.68836144979957e+38,9.536231883156095e+36,-7.532067687997372e+18,-11.831586406340456,-7.532067687997372e+18,7.532067687997372e+18,1.1346408645775784e+39,3.2294201986133643e+39,7.799312573162792e+37,5.387354396996747e+39,1.7341093081552128e+38,1.6571435664982846e+38,1.455804714417692e+37,2.8166479679812687e+39,2.2018202577756383e+38,1.0,1.2626141162315105,3.954465198351964,3.203889034747733,3.953256016057106,3.954465198351964,386.21567807255866,0.38621567807255863,0.05000000000000001,0.0,4.760772232210583,9.883413041591094,0.3951692686984473,1.200932053516992,0.7921684462678166,6853.105927051935,0.1,metric_instability_unclassified,20,-7.532067687997372e+18,1.0779088209210044e+39,1.1346408645775784e+39,2,0.1
final,0.95,1.1,1000,0.05,0.1,misspecified_diag_quad,9.5,estimated_weighted_fqe_clip99_ess40,6.358440513488971e+36,5.20003707835587e+35,1.3416573712073954e+37,3.51438939856528e+35,-1.386131616034439e+18,-11.831586406340456,-1.386131616034439e+18,1.386131616034439e+18,3.842721713830685e+37,1.0832890094726623e+38,2.6171231633006056e+36,1.7932625532806695e+38,5.813405646989029e+36,5.472239618350497e+36,4.8749249711836304e+35,9.072395161416721e+37,7.313738324206275e+36,1.0,1.2247448709380635,4.908567043218712,2.943819981037395,3.617005160412719,4.907906021572648,400.00000017774494,0.40000000017774495,0.010000000000000002,0.06570710186846554,6.488844327363344,13.466746382881814,0.36336068265757226,1.2475816118546397,0.8127127304643859,6546.449943898677,0.1,metric_instability_unclassified,20,-1.386131616034439e+18,3.6505856281336585e+37,3.842721713830685e+37,2,0.1
final,0.95,1.1,1000,0.05,0.1,misspecified_diag_quad,9.5,estimated_weighted_fqe_clipped,1.135554394526488e+39,9.080302009060038e+37,2.056627949296919e+39,5.308999873249284e+37,-1.7959331139687117e+19,-11.831586406340456,-1.7959331139687117e+19,1.7959331139687117e+19,6.45075149481998e+39,1.8824019291780234e+40,4.555038594548751e+38,3.1584442666340663e+40,1.0157007464718159e+39,9.805719122873081e+38,8.50914717166845e+37,1.6810463700330124e+40,1.2944624062956428e+39,1.0,1.3135474355281782,5.193798701925382,3.0861489140661833,3.809187851962492,5.193096020516922,367.6509622974108,0.3676509622974108,0.010000000000000002,0.0,6.488844327363344,9.86824495552989,0.36336068265757226,1.220783796356922,0.8103119228853444,6736.348179525058,0.1,metric_instability_unclassified,20,-1.7959331139687117e+19,6.128213919835046e+39,6.45075149481998e+39,2,0.1
final,0.95,1.1,1000,0.05,0.1,misspecified_diag_quad,9.5,oracle_weighted_fqe,6.977032411413212,0.3093413459653315,77.81223766563478,2.1705823426908966,-11.826934037828238,-11.831586406340456,0.004652368512219729,3.9547820928293334,30.889193148982912,52.0152279821947,1.0397107968149775,6.70914486818284,0.39840716153640027,7.397168544429372,0.389721246654984,67.11527850759876,1.138271000032799,1.0,4.982274788031511,104.14003174115885,3.0242147675365074,6.096383986775228,13.479056061463059,58.321081603312585,0.058321081603312584,0.0,0.0,nan,0.0,1.0,0.0,0.0,949.0059251577115,1.0,overlap_collapse,20,0.004652368512219729,30.889171504450143,30.889193148982912,20,1.0
final,0.95,1.1,1000,0.05,0.1,misspecified_diag_quad,9.5,oracle_weighted_fqe_clipped,4.58738427778166e+23,4.235652133981992e+22,2.160540629946063e+24,5.811134750928921e+22,-902035868080.5697,-11.831586406340456,-902035868068.7379,902035868068.7379,5.393941220268869e+24,9.242723561636732e+24,1.9450863636842624e+23,1.1738105769042164e+25,3.874873332806328e+23,3.8522645327663535e+23,4.076988552309527e+22,3.4448964861119593e+24,4.633454643043589e+23,1.0,1.732050806674413,10.316417698346308,2.643037379795883,4.886309057573191,10.308487254298111,250.0000001936572,0.2500000001936572,0.010000000000000002,0.4036708670668304,8.122361878439117,14.170786713700306,0.7933079255997739,0.7180173802470315,0.46046538463705095,4921.123029262744,0.8,metric_instability_unclassified,20,-902035868068.7379,4.580272512986348e+24,5.393941220268869e+24,16,0.8
final,0.95,1.1,1000,0.05,0.1,misspecified_diag_quad,9.5,standard_fqe,9.032292575034389e+23,8.462252121265283e+22,4.3487386043634843e+24,1.273139508149872e+23,-678593708515.1313,-11.831586406340456,-678593708503.2998,678593708503.2998,4.387942298457713e+24,1.5122224573014267e+25,4.064545527457311e+23,2.49611521655925e+25,9.16850975165387e+23,7.566491967471959e+23,7.878208450093054e+22,7.582359955076373e+24,1.0962534876644218e+24,1.0,0.0,1.0,1.0,1.0,1.0,1000.0,1.0,0.0,0.0,nan,14.975009479442567,nan,1.6737866163557051,0.9416789183966874,8865.639258243515,0.0,stable,20,-678593708503.2998,3.927452877237454e+24,4.387942298457713e+24,0,0.0
final,0.95,1.1,1000,0.05,0.1,well_specified,9.5,estimated_weighted_fqe,3076045.398698075,167161.56374403392,928548.0558134813,43235.33860137306,-1212.8394175360122,-11.831586406340456,-1201.0078311296718,1208.5597643335354,28304890.951558817,39004983.101935275,612400.2566193388,3392251.239446731,195793.24880495126,3052428.15563187,181101.79864115376,52871.871168129364,523158.50677082577,1.0,1.3306834682229964,7.2198438869179835,3.064323410262833,3.782169596361409,5.156911491511248,361.6573348800283,0.3616573348800283,0.0,0.0,nan,9.865996046761737,0.3545604786646956,1.2250173961874127,0.8157469989312711,13821.987921185113,0.65,finite_sample_variance_or_clipping;metric_instability_unclassified,20,-1201.0078311296718,26862471.14112402,28304890.951558817,13,0.65
final,0.95,1.1,1000,0.05,0.1,well_specified,9.5,estimated_weighted_fqe_clip95,5283569.234132418,286200.35499668174,1565378.706410088,72689.52976117861,-1583.6530463850434,-11.831586406340456,-1571.821459978703,1579.5629974469991,48590207.25509019,66868656.76213165,1047307.0941512389,5818746.586649603,335137.8506570257,5243630.189502908,310135.6873246233,97768.86221409815,894415.9897036513,1.0,1.2626141162315105,3.954465198351964,3.203889034747733,3.953256016057106,3.954465198351964,386.21567807255866,0.38621567807255863,0.05000000000000001,0.0,4.760772232210583,9.883413041591094,0.3951692686984473,1.200932053516992,0.7921684462678166,13895.676616948243,0.5,metric_instability_unclassified,20,-1571.821459978703,46119584.55304062,48590207.25509019,10,0.5
final,0.95,1.1,1000,0.05,0.1,well_specified,9.5,estimated_weighted_fqe_clip99_ess40,450171.3719052292,24400.8208652528,161262.00478720298,7208.414016103976,-473.1454580021541,-11.831586406340456,-461.3138715958136,468.0238669882668,4194053.1567700305,5746657.673326628,89502.95216336023,519933.95235013217,28984.438170282454,447144.94050322194,26487.993243798916,6061.400171604721,77546.71605077166,1.0,1.2247448709380635,4.908567043218712,2.943819981037395,3.617005160412719,4.907906021572648,400.00000017774494,0.40000000017774495,0.010000000000000002,0.06570710186846554,6.488844327363344,13.466746382881814,0.36336068265757226,1.2475816118546397,0.8127127304643859,14574.245794714985,0.5,metric_instability_unclassified,20,-461.3138715958136,3981242.6686433116,4194053.1567700305,10,0.5
final,0.95,1.1,1000,0.05,0.1,well_specified,9.5,estimated_weighted_fqe_clipped,2887263.3675245857,156801.13962069488,866658.8430055615,40444.19002074709,-1174.1903562393427,-11.831586406340456,-1162.358769833002,1170.0609322869454,26533556.391682375,36569762.51385169,574233.3747727737,3172193.3270547553,183452.51894575797,2865028.3241132186,169866.50324096403,48943.414962214956,489786.32279927144,1.0,1.3135474355281782,5.193798701925382,3.0861489140661833,3.809187851962492,5.193096020516922,367.6509622974108,0.3676509622974108,0.010000000000000002,0.0,6.488844327363344,9.86824495552989,0.36336068265757226,1.220783796356922,0.8103119228853444,13720.545280536122,0.6,metric_instability_unclassified,20,-1162.358769833002,25182478.481874693,26533556.391682375,12,0.6
final,0.95,1.1,1000,0.05,0.1,well_specified,9.5,oracle_weighted_fqe,18679945212598.723,902213122617.3223,12406487413123.441,745001322197.6036,-2893179.5130518116,-11.831586406340456,-2893167.6814654055,2893169.244326531,167389798355296.06,228696267486345.34,3483991487014.2837,23272417103610.297,1220638589498.4243,19122477389569.43,1129728749110.9355,1735589819872.4565,2784580344402.3184,1.0,4.982274788031511,104.14003174115885,3.0242147675365074,6.096383986775228,13.479056061463059,58.321081603312585,0.058321081603312584,0.0,0.0,nan,0.0,1.0,0.0,0.0,996.8094036215531,1.0,overlap_collapse;overlap_collapse;finite_sample_variance_or_clipping,20,-2893167.6814654055,159019379122220.12,167389798355296.06,20,1.0
final,0.95,1.1,1000,0.05,0.1,well_specified,9.5,oracle_weighted_fqe_clipped,25.343031326776124,1.3552643310740387,19.681786643726493,0.7498220700010795,-15.749042403715032,-11.831586406340456,-3.9174559973745757,7.242796006971029,249.58194776477535,334.16815868638696,5.021470552290364,36.82815220332657,1.767873290474634,25.22874953319697,1.4934393449995613,0.005396712128399291,4.741606424799164,1.0,1.732050806674413,10.316417698346308,2.643037379795883,4.886309057573191,10.308487254298111,250.0000001936572,0.2500000001936572,0.010000000000000002,0.4036708670668304,8.122361878439117,14.170786713700306,0.7933079255997739,0.7180173802470315,0.46046538463705095,11110.50685904828,0.15,metric_instability_unclassified,20,-3.9174559973745757,234.23548627340932,249.58194776477535,3,0.15
final,0.95,1.1,1000,0.05,0.1,well_specified,9.5,standard_fqe,472466.93345968454,25366.770955906417,412642.2882861277,13909.254302053023,-515.9418003742136,-11.831586406340456,-504.11021396787316,509.4539245796065,5090534.361501762,6625746.264435221,94882.94834709607,917148.1715284435,37174.29730257896,474324.20412063075,28217.853309282007,13727.906978875162,102060.17429921731,1.0,0.0,1.0,1.0,1.0,1.0,1000.0,1.0,0.0,0.0,nan,14.975009479442567,nan,1.6737866163557051,0.9416789183966874,27689.522507721977,0.0,stable,20,-504.11021396787316,4836407.253675026,5090534.361501762,0,0.0
final,0.95,1.1,4000,0.05,0.1,misspecified_affine,9.5,estimated_weighted_fqe,5.532555060529663,0.14321254360009397,23.550796771904594,0.9229669468171388,-9.183547482176623,-11.831586406340456,2.648038924163836,3.932982272064753,23.593588099888652,34.03185529604816,0.5603690842716816,19.0644276732028,0.7129607744701923,5.402745184838761,0.16112829908475224,5.110435218291168,0.9095586666432082,1.0,1.3371720161699217,9.22806758400978,3.0307819134198932,3.8015472033165545,5.267167918227182,1435.9875061593668,0.3589968765398417,0.0,0.0,nan,9.88082842700402,0.27617678645818305,1.240568094571675,0.8824455319912173,250.73547548054685,0.0,stable,20,2.648038924163836,16.581477956001883,23.593588099888652,0,0.0
final,0.95,1.1,4000,0.05,0.1,misspecified_affine,9.5,estimated_weighted_fqe_clip95,13.396302197550252,0.22040447352115314,29.982093181429956,1.1352322012721712,-6.470007172174887,-11.831586406340456,5.36157923416557,5.751855551456104,46.484102229085906,58.758045871423974,0.8181305246767614,31.586054970969748,0.9367277683366352,13.236864570192342,0.24877108160427658,4.962448397537431,1.0492482120627264,1.0,1.262614620835644,3.9827078612310935,3.1748384061786448,3.9823727493550427,3.9827078612310935,1542.9999609282463,0.3857499902320615,0.05000000000000001,0.0,4.767927195618158,9.898827983281947,0.3096170695958086,1.215368051269661,0.8666393804638203,257.0880387247344,0.0,stable,20,5.36157923416557,17.737570344850425,46.484102229085906,0,0.0
final,0.95,1.1,4000,0.05,0.1,misspecified_affine,9.5,estimated_weighted_fqe_clip99_ess40,9.181279160338295,0.10886983522484821,20.924098181734525,0.8016664909891507,-11.127274257536644,-11.831586406340456,0.7043121488038132,3.1735391598748257,14.435890562728758,21.445281227288707,0.35105598835702145,16.413326030338276,0.539726087641543,8.977868541532148,0.1175613697459689,4.532499203356173,0.7133954517471682,1.0,1.2247448710281463,5.0031871893350495,2.909805448593859,3.631302101276553,5.003063077942169,1600.0000005697593,0.4000000001424399,0.010000000000000002,0.06932889436604454,6.606426088259464,13.546156333021523,0.28353236110560287,1.2630266180625997,0.8806246865824804,270.62629132791994,0.0,stable,20,0.7043121488038132,13.939834959776116,14.435890562728758,0,0.0
final,0.95,1.1,4000,0.05,0.1,misspecified_affine,9.5,estimated_weighted_fqe_clipped,6.487315373044218,0.15769798463230786,24.48132025349339,0.9770782155112526,-8.43105712743774,-11.831586406340456,3.4005292789027175,4.222588955151211,27.184113003142876,38.220138120978504,0.6210804765632985,21.102530606243157,0.7648848749390251,6.343202255720076,0.1776708994659583,5.06016207579126,0.9367434714358998,1.0,1.317138722435578,5.307862090215017,3.054009039404813,3.83079292659828,5.307727736988578,1463.8505865368911,0.36596264663422273,0.010000000000000002,0.0,6.606426088259464,9.88329241188647,0.2835323611056029,1.2362054881549116,0.8788620844670152,251.14218987550444,0.0,stable,20,3.4005292789027175,15.620513626468234,27.184113003142876,0,0.0
final,0.95,1.1,4000,0.05,0.1,misspecified_affine,9.5,oracle_weighted_fqe,9.204735756555138,0.5674118832925761,210.77114523231745,5.641504753221545,-0.7698915121632299,-11.831586406340456,11.061694894177226,11.061694894177226,122.42911122754269,155.71875049686747,2.1104113060429674,78.61862397469801,2.4086124223998526,9.183168197410385,0.6395041541728108,41.009894888199575,4.007691882170518,1.0,7.800069911607375,365.4578778914355,2.7983398172987153,5.817823136943837,13.135140344614248,146.66090532248964,0.0366652263306224,0.0,0.0,nan,0.0,1.0,0.0,0.0,229.82094090455826,1.0,overlap_collapse;overlap_collapse;finite_sample_variance_or_clipping,20,11.061694894177226,0.06801729567614721,122.42911122754269,20,1.0
final,0.95,1.1,4000,0.05,0.1,misspecified_affine,9.5,oracle_weighted_fqe_clipped,28.159546157720847,0.19933679550097366,37.63941578584807,1.0429179525987966,-10.60389294257266,-11.831586406340456,1.2276934637677983,2.1774460712653374,6.528210862808697,13.003747459375834,0.28289861175708547,33.78047586560159,0.59733126528432,27.922242684534705,0.22363882583758884,3.6774121026227817,0.7645813289433004,1.0,1.7320508069187777,10.549648687697312,2.5885871533365696,4.9089025388367045,10.54824796266385,1000.0000005630027,0.2500000001407507,0.010000000000000002,0.4060379478847608,8.014242748330117,14.200915448139767,0.6296254674160486,0.7300938081553279,0.6441029358319688,241.7348406671468,0.0,stable,20,1.2276934637677983,5.0209796218305245,6.528210862808697,0,0.0
final,0.95,1.1,4000,0.05,0.1,misspecified_affine,9.5,standard_fqe,499.9724214698029,1.8651229434166996,407.3171300168704,2.1166453138371564,0.1910127092317378,-11.831586406340456,12.022599115572199,12.022599115572199,151.93356576431754,159.87646777124758,0.9541140474050718,435.9427766678617,1.9648645257561257,499.07535425657204,2.149202266834229,3.078735884423099,1.4035852244147082,1.0,0.0,1.0,1.0,1.0,1.0,4000.0,1.0,0.0,0.0,nan,14.99811300923012,nan,1.6748619020087268,0.9633347736693777,604.3376595849539,0.0,stable,20,12.022599115572199,7.390676270560176,151.93356576431754,0,0.0
final,0.95,1.1,4000,0.05,0.1,misspecified_diag_quad,9.5,estimated_weighted_fqe,25.746880139635994,1.154680560704842,58.485681296458566,1.6488664285986716,-18.13938674083133,-11.831586406340456,-6.307800334490872,7.078207749048163,159.35409802402168,250.08757936815573,4.1375794180174434,79.42257564401874,2.6702454666736,26.593704592734497,1.3677124134883594,2.3428089783954085,5.416735166641407,1.0,1.3371720161699217,9.22806758400978,3.0307819134198932,3.8015472033165545,5.267167918227182,1435.9875061593668,0.3589968765398417,0.0,0.0,nan,9.88082842700402,0.27617678645818305,1.240568094571675,0.8824455319912173,5823.833031962585,0.0,stable,20,-6.307800334490872,119.56575296421859,159.35409802402168,0,0.0
final,0.95,1.1,4000,0.05,0.1,misspecified_diag_quad,9.5,estimated_weighted_fqe_clip95,192.38817702170167,8.109720045349627,486.4909597290921,13.212895695390586,-24.001457622997712,-11.831586406340456,-12.169871216657253,12.390969774443557,1771.948598047888,2253.450294467172,29.395071549292595,656.9443543103547,20.232591591774423,203.89048037218393,10.158093846912347,6.70830084381299,31.588076838314684,1.0,1.262614620835644,3.9827078612310935,3.1748384061786448,3.9823727493550427,3.9827078612310935,1542.9999609282463,0.3857499902320615,0.05000000000000001,0.0,4.767927195618158,9.898827983281947,0.3096170695958086,1.215368051269661,0.8666393804638203,6065.943394994595,0.0,stable,20,-12.169871216657253,1623.8428326178641,1771.948598047888,0,0.0
final,0.95,1.1,4000,0.05,0.1,misspecified_diag_quad,9.5,estimated_weighted_fqe_clip99_ess40,12829171862.157583,689309637.9727306,51660237543.05397,1418030735.7657669,-86717.53786151645,-11.831586406340456,-86705.7062751101,86705.7482024934,150052833517.95367,189606960368.947,2608485314.9482317,117757979391.78244,3719737678.6922493,12959584829.135471,843540273.1075894,8454709308.568423,4782157068.817077,1.0,1.2247448710281463,5.0031871893350495,2.909805448593859,3.631302101276553,5.003063077942169,1600.0000005697593,0.4000000001424399,0.010000000000000002,0.06932889436604454,6.606426088259464,13.546156333021523,0.28353236110560287,1.2630266180625997,0.8806246865824804,5886.662651114638,0.0,stable,20,-86705.7062751101,142534954017.28802,150052833517.95367,0,0.0
final,0.95,1.1,4000,0.05,0.1,misspecified_diag_quad,9.5,estimated_weighted_fqe_clipped,42.02703494844509,1.757720386491247,90.9030129333841,2.4618509005121925,-18.497246870953983,-11.831586406340456,-6.665660464613525,7.138976898530883,309.34432607893655,431.50979825952925,6.209032275696707,123.96228131862763,3.8983717722753206,44.114069225292695,2.15536450457226,2.0776076383503845,7.485275186414363,1.0,1.317138722435578,5.307862090215017,3.054009039404813,3.83079292659828,5.307727736988578,1463.8505865368911,0.36596264663422273,0.010000000000000002,0.0,6.606426088259464,9.88329241188647,0.2835323611056029,1.2362054881549116,0.8788620844670152,5908.7969989519415,0.0,stable,20,-6.665660464613525,264.9132966494249,309.34432607893655,0,0.0
final,0.95,1.1,4000,0.05,0.1,misspecified_diag_quad,9.5,oracle_weighted_fqe,0.908639838273371,0.04807730773218062,68.11040900878952,1.884680331026058,-9.674914191917544,-11.831586406340456,2.156672214422913,2.696514615729053,8.3388204011283,11.54553300294416,0.17837686684317205,1.8354419366655388,0.0750344326433189,0.9267771726343158,0.055105866188550144,59.24854806210383,0.21880348290777368,1.0,7.800069911607375,365.4578778914355,2.7983398172987153,5.817823136943837,13.135140344614248,146.66090532248964,0.0366652263306224,0.0,0.0,nan,0.0,1.0,0.0,0.0,923.7215173191419,1.0,overlap_collapse,20,2.156672214422913,3.6875853606644684,8.3388204011283,20,1.0
final,0.95,1.1,4000,0.05,0.1,misspecified_diag_quad,9.5,oracle_weighted_fqe_clipped,9.927933820438084e+19,8.254311904064656e+18,4.782234280212597e+20,1.2971205451501222e+19,-13983246894.89603,-11.831586406340456,-13983246883.064442,13983246883.064442,1.2017031260991744e+21,1.742324547229133e+21,3.2723215385586893e+19,2.1232069740779497e+21,6.9389602083982434e+19,9.625455891626954e+19,9.122619285151367e+18,4.6753215841535105e+20,8.260429557480432e+19,1.0,1.7320508069187777,10.549648687697312,2.5885871533365696,4.9089025388367045,10.54824796266385,1000.0000005630027,0.2500000001407507,0.010000000000000002,0.4060379478847608,8.014242748330117,14.200915448139767,0.6296254674160486,0.7300938081553279,0.6441029358319688,5120.548253999919,0.95,metric_instability_unclassified,20,-13983246883.064442,1.0061719327064432e+21,1.2017031260991744e+21,19,0.95
final,0.95,1.1,4000,0.05,0.1,misspecified_diag_quad,9.5,standard_fqe,6.816224009294238e+18,6.604696080210621e+17,4.385893024605626e+19,1.3406675663804785e+18,-2318446451.807718,-11.831586406340456,-2318446439.9761314,2318446439.9761314,4.9119671393412006e+19,1.0940595342367811e+20,2.790955511380684e+18,1.84655340496104e+20,6.813794385734138e+18,6.148617852942983e+18,6.812053385221738e+17,3.85549579568716e+19,8.042654205835431e+18,1.0,0.0,1.0,1.0,1.0,1.0,4000.0,1.0,0.0,0.0,nan,14.99811300923012,nan,1.6748619020087268,0.9633347736693777,9144.731437752385,0.0,stable,20,-2318446439.9761314,4.3744477498374005e+19,4.9119671393412006e+19,0,0.0
final,0.95,1.1,4000,0.05,0.1,well_specified,9.5,estimated_weighted_fqe,116781880.87402728,6362394.767676275,74768522.60601774,2845013.8043510276,-7942.559202662667,-11.831586406340456,-7930.727616256327,7933.752234742967,1257381293.5025363,1622924927.4514773,23708926.248942044,198239917.5107835,8729414.739186877,121760107.9656463,7655855.508021486,6143444.630382741,24331614.32407165,1.0,1.3371720161699217,9.22806758400978,3.0307819134198932,3.8015472033165545,5.267167918227182,1435.9875061593668,0.3589968765398417,0.0,0.0,nan,9.88082842700402,0.27617678645818305,1.240568094571675,0.8824455319912173,13913.991536768048,0.6,finite_sample_variance_or_clipping;metric_instability_unclassified,20,-7930.727616256327,1194484852.9792852,1257381293.5025363,12,0.6
final,0.95,1.1,4000,0.05,0.1,well_specified,9.5,estimated_weighted_fqe_clip95,56389663.68147751,3072534.3674515234,40024992.00116444,1477185.3005783292,-5558.795509699379,-11.831586406340456,-5546.963923293039,5550.1838588226565,615076928.0868541,788679240.6277378,11380406.591535758,101669364.90341829,4307738.961783353,58836493.642903686,3703175.6304482534,3067545.098489498,12042344.233620951,1.0,1.262614620835644,3.9827078612310935,3.1748384061786448,3.9823727493550427,3.9827078612310935,1542.9999609282463,0.3857499902320615,0.05000000000000001,0.0,4.767927195618158,9.898827983281947,0.3096170695958086,1.215368051269661,0.8666393804638203,13745.237908776267,0.55,metric_instability_unclassified,20,-5546.963923293039,584308119.3205397,615076928.0868541,11,0.55
final,0.95,1.1,4000,0.05,0.1,well_specified,9.5,estimated_weighted_fqe_clip99_ess40,606205.1784285511,32878.74705044717,500927.94627865,18530.846671469473,-586.6434236879523,-11.831586406340456,-574.8118372816118,577.8767895406986,6587461.830692052,8445326.561367165,121865.23882359025,1091789.6605425063,46165.81409374175,632592.6967993013,39652.668336615105,16772.147922447035,127610.58293398668,1.0,1.2247448710281463,5.0031871893350495,2.909805448593859,3.631302101276553,5.003063077942169,1600.0000005697593,0.4000000001424399,0.010000000000000002,0.06932889436604454,6.606426088259464,13.546156333021523,0.28353236110560287,1.2630266180625997,0.8806246865824804,14651.09200480233,0.5,metric_instability_unclassified,20,-574.8118372816118,6257053.182412991,6587461.830692052,10,0.5
final,0.95,1.1,4000,0.05,0.1,well_specified,9.5,estimated_weighted_fqe_clipped,77037760.43280812,4192697.373539968,50444440.51093577,1910557.621665402,-6458.033963524433,-11.831586406340456,-6446.202377118092,6449.386448682608,830670292.8782437,1070863475.9343752,15605674.599010866,131673940.55166142,5766524.480186076,80329033.23236851,5046172.449907387,3924842.1196994027,16077689.386048201,1.0,1.317138722435578,5.307862090215017,3.054009039404813,3.83079292659828,5.307727736988578,1463.8505865368911,0.36596264663422273,0.010000000000000002,0.0,6.606426088259464,9.88329241188647,0.2835323611056029,1.2362054881549116,0.8788620844670152,13694.183460425706,0.55,metric_instability_unclassified,20,-6446.202377118092,789116767.7914805,830670292.8782437,11,0.55
final,0.95,1.1,4000,0.05,0.1,well_specified,9.5,oracle_weighted_fqe,11.002333973259725,0.5924908032799425,35.40726329873696,1.1218813750106904,-15.38884593343567,-11.831586406340456,-3.557259527095212,5.516268030824145,112.68836340701418,149.11620927229075,2.2120085499051654,18.358820269718656,0.8095055384246439,11.816627998240547,0.6788940372703407,8.437623088748474,2.1916509590129367,1.0,7.800069911607375,365.4578778914355,2.7983398172987153,5.817823136943837,13.135140344614248,146.66090532248964,0.0366652263306224,0.0,0.0,nan,0.0,1.0,0.0,0.0,990.8245563647943,1.0,overlap_collapse;overlap_collapse;finite_sample_variance_or_clipping,20,-3.557259527095212,100.03426806390452,112.68836340701418,20,1.0
final,0.95,1.1,4000,0.05,0.1,well_specified,9.5,oracle_weighted_fqe_clipped,0.4963455086909011,0.02609782830915003,0.4728522150503478,0.01680826074475154,-11.909445476399316,-11.831586406340456,-0.07785907005885821,1.7836315715031241,4.831723503353191,6.504267974938332,0.09785886821984863,0.8159283020975252,0.035558887894874124,0.5440523502069827,0.03145229213482502,0.00037870152266610924,0.09615252466276672,1.0,1.7320508069187777,10.549648687697312,2.5885871533365696,4.9089025388367045,10.54824796266385,1000.0000005630027,0.2500000001407507,0.010000000000000002,0.4060379478847608,8.014242748330117,14.200915448139767,0.6296254674160486,0.7300938081553279,0.6441029358319688,11307.71718330261,0.0,stable,20,-0.07785907005885821,4.825661468562762,4.831723503353191,0,0.0
final,0.95,1.1,4000,0.05,0.1,well_specified,9.5,standard_fqe,12.027487127038622,0.682432612370855,18.764220871508062,0.6269560273312799,-14.283278290522102,-11.831586406340456,-2.451691884181646,5.871114017927586,136.98172221404405,177.6794499930502,2.5654657528935254,28.481951894158463,1.072798026707844,13.741554303506387,0.8403524142183911,0.0012436917582589145,3.0023336582148232,1.0,0.0,1.0,1.0,1.0,1.0,4000.0,1.0,0.0,0.0,nan,14.99811300923012,nan,1.6748619020087268,0.9633347736693777,28011.98747315859,0.0,stable,20,-2.451691884181646,130.97092911908186,136.98172221404405,0,0.0
final,0.95,1.1,12000,0.05,0.1,misspecified_affine,9.5,estimated_weighted_fqe,7.68416487991293,0.18041189422486564,25.133854948757428,0.8936077526856405,-10.265050386422772,-11.831586406340456,1.566536019917684,4.876692073561019,34.94986484455918,45.177626580646134,0.5858487034798427,20.341539780568564,0.6977301725881149,7.522811300485661,0.2018693907855731,5.154777822390555,0.9515309602307574,1.0,1.334497132621912,10.390432425393465,3.037022688362444,3.7986657978862937,5.235117953544664,4319.681722774969,0.3599734768979141,0.0,0.0,nan,9.880890817518537,0.2526081991029695,1.2347359970071168,0.9007585972561152,255.0356394879128,0.0,stable,20,1.566536019917684,32.49582974285964,34.94986484455918,0,0.0
final,0.95,1.1,12000,0.05,0.1,misspecified_affine,9.5,estimated_weighted_fqe_clip95,14.784843168693026,0.2334898010896394,30.626344768909586,1.0783036220758186,-7.816711602725607,-11.831586406340456,4.014874803614851,6.344765696656671,52.93015251746406,64.65155244038223,0.7928887320964223,31.532252238116513,0.888547503699462,14.635779152501561,0.2622101201674173,4.937252607508925,1.0688881398290715,1.0,1.2616073735356574,3.9759396625459096,3.1784253117864156,3.975835028069352,3.9759396625459096,4634.077383676646,0.3861731153063871,0.05000000000000001,0.0,4.77163823630478,9.898375841273253,0.2822626690424168,1.2104478935337881,0.8877029442499668,260.24858467804495,0.0,stable,20,4.014874803614851,36.81093282876266,52.93015251746406,0,0.0
final,0.95,1.1,12000,0.05,0.1,misspecified_affine,9.5,estimated_weighted_fqe_clip99_ess40,11.62674885271906,0.15978661577350323,22.079818092516796,0.7797381107375073,-12.096835483068244,-11.831586406340456,-0.26524907672778564,4.439711272081842,30.087476219185056,37.90327869069641,0.4416929884201746,18.196275054222024,0.5538947174807152,11.472856216721365,0.17816442915772496,4.54466909296099,0.8256930336395785,1.0,1.2247448710034068,4.983129555699202,2.920617674003972,3.6353114547244614,4.983055435976438,4800.000001825629,0.4000000001521357,0.010000000000000002,0.06705680898157881,6.575776711040897,13.525092531228339,0.25953223158586874,1.2559469247571,0.8990759114365166,273.98953164533805,0.0,stable,20,-0.26524907672778564,30.017119146480116,30.087476219185056,0,0.0
final,0.95,1.1,12000,0.05,0.1,misspecified_affine,9.5,estimated_weighted_fqe_clipped,8.698446809098941,0.18995871207919823,25.914027370489055,0.9348890028398305,-9.725284290228087,-11.831586406340456,2.1063021161123694,5.222609064255379,37.95223355047371,48.50294901447883,0.6285463189371464,22.166655227978545,0.7354179889685473,8.543111388456044,0.21283404858701624,5.0463200264108545,0.9694941277427762,1.0,1.314122601484854,5.276868361636412,3.061050578060338,3.8287959866354258,5.276788852233064,4404.9740841346,0.3670811736778833,0.010000000000000002,0.0,6.575776711040897,9.883397639985017,0.25953223158586886,1.2302292253506941,0.8976126696659227,254.9614142934435,0.0,stable,20,2.1063021161123694,33.51572494613426,37.95223355047371,0,0.0
final,0.95,1.1,12000,0.05,0.1,misspecified_affine,9.5,oracle_weighted_fqe,9.118674355797555,0.5628865271941608,208.75147135517864,5.600944383341483,-0.8286490473140258,-11.831586406340456,11.002937359026433,11.002937359026433,121.1998719623397,154.30891389697302,2.095833213250658,77.91936632836226,2.392102352284403,9.089122080439529,0.6344726254390197,40.59701314896617,3.975813827005548,1.0,9.258456294588282,722.1707749756273,2.84482465760573,5.8079789198959215,13.180168327596608,371.82001059146927,0.030985000882622443,0.0,0.0,nan,0.0,1.0,0.0,0.0,218.1828730150296,1.0,overlap_collapse;overlap_collapse;finite_sample_variance_or_clipping,20,11.002937359026433,0.13524143568013391,121.1998719623397,20,1.0
final,0.95,1.1,12000,0.05,0.1,misspecified_affine,9.5,oracle_weighted_fqe_clipped,28.103503841671206,0.20323727455098312,35.46439347743465,0.9851948323081722,-11.082697717585761,-11.831586406340456,0.748888688754697,1.2822433629303043,2.3488276095915124,8.37421455802027,0.22870894623156718,31.63443538362916,0.542841644116624,27.897088746447945,0.230274547987384,3.6704743287934596,0.7124099038347538,1.0,1.732050806841914,10.566857536113481,2.600235146859098,4.879987468245329,10.566394848609573,3000.0000018887067,0.2500000001573922,0.010000000000000002,0.40552015306893735,8.045766643519988,14.191949069590839,0.5733042583558602,0.7163955546469686,0.7000731231744709,242.01047458993577,0.0,stable,20,0.748888688754697,1.7879933414467832,2.3488276095915124,0,0.0
final,0.95,1.1,12000,0.05,0.1,misspecified_affine,9.5,standard_fqe,509.00051430482273,2.020017711055649,405.7994170846333,2.1652444562778674,-0.7433707529960003,-11.831586406340456,11.088215653344458,11.088215653344458,124.32069364846957,133.12780175108213,0.9766757440910829,433.1961020576906,2.1170108104023226,508.1179797476014,2.328824864937753,3.0796140232356013,1.4448635716260492,1.0,0.0,1.0,1.0,1.0,1.0,12000.0,1.0,0.0,0.0,nan,14.989764438630164,nan,1.6722604335466311,0.9690149991173775,604.415302838709,0.0,stable,20,11.088215653344458,1.372167273396486,124.32069364846957,0,0.0
final,0.95,1.1,12000,0.05,0.1,misspecified_diag_quad,9.5,estimated_weighted_fqe,9805198.867769174,723909.0989772545,68402107.82191268,1797889.4564444956,-2531.8580270961625,-11.831586406340456,-2520.0264406898227,2520.614192348059,126724290.91044502,169048187.36670598,2538112.7254174883,117414684.31207788,3724602.3918719203,9970983.948083144,708378.1400913509,5369201.98356064,5019420.343165351,1.0,1.334497132621912,10.390432425393465,3.037022688362444,3.7986657978862937,5.235117953544664,4319.681722774969,0.3599734768979141,0.0,0.0,nan,9.880890817518537,0.2526081991029695,1.2347359970071168,0.9007585972561152,5581.208451036573,0.0,stable,20,-2520.0264406898227,120373757.64866927,126724290.91044502,0,0.0
final,0.95,1.1,12000,0.05,0.1,misspecified_diag_quad,9.5,estimated_weighted_fqe_clip95,21724362.25091862,1565821.1840118172,141593353.98254842,3747141.114107053,-3746.6616450465363,-11.831586406340456,-3734.8300586401974,3735.1710569254,278641689.96961933,369051556.3498545,5470987.089599602,249128002.010983,7898150.5757235065,22147158.40050605,1539069.8304209858,11989536.10415,10562417.542918904,1.0,1.2616073735356574,3.9759396625459096,3.1784253117864156,3.975835028069352,3.9759396625459096,4634.077383676646,0.3861731153063871,0.05000000000000001,0.0,4.77163823630478,9.898375841273253,0.2822626690424168,1.2104478935337881,0.8877029442499668,5802.318659614918,0.0,stable,20,-3734.8300586401974,264692734.4026969,278641689.96961933,0,0.0
final,0.95,1.1,12000,0.05,0.1,misspecified_diag_quad,9.5,estimated_weighted_fqe_clip99_ess40,15608141880.048767,1143284223.058088,91820451846.64949,2431464412.0269265,-100374.48875641031,-11.831586406340456,-100362.65717000396,100362.76831604779,201404828277.13428,266567254636.35394,3999839823.5316267,201908554254.02423,6430597127.516601,15722563599.20082,1111536737.6101775,16992991425.74281,8204241756.782186,1.0,1.2247448710034068,4.983129555699202,2.920617674003972,3.6353114547244614,4.983055435976438,4800.000001825629,0.4000000001521357,0.010000000000000002,0.06705680898157881,6.575776711040897,13.525092531228339,0.25953223158586874,1.2559469247571,0.8990759114365166,5708.078004565787,0.0,stable,20,-100362.65717000396,191332165322.91055,201404828277.13428,0,0.0
final,0.95,1.1,12000,0.05,0.1,misspecified_diag_quad,9.5,estimated_weighted_fqe_clipped,495389.21327618917,34421.94658802231,3228928.816975058,86048.75293683264,-570.9091840870321,-11.831586406340456,-559.0775976806917,559.4934220179841,6201108.020969702,8192598.899824068,120524.34947700515,5001993.657050641,159195.2888186614,509094.5750501846,34272.02435908969,159910.34439701057,216858.33605793244,1.0,1.314122601484854,5.276868361636412,3.061050578060338,3.8287959866354258,5.276788852233064,4404.9740841346,0.3670811736778833,0.010000000000000002,0.0,6.575776711040897,9.883397639985017,0.25953223158586886,1.2302292253506941,0.8976126696659227,5638.395214850132,0.0,stable,20,-559.0775976806917,5888540.260741289,6201108.020969702,0,0.0
final,0.95,1.1,12000,0.05,0.1,misspecified_diag_quad,9.5,oracle_weighted_fqe,0.7703709700893105,0.04058090161076928,64.801423482312,1.790168864013253,-9.953884436347336,-11.831586406340456,1.8777019699931217,2.3966842403891278,7.369373005380832,10.047710516290508,0.1527452340769949,1.3951885893158829,0.05741110755435045,0.793965070818502,0.04728629612413533,60.000568951171125,0.1651875653834308,1.0,9.258456294588282,722.1707749756273,2.84482465760573,5.8079789198959215,13.180168327596608,371.82001059146927,0.030985000882622443,0.0,0.0,nan,0.0,1.0,0.0,0.0,915.2556110112313,1.0,overlap_collapse,20,1.8777019699931217,3.8436083172647835,7.369373005380832,20,1.0
final,0.95,1.1,12000,0.05,0.1,misspecified_diag_quad,9.5,oracle_weighted_fqe_clipped,6.385397971067611e+18,5.277111789688211e+17,2.8445200979356226e+19,7.770615056407048e+17,-2526244549.968533,-11.831586406340456,-2526244538.136946,2526244538.136946,7.699470386050276e+19,1.0806844629222782e+20,1.8732555186613978e+18,1.2368028996648139e+20,4.10235283898244e+18,5.422692848302297e+18,5.0718360644864755e+17,2.457777157347407e+19,4.899153172450134e+18,1.0,1.732050806841914,10.566857536113481,2.600235146859098,4.879987468245329,10.566394848609573,3000.0000018887067,0.2500000001573922,0.010000000000000002,0.40552015306893735,8.045766643519988,14.191949069590839,0.5733042583558602,0.7163955546469686,0.7000731231744709,5164.05039160372,1.0,metric_instability_unclassified,20,-2526244538.136946,7.0612792394036e+19,7.699470386050276e+19,20,1.0
final,0.95,1.1,12000,0.05,0.1,misspecified_diag_quad,9.5,standard_fqe,1152358502007901.0,116101343411948.47,8352619723875840.0,262656780238861.2,-40807785.41788435,-11.831586406340456,-40807773.58629794,40807773.58629794,9653084769765520.0,1.842513275857815e+16,434201499792896.1,2.7877684808730748e+16,1101725627473315.8,928284188316839.6,108777829167134.83,4237608165591444.0,1197245304298434.5,1.0,0.0,1.0,1.0,1.0,1.0,12000.0,1.0,0.0,0.0,nan,14.989764438630164,nan,1.6722604335466311,0.9690149991173775,9224.459214947943,0.0,stable,20,-40807773.58629794,7987810384694966.0,9653084769765520.0,0,0.0
final,0.95,1.1,12000,0.05,0.1,well_specified,9.5,estimated_weighted_fqe,6.0609871952472965,0.325279578243559,6.523182578993561,0.23605500972042276,-14.819252798214213,-11.831586406340456,-2.9876663918737565,5.329254682355236,63.25608284653568,85.83176075707946,1.29025116916814,11.216692177325188,0.47470001941509965,6.635275470486621,0.4067471959765586,0.0032864415453821285,1.2757917646969283,1.0,1.334497132621912,10.390432425393465,3.037022688362444,3.7986657978862937,5.235117953544664,4319.681722774969,0.3599734768979141,0.0,0.0,nan,9.880890817518537,0.2526081991029695,1.2347359970071168,0.9007585972561152,14095.641334639024,0.55,finite_sample_variance_or_clipping;metric_instability_unclassified,20,-2.9876663918737565,54.32993237740372,63.25608284653568,11,0.55
final,0.95,1.1,12000,0.05,0.1,well_specified,9.5,estimated_weighted_fqe_clip95,2.660976395176762,0.14179297612082836,3.1975386756408466,0.11051965489004809,-13.649611380050132,-11.831586406340456,-1.8180249737096734,4.023152589496619,27.41209827843183,36.74724943766238,0.5448650926889679,5.098077443353333,0.21057957864921795,2.8173255786033993,0.17258877482723592,0.001890929262051691,0.5620674602320861,1.0,1.2616073735356574,3.9759396625459096,3.1784253117864156,3.975835028069352,3.9759396625459096,4634.077383676646,0.3861731153063871,0.05000000000000001,0.0,4.77163823630478,9.898375841273253,0.2822626690424168,1.2104478935337881,0.8877029442499668,13786.080740723974,0.5,metric_instability_unclassified,20,-1.8180249737096734,24.10688347339977,27.41209827843183,10,0.5
final,0.95,1.1,12000,0.05,0.1,well_specified,9.5,estimated_weighted_fqe_clip99_ess40,3.682351498201933,0.20310185986081208,6.268634780275109,0.20564364926683987,-14.164686435058295,-11.831586406340456,-2.3331000287178365,4.294952370471726,41.061406141080106,54.282729526061416,0.7797772636507918,8.833904290832601,0.326776050758098,4.032247638154451,0.2568830030541974,0.0014256834612032527,0.9110391839541118,1.0,1.2247448710034068,4.983129555699202,2.920617674003972,3.6353114547244614,4.983055435976438,4800.000001825629,0.4000000001521357,0.010000000000000002,0.06705680898157881,6.575776711040897,13.525092531228339,0.25953223158586874,1.2559469247571,0.8990759114365166,14755.451972547313,0.4,metric_instability_unclassified,20,-2.3331000287178365,35.618050397076935,41.061406141080106,8,0.4
final,0.95,1.1,12000,0.05,0.1,well_specified,9.5,estimated_weighted_fqe_clipped,3.529621076576027,0.18897650096923807,4.226534366728268,0.14780664863730023,-14.042300284562947,-11.831586406340456,-2.210713878222487,4.472761365688816,36.89389748064261,49.629327018400694,0.7386883145869356,6.868448830637986,0.28273459031060866,3.8055103176164833,0.23383674260335985,0.002293495942056815,0.7573403735086368,1.0,1.314122601484854,5.276868361636412,3.061050578060338,3.8287959866354258,5.276788852233064,4404.9740841346,0.3670811736778833,0.010000000000000002,0.0,6.575776711040897,9.883397639985017,0.25953223158586886,1.2302292253506941,0.8976126696659227,13781.086510770921,0.5,metric_instability_unclassified,20,-2.210713878222487,32.0066416292771,36.89389748064261,10,0.5
final,0.95,1.1,12000,0.05,0.1,well_specified,9.5,oracle_weighted_fqe,0.6669023117300144,0.03491302765320693,2.474640624034395,0.08159160701647744,-12.474993652181809,-11.831586406340456,-0.6434072458413513,1.9106453654103,6.058023762073606,8.365571933132124,0.13127629724489348,1.0293247106467904,0.04838468364622671,0.6620897361922816,0.03840970039853582,1.4157807751908145,0.12721741935357067,1.0,9.258456294588282,722.1707749756273,2.84482465760573,5.8079789198959215,13.180168327596608,371.82001059146927,0.030985000882622443,0.0,0.0,nan,0.0,1.0,0.0,0.0,988.8942619994499,1.0,overlap_collapse;overlap_collapse;finite_sample_variance_or_clipping,20,-0.6434072458413513,5.644050878072452,6.058023762073606,20,1.0
final,0.95,1.1,12000,0.05,0.1,well_specified,9.5,oracle_weighted_fqe_clipped,0.22338635795193632,0.011834996423365312,0.3224383110653345,0.010719236368753368,-12.293050733179355,-11.831586406340456,-0.46146432683889776,1.1299040753235197,2.2718489393805568,3.030384572944252,0.04366925174687764,0.4770934765233572,0.018166792959855488,0.22384146612457534,0.013348697051551067,0.0001537068865968769,0.050563894884910796,1.0,1.732050806841914,10.566857536113481,2.600235146859098,4.879987468245329,10.566394848609573,3000.0000018887067,0.2500000001573922,0.010000000000000002,0.40552015306893735,8.045766643519988,14.191949069590839,0.5733042583558602,0.7163955546469686,0.7000731231744709,11461.272359170121,0.0,stable,20,-0.46146432683889776,2.058899614435679,2.2718489393805568,0,0.0
final,0.95,1.1,12000,0.05,0.1,well_specified,9.5,standard_fqe,1.3195482786656656,0.07611126386747939,3.401296278009641,0.10468508943178349,-13.658173805299773,-11.831586406340456,-1.8265873989593153,2.9436381840563284,15.76312321690708,20.432357412034087,0.2840330380803052,4.489045838399958,0.15160686637032084,1.367879468487219,0.08807995653604173,0.0002444613495505829,0.4063766574252267,1.0,0.0,1.0,1.0,1.0,1.0,12000.0,1.0,0.0,0.0,nan,14.989764438630164,nan,1.6722604335466311,0.9690149991173775,28411.066213573027,0.0,stable,20,-1.8265873989593153,12.42670169087012,15.76312321690708,0,0.0
final,0.95,1.35,1000,0.05,0.1,misspecified_affine,9.5,estimated_weighted_fqe,1051.3729405883491,21.281158866516044,3050.2767092209256,42.86315412859476,44.43927251477862,-11.831586406340456,56.27085892111908,67.21720868129412,6402.4975458720455,6894.524992318674,47.09496262969099,3741.8975667851446,50.38965466212707,1052.5374818113173,24.421204724863586,28.55863816067199,53.5521736948716,1.0,2.3964999541530974,22.450529282069805,2.7794718969778405,5.690561773280707,12.078491026042773,150.93052376160193,0.15093052376160193,0.0,0.0,nan,11.773451833020367,0.3462865969520751,1.59966892622054,0.8790439110745083,737.6925590448743,0.65,finite_sample_variance_or_clipping;overlap_collapse;overlap_collapse;finite_sample_variance_or_clipping,20,56.27085892111908,3236.0879821515596,6402.4975458720455,13,0.65
final,0.95,1.35,1000,0.05,0.1,misspecified_affine,9.5,estimated_weighted_fqe_clip95,2399.093371991513,31.16401528916598,5041.927227814032,56.78056725416417,73.4043896217816,-11.831586406340456,85.23597602812208,85.4423867450779,9966.560179027549,10507.76704501986,61.329145111640436,6202.237199336906,68.18313241436992,2406.9589237633127,36.05396433263451,27.210916180055687,65.5082948526723,1.0,1.8872146846916693,7.1577506594869815,3.4903643863685536,7.154239290832292,7.1577506594869815,221.16794466859892,0.22116794466859896,0.05000000000000001,0.0,8.222384039370194,11.908667146697459,0.33815160448224196,1.6609466053866986,0.8939352710828963,912.4147322785706,0.1,metric_instability_unclassified,20,85.23597602812208,2701.3885695609506,9966.560179027549,2,0.1
final,0.95,1.35,1000,0.05,0.1,misspecified_affine,9.5,estimated_weighted_fqe_clip99_ess40,1836.137756090524,6.923037805320879,1975.9634302425416,17.954236546193947,28.098992360774826,-11.831586406340456,39.93057876711529,41.12888124392741,2475.8687442162186,2554.749008993126,10.126365186030261,2314.5651512424183,17.198874002886633,1833.837732715308,7.91789567244542,20.36403269876702,13.089152458056144,1.0,1.2247448706914412,7.2723426983218245,2.036636092068993,3.6856080689786266,7.269806573222946,400.00000027440086,0.40000000027440086,0.010000000000000002,0.4510582279390656,17.43828732564874,16.672128128659566,0.38503427080516245,1.7303251517324614,0.9069877076307788,1247.71861170492,0.0,stable,20,39.93057876711529,881.4176235394201,2475.8687442162186,0,0.0
final,0.95,1.35,1000,0.05,0.1,misspecified_affine,9.5,estimated_weighted_fqe_clipped,1242.781402473774,11.339045914176223,2169.5299418367367,26.240642828693826,33.80902810785169,-11.831586406340456,45.64061451419215,48.77045840376914,3657.7253862023813,3846.7559706677384,21.65116708545203,2608.9169250907808,28.11398453251624,1243.432958388359,13.068260945593176,23.176864539906052,23.69752664404044,1.0,1.7320508070337621,9.870432114138687,2.466024821027724,4.798023355353971,9.866845491626902,250.00000011585584,0.2500000001158559,0.010000000000000002,0.0,17.43828732564874,16.259888948771454,0.3850342708051623,1.6558418763768166,0.8824782724688358,1001.4970227728157,0.0,stable,20,45.64061451419215,1574.6596929692955,3657.7253862023813,0,0.0
final,0.95,1.35,1000,0.05,0.1,misspecified_affine,9.5,oracle_weighted_fqe,1465581214585.3809,36621351795.70368,690639975745.9777,23303256066.99853,604285.9262251412,-11.831586406340456,604297.7578115477,604297.7578115477,7303249580558.906,8749249619722.658,85694130889.10966,755795002906.7814,33904434622.153984,1579563660143.2405,45441220518.08146,143223373499.3398,71612350935.29602,1.0,9.85245185045924,200.98287557826794,2.503075666666399e-08,0.0005963150946246966,29.11981566868953,10.841976455742648,0.01084197645574265,0.0,0.0,nan,0.0,1.0,0.0,0.0,326.8273696669895,1.0,overlap_collapse;overlap_collapse;finite_sample_variance_or_clipping,20,604297.7578115477,6938073800462.843,7303249580558.906,20,1.0
final,0.95,1.35,1000,0.05,0.1,misspecified_affine,9.5,oracle_weighted_fqe_clipped,668.3358642194693,3.674638559653335,819.5036950069813,12.09385418152137,8.731129328465265,-11.831586406340456,20.562715734805725,23.64943630848591,957.6992467454527,1016.5675239491278,5.61844441764259,913.5196038668425,10.35353932909144,666.8558668870998,4.168244849664552,21.814256368316652,7.830445203371864,1.0,3.5280139859064406,30.42977880050443,0.5000000283408575,0.5007034597034347,30.39443445528645,75.60027730483458,0.07560027730483457,0.01005,0.5,13.51245870315743,16.40980283915914,0.7920710660394035,1.0274332647143134,0.5424210385121212,968.2783174918331,1.0,overlap_collapse,20,20.562715734805725,534.8739683550261,957.6992467454527,20,1.0
final,0.95,1.35,1000,0.05,0.1,misspecified_affine,9.5,standard_fqe,13106.864958595432,15.218759917627121,10240.359084212456,23.143070357906232,85.19097880721237,-11.831586406340456,97.02256521355285,97.02256521355285,9627.261974187413,9659.98993281445,11.695033684288303,11463.098194570735,20.784323005205366,13097.092175205313,17.488521863532213,14.488783056225492,29.265798225603543,1.0,0.0,1.0,1.0,1.0,1.0,1000.0,1.0,0.0,0.0,nan,17.095037647347898,nan,1.938290829175377,0.9891580235442573,1938.5366502257825,0.0,stable,20,97.02256521355285,213.8838135692985,9627.261974187413,0,0.0
final,0.95,1.35,1000,0.05,0.1,misspecified_diag_quad,9.5,estimated_weighted_fqe,3.934639693984462e+43,1.795355304701336e+42,1.9337846291580724e+44,4.0545425171150344e+42,-1.3349014031228312e+20,-11.831586406340456,-1.3349014031228312e+20,1.9993078328095893e+20,1.8556055202516335e+41,2.8333030719373442e+44,5.970249775639054e+42,4.155166830987274e+45,1.029814132063695e+44,4.0099593573033194e+43,1.977742639073488e+42,2.297612524703153e+45,2.5939308856566667e+43,1.0,2.3964999541530974,22.450529282069805,2.7794718969778405,5.690561773280707,12.078491026042773,150.93052376160193,0.15093052376160193,0.0,0.0,nan,11.773451833020367,0.3462865969520751,1.59966892622054,0.8790439110745083,19253.544732173916,0.8,finite_sample_variance_or_clipping;overlap_collapse;overlap_collapse;finite_sample_variance_or_clipping,20,-1.3349014031228312e+20,1.6774093446457028e+41,1.8556055202516335e+41,16,0.8
final,0.95,1.35,1000,0.05,0.1,misspecified_diag_quad,9.5,estimated_weighted_fqe_clip95,1.15334787233403e+43,5.198481884931396e+41,5.758598208932128e+43,1.2159757634680304e+42,-1.5615525073109047e+19,-11.831586406340456,-1.5615525073109047e+19,1.778855784348383e+20,2.011065998470091e+41,8.199733524624718e+43,1.7328629678972108e+42,1.1849876140067938e+45,2.9514410866396505e+43,1.1848750024694058e+43,5.8144002379535844e+41,6.474440849060704e+44,7.32606132550419e+42,1.0,1.8872146846916693,7.1577506594869815,3.4903643863685536,7.154239290832292,7.1577506594869815,221.16794466859892,0.22116794466859896,0.05000000000000001,0.0,8.222384039370194,11.908667146697459,0.33815160448224196,1.6609466053866986,0.8939352710828963,23207.083149188853,0.7,metric_instability_unclassified,20,-1.5615525073109047e+19,2.008627552237002e+41,2.011065998470091e+41,14,0.7
final,0.95,1.35,1000,0.05,0.1,misspecified_diag_quad,9.5,estimated_weighted_fqe_clip99_ess40,7.73335329587435e+39,3.3913017616540876e+38,4.441830971850967e+40,9.647125160068856e+38,6.98605430840417e+18,-11.831586406340456,6.98605430840417e+18,1.0406128473151517e+19,6.169100796312452e+38,5.178030997772545e+40,1.1361110740568403e+39,7.068647262963701e+41,1.8163139302665301e+40,7.777322589760695e+39,3.890358692272199e+38,3.667775870938268e+41,4.1023183761205194e+39,1.0,1.2247448706914412,7.2723426983218245,2.036636092068993,3.6856080689786266,7.269806573222946,400.00000027440086,0.40000000027440086,0.010000000000000002,0.4510582279390656,17.43828732564874,16.672128128659566,0.38503427080516245,1.7303251517324614,0.9069877076307788,24977.59398752366,0.75,metric_instability_unclassified,20,6.98605430840417e+18,5.681051248312727e+38,6.169100796312452e+38,15,0.75
final,0.95,1.35,1000,0.05,0.1,misspecified_diag_quad,9.5,estimated_weighted_fqe_clipped,4.861137295989607e+40,2.2072564469381626e+39,2.924942168957959e+41,6.254909532039544e+39,-3.530881218474587e+18,-11.831586406340456,-3.530881218474587e+18,2.5238437924193112e+19,2.3971451840643928e+39,3.437881542832851e+41,7.51735272199856e+39,4.914553601785756e+42,1.2386871281552959e+41,4.899908387694185e+40,2.4764252254897003e+39,2.5602926118601806e+42,2.9296919545337304e+40,1.0,1.7320508070337621,9.870432114138687,2.466024821027724,4.798023355353971,9.866845491626902,250.00000011585584,0.2500000001158559,0.010000000000000002,0.0,17.43828732564874,16.259888948771454,0.3850342708051623,1.6558418763768166,0.8824782724688358,22082.84670935857,0.75,metric_instability_unclassified,20,-3.530881218474587e+18,2.3846780618854163e+39,2.3971451840643928e+39,15,0.75
