Larsvanderlaan/rl-eval-kit/experiments/neurips_bellman/fqe_stationary_weighting/FQE_neurips/results/gamma_design_results.csv
study_stage,gamma,shift,sample_size,process_noise_sd,behavior_action_sd,feature_regime,seed,estimator,target_q_mse,target_q_mse_se,behavior_q_mse,behavior_q_mse_se,policy_value_estimate,policy_value_true,policy_value_error,policy_value_absolute_error,policy_value_squared_error,initial_v_mse,initial_v_mse_se,behavior_v_mse,behavior_v_mse_se,target_v_mse,target_v_mse_se,behavior_bellman_residual_mse,target_bellman_residual_mse,weight_mean,weight_std,weight_max,weight_q90,weight_q95,weight_q99,effective_sample_size,effective_sample_size_fraction,fraction_clipped,chosen_uniform_mix,clip_level,oracle_log_ratio_rmse,oracle_estimated_weight_corr,oracle_estimated_weight_mae,oracle_estimated_weight_rel_mse,weighted_design_condition_number,unstable_run_flag,unstable_reason,value_gamma,ratio_gamma,reference_distribution,data_mode,fqe_family,ratio_estimator,ratio_moment_violation_l2,ratio_normalization_error,target_ratio_feature_calibration_l2,target_fqe_feature_calibration_l2,ratio_solver
gamma_design,0.95,0.0,1000,0.05,0.1,misspecified_affine,0,linear_standard_fqe,2.781736133161922,0.04275646822234898,2.7627852711539385,0.03849114551659876,-12.317964813518397,-11.831586406340458,-0.48637840717793956,0.48637840717793956,0.23656395496894958,5.285962282306464,0.1338032216788413,2.658093623289494,0.03854759673849551,2.614896873981019,0.03850711370813455,0.35253851738526315,0.3827771705356146,1.0,0.0,1.0,1.0,1.0,1.0,1000.0,1.0,0.0,0.0,nan,0.0,1.0,0.0,0.0,195.5298618647551,0.0,stable,0.95,0.95,discounted,matched_iid,linear,standard,nan,0.0,0.01953968724761556,0.018255151800940176,uniform
gamma_design,0.95,0.0,1000,0.05,0.1,misspecified_affine,0,linear_oracle_raw_fqe,2.781736133161922,0.04275646822234898,2.7627852711539385,0.03849114551659876,-12.317964813518397,-11.831586406340458,-0.48637840717793956,0.48637840717793956,0.23656395496894958,5.285962282306464,0.1338032216788413,2.658093623289494,0.03854759673849551,2.614896873981019,0.03850711370813455,0.35253851738526315,0.3827771705356146,1.0,0.0,1.0,1.0,1.0,1.0,1000.0,1.0,0.0,0.0,nan,0.0,1.0,0.0,0.0,195.5298618647551,0.0,stable,0.95,0.95,discounted,matched_iid,linear,oracle_raw,0.0,0.0,0.01953968724761556,0.018255151800940176,oracle_exact
gamma_design,0.95,0.0,1000,0.05,0.1,misspecified_affine,0,linear_oracle_clipped_fqe,2.781736133161922,0.04275646822234898,2.7627852711539385,0.03849114551659876,-12.317964813518397,-11.831586406340458,-0.48637840717793956,0.48637840717793956,0.23656395496894958,5.285962282306464,0.1338032216788413,2.658093623289494,0.03854759673849551,2.614896873981019,0.03850711370813455,0.35253851738526315,0.3827771705356146,1.0,0.0,1.0,1.0,1.0,1.0,1000.0,1.0,0.0,0.0,1.0,0.0,1.0,0.0,0.0,195.5298618647551,0.0,stable,0.95,0.95,discounted,matched_iid,linear,oracle_clipped,0.0,0.0,0.01953968724761556,0.018255151800940176,oracle_exact_clipped
gamma_design,0.95,0.0,1000,0.05,0.1,misspecified_affine,0,linear_estimated_clipped_fqe,2.9605179259263448,0.0450263947517195,2.938833236570907,0.040140001338894754,-12.095545696181702,-11.831586406340458,-0.26395928984124417,0.26395928984124417,0.06967450669349395,5.1459614628730606,0.14490388251278166,2.8536423558136703,0.0408737232652578,2.8144755346598007,0.04099487021137396,0.3477437924856256,0.3824822327532844,1.0,0.160564443466437,1.3387604995203393,1.1860600787679265,1.235172326349175,1.3387439030972734,974.8670115736626,0.9748670115736626,0.01,0.0,1.3381203592279414,0.17297992148613084,nan,0.12782158085856285,0.025780940505686644,206.72818463815733,0.0,stable,0.95,0.95,discounted,matched_iid,linear,linear_clipped,0.002924935230577956,-7.9788743226894e-05,0.005955752810964309,0.00450045926970841,linear_reduced_moment
gamma_design,0.95,0.0,1000,0.05,0.1,misspecified_affine,0,linear_neural_weighted_clipped_fqe,2.097999193900604,0.03794160909131986,2.075267516802472,0.033731201161233126,-12.665601238773695,-11.831586406340458,-0.8340148324332368,0.8340148324332368,0.6955807407186401,5.772924034103928,0.12359896066596757,1.9632407017956945,0.03325909175988564,1.9283143455350473,0.033357731730447364,0.3553909736527031,0.38471392762750134,1.0,0.08561286219498179,1.1402436174620834,1.0937261737787904,1.106102172753252,1.1402274036519635,992.7237694112697,0.9927237694112697,0.01,0.0,1.1437697184085847,0.08904541086878619,nan,0.07021100410934648,0.007329562173216942,186.49259494201615,0.0,stable,0.95,0.95,discounted,matched_iid,linear,neural_clipped,0.0671304217444845,0.003219294607639256,0.04064051509100545,0.039654435199652865,neural_positive_rkhs_moment
gamma_design,0.95,0.0,1000,0.05,0.1,misspecified_affine,0,neural_standard_fqe,1.9011597839121905,0.13516641485668635,1.7135593614988047,0.11388481491942896,-8.183054620570035,-11.831586406340458,3.648531785770423,3.648531785770423,13.311784191777113,24.106986700094847,0.5314473056359008,1.7899120852228256,0.1351515279579315,1.848185099834089,0.14104138420047896,0.4571260798366074,0.5399083391556839,1.0,0.0,1.0,1.0,1.0,1.0,1000.0,1.0,0.0,0.0,nan,0.0,1.0,0.0,0.0,195.5298618647551,0.0,stable,0.95,0.95,discounted,matched_iid,neural,standard,nan,0.0,0.01953968724761556,0.018255151800940176,uniform
gamma_design,0.95,0.0,1000,0.05,0.1,misspecified_affine,0,neural_oracle_clipped_fqe,1.9011597839121905,0.13516641485668635,1.7135593614988047,0.11388481491942896,-8.183054620570035,-11.831586406340458,3.648531785770423,3.648531785770423,13.311784191777113,24.106986700094847,0.5314473056359008,1.7899120852228256,0.1351515279579315,1.848185099834089,0.14104138420047896,0.4571260798366074,0.5399083391556839,1.0,0.0,1.0,1.0,1.0,1.0,1000.0,1.0,0.0,0.0,1.0,0.0,1.0,0.0,0.0,195.5298618647551,0.0,stable,0.95,0.95,discounted,matched_iid,neural,oracle_clipped,0.0,0.0,0.01953968724761556,0.018255151800940176,oracle_exact_clipped
gamma_design,0.95,0.0,1000,0.05,0.1,misspecified_affine,0,neural_estimated_clipped_fqe,1.8169368624259614,0.1315985392523364,1.6322342762710165,0.11039311234597562,-8.268071590339963,-11.831586406340458,3.5635148160004952,3.5635148160004952,12.698637843855044,23.241647207965826,0.5185847961219517,1.7078113572691866,0.1311653010284741,1.7690529211665669,0.1371290298789144,0.45633399874147346,0.5406065914819121,1.0,0.160564443466437,1.3387604995203393,1.1860600787679265,1.235172326349175,1.3387439030972734,974.8670115736626,0.9748670115736626,0.01,0.0,1.3381203592279414,0.17297992148613084,nan,0.12782158085856285,0.025780940505686644,206.72818463815733,0.0,stable,0.95,0.95,discounted,matched_iid,neural,linear_clipped,0.002924935230577956,-7.9788743226894e-05,0.005955752810964309,0.00450045926970841,linear_reduced_moment
gamma_design,0.95,0.0,1000,0.05,0.1,misspecified_affine,0,neural_neural_weighted_clipped_fqe,1.9117277929479413,0.13578633108017268,1.7235685693356668,0.11452150616959289,-8.16536543109302,-11.831586406340458,3.6662209752474375,3.6662209752474375,13.441176239344271,24.265970089951704,0.5336118174273656,1.7996254393483226,0.13583642907686908,1.8576104006237055,0.1417137213953679,0.45535486095148486,0.5377838736549964,1.0,0.08561286219498179,1.1402436174620834,1.0937261737787904,1.106102172753252,1.1402274036519635,992.7237694112697,0.9927237694112697,0.01,0.0,1.1437697184085847,0.08904541086878619,nan,0.07021100410934648,0.007329562173216942,186.49259494201615,0.0,stable,0.95,0.95,discounted,matched_iid,neural,neural_clipped,0.0671304217444845,0.003219294607639256,0.04064051509100545,0.039654435199652865,neural_positive_rkhs_moment
gamma_design,0.95,0.0,1000,0.05,0.1,misspecified_affine,1,linear_standard_fqe,2.4164280184312554,0.035993596433901535,2.460353702649317,0.03800581470885069,-13.127552870985545,-11.831586406340458,-1.2959664646450868,1.2959664646450868,1.679529077484685,6.412500856255814,0.12497016555194612,2.320245092296106,0.03632723591032031,2.325267086820745,0.040557814570141064,0.34728787235534464,0.3632943262631432,1.0,0.0,1.0,1.0,1.0,1.0,1000.0,1.0,0.0,0.0,nan,0.0,1.0,0.0,0.0,197.00629893877428,0.0,stable,0.95,0.95,discounted,matched_iid,linear,standard,nan,0.0,0.0034504731799300204,0.0012979669008125422,uniform
gamma_design,0.95,0.0,1000,0.05,0.1,misspecified_affine,1,linear_oracle_raw_fqe,2.4164280184312554,0.035993596433901535,2.460353702649317,0.03800581470885069,-13.127552870985545,-11.831586406340458,-1.2959664646450868,1.2959664646450868,1.679529077484685,6.412500856255814,0.12497016555194612,2.320245092296106,0.03632723591032031,2.325267086820745,0.040557814570141064,0.34728787235534464,0.3632943262631432,1.0,0.0,1.0,1.0,1.0,1.0,1000.0,1.0,0.0,0.0,nan,0.0,1.0,0.0,0.0,197.00629893877428,0.0,stable,0.95,0.95,discounted,matched_iid,linear,oracle_raw,0.0,0.0,0.0034504731799300204,0.0012979669008125422,oracle_exact
gamma_design,0.95,0.0,1000,0.05,0.1,misspecified_affine,1,linear_oracle_clipped_fqe,2.4164280184312554,0.035993596433901535,2.460353702649317,0.03800581470885069,-13.127552870985545,-11.831586406340458,-1.2959664646450868,1.2959664646450868,1.679529077484685,6.412500856255814,0.12497016555194612,2.320245092296106,0.03632723591032031,2.325267086820745,0.040557814570141064,0.34728787235534464,0.3632943262631432,1.0,0.0,1.0,1.0,1.0,1.0,1000.0,1.0,0.0,0.0,1.0,0.0,1.0,0.0,0.0,197.00629893877428,0.0,stable,0.95,0.95,discounted,matched_iid,linear,oracle_clipped,0.0,0.0,0.0034504731799300204,0.0012979669008125422,oracle_exact_clipped
gamma_design,0.95,0.0,1000,0.05,0.1,misspecified_affine,1,linear_estimated_clipped_fqe,2.7244744327007964,0.04161700931276912,2.754074745576555,0.04273262880539057,-12.309338913478433,-11.831586406340458,-0.4777525071379749,0.4777525071379749,0.22824745807662075,5.467968717948999,0.16136775092312042,2.6247655373772543,0.04185246428312861,2.6392611256976575,0.04753109459885694,0.3220574889412743,0.3506421031574313,0.9999999999999999,0.08838352079896784,1.3476579050025868,1.0928282963558487,1.1235397268870875,1.3476538101724775,992.2489020899671,0.9922489020899672,0.01,0.0,1.3462732118724345,0.09355715067629307,nan,0.061119818622625596,0.0078116467488215805,196.89718115822998,0.0,stable,0.95,0.95,discounted,matched_iid,linear,linear_clipped,0.0049709007106120895,-3.742695682251718e-05,0.0040174574771179375,0.0034216407368881743,linear_reduced_moment
gamma_design,0.95,0.0,1000,0.05,0.1,misspecified_affine,1,linear_neural_weighted_clipped_fqe,2.109501371139469,0.03421974843553997,2.148188265566453,0.03621949147947121,-13.23985655889969,-11.831586406340458,-1.4082701525592327,1.4082701525592327,1.9832248225892046,6.749630306920063,0.1250335202479217,2.016813071118938,0.03450755793262587,2.0236583161940187,0.038898521061367985,0.342385649630926,0.36053098893687435,0.9999999999999998,0.03933454409513155,1.0772486167090425,1.0410157158032591,1.0569010393182694,1.0772474765125966,998.4551837902914,0.9984551837902914,0.01,0.0,1.0737615382671357,0.04015661807183845,nan,0.030152441758922982,0.0015472063591718483,191.56655768356154,0.0,stable,0.95,0.95,discounted,matched_iid,linear,neural_clipped,0.03412431002679209,-0.0031322321295738087,0.010392159263003832,0.01091070039196594,neural_positive_rkhs_moment
gamma_design,0.95,0.0,1000,0.05,0.1,misspecified_affine,1,neural_standard_fqe,2.4496426191315503,0.16658159135813808,2.2877031950560394,0.1651393655895432,-7.4356230962199,-11.831586406340458,4.395963310120558,4.395963310120558,19.32449342392609,34.14922077371897,0.7162241619513448,2.6502836154617926,0.18851069424349698,2.146548580302607,0.1924138634749573,0.640214694487347,0.7253748581555283,1.0,0.0,1.0,1.0,1.0,1.0,1000.0,1.0,0.0,0.0,nan,0.0,1.0,0.0,0.0,197.00629893877428,0.0,stable,0.95,0.95,discounted,matched_iid,neural,standard,nan,0.0,0.0034504731799300204,0.0012979669008125422,uniform
gamma_design,0.95,0.0,1000,0.05,0.1,misspecified_affine,1,neural_oracle_clipped_fqe,2.4496426191315503,0.16658159135813808,2.2877031950560394,0.1651393655895432,-7.4356230962199,-11.831586406340458,4.395963310120558,4.395963310120558,19.32449342392609,34.14922077371897,0.7162241619513448,2.6502836154617926,0.18851069424349698,2.146548580302607,0.1924138634749573,0.640214694487347,0.7253748581555283,1.0,0.0,1.0,1.0,1.0,1.0,1000.0,1.0,0.0,0.0,1.0,0.0,1.0,0.0,0.0,197.00629893877428,0.0,stable,0.95,0.95,discounted,matched_iid,neural,oracle_clipped,0.0,0.0,0.0034504731799300204,0.0012979669008125422,oracle_exact_clipped
gamma_design,0.95,0.0,1000,0.05,0.1,misspecified_affine,1,neural_estimated_clipped_fqe,2.6424000478106198,0.17825795645718176,2.4700232505286572,0.17584796649560452,-7.164279653260399,-11.831586406340458,4.667306753080059,4.667306753080059,21.78375232734672,37.28170579629224,0.7609742783672012,2.8658138934257593,0.2016028304104068,2.3096289937399828,0.20520688810579707,0.7051677484633622,0.7954879980910395,0.9999999999999999,0.08838352079896784,1.3476579050025868,1.0928282963558487,1.1235397268870875,1.3476538101724775,992.2489020899671,0.9922489020899672,0.01,0.0,1.3462732118724345,0.09355715067629307,nan,0.061119818622625596,0.0078116467488215805,196.89718115822998,0.0,stable,0.95,0.95,discounted,matched_iid,neural,linear_clipped,0.0049709007106120895,-3.742695682251718e-05,0.0040174574771179375,0.0034216407368881743,linear_reduced_moment
gamma_design,0.95,0.0,1000,0.05,0.1,misspecified_affine,1,neural_neural_weighted_clipped_fqe,2.4417637325850947,0.1670296251335223,2.280303320644695,0.1655574297200126,-7.424611158975322,-11.831586406340458,4.406975247365136,4.406975247365136,19.421430830888998,34.27009275311074,0.7179841301640133,2.6429528999837775,0.18889129478299077,2.137814289678315,0.19293602402845558,0.6456715023435858,0.7310512321459584,0.9999999999999998,0.03933454409513155,1.0772486167090425,1.0410157158032591,1.0569010393182694,1.0772474765125966,998.4551837902914,0.9984551837902914,0.01,0.0,1.0737615382671357,0.04015661807183845,nan,0.030152441758922982,0.0015472063591718483,191.56655768356154,0.0,stable,0.95,0.95,discounted,matched_iid,neural,neural_clipped,0.03412431002679209,-0.0031322321295738087,0.010392159263003832,0.01091070039196594,neural_positive_rkhs_moment
gamma_design,0.95,0.0,1000,0.05,0.1,misspecified_affine,2,linear_standard_fqe,1.3617427674618126,0.028396350772733885,1.3914807064094483,0.03469486855206043,-12.578417297759671,-11.831586406340458,-0.7468308914192132,0.7468308914192132,0.5577563803780167,6.363725638649693,0.16041691260177277,1.2540564645083143,0.034179512081338737,1.314205163275674,0.04847633662824141,0.4124071405836052,0.3505624777672893,1.0,0.0,1.0,1.0,1.0,1.0,1000.0,1.0,0.0,0.0,nan,0.0,1.0,0.0,0.0,201.10070986509524,0.0,stable,0.95,0.95,discounted,matched_iid,linear,standard,nan,0.0,0.014587880639148882,0.01785890727903944,uniform
gamma_design,0.95,0.0,1000,0.05,0.1,misspecified_affine,2,linear_oracle_raw_fqe,1.3617427674618126,0.028396350772733885,1.3914807064094483,0.03469486855206043,-12.578417297759671,-11.831586406340458,-0.7468308914192132,0.7468308914192132,0.5577563803780167,6.363725638649693,0.16041691260177277,1.2540564645083143,0.034179512081338737,1.314205163275674,0.04847633662824141,0.4124071405836052,0.3505624777672893,1.0,0.0,1.0,1.0,1.0,1.0,1000.0,1.0,0.0,0.0,nan,0.0,1.0,0.0,0.0,201.10070986509524,0.0,stable,0.95,0.95,discounted,matched_iid,linear,oracle_raw,0.0,0.0,0.014587880639148882,0.01785890727903944,oracle_exact
gamma_design,0.95,0.0,1000,0.05,0.1,misspecified_affine,2,linear_oracle_clipped_fqe,1.3617427674618126,0.028396350772733885,1.3914807064094483,0.03469486855206043,-12.578417297759671,-11.831586406340458,-0.7468308914192132,0.7468308914192132,0.5577563803780167,6.363725638649693,0.16041691260177277,1.2540564645083143,0.034179512081338737,1.314205163275674,0.04847633662824141,0.4124071405836052,0.3505624777672893,1.0,0.0,1.0,1.0,1.0,1.0,1000.0,1.0,0.0,0.0,1.0,0.0,1.0,0.0,0.0,201.10070986509524,0.0,stable,0.95,0.95,discounted,matched_iid,linear,oracle_clipped,0.0,0.0,0.014587880639148882,0.01785890727903944,oracle_exact_clipped
gamma_design,0.95,0.0,1000,0.05,0.1,misspecified_affine,2,linear_estimated_clipped_fqe,2.652027831624368,0.03882516660315149,2.6975500169139424,0.044544420027951476,-11.72634298244022,-11.831586406340458,0.10524342390023733,0.10524342390023733,0.011076178274245046,5.793431117711039,0.19011054714417042,2.548883751419139,0.04500629635593237,2.608295093929003,0.05871462018814033,0.3920035463847184,0.33845881910790476,0.9999999999999999,0.18771194244919592,1.5213617530981183,1.2271576937935507,1.2933175979968259,1.5210969210793128,965.9635280720306,0.9659635280720306,0.01,0.0,1.5164623405480677,0.19971819994119314,nan,0.14606809801583262,0.03523577333805023,206.00730845038566,0.0,stable,0.95,0.95,discounted,matched_iid,linear,linear_clipped,0.016780838647154427,-8.502648418451386e-05,0.009444112053248946,0.010891158534886832,linear_reduced_moment
gamma_design,0.95,0.0,1000,0.05,0.1,misspecified_affine,2,linear_neural_weighted_clipped_fqe,1.3312162752059393,0.028233303023534637,1.3589110077404363,0.03429346299081361,-12.603577032672654,-11.831586406340458,-0.7719906263321956,0.7719906263321956,0.5959695271447757,6.413991359926586,0.15917297103617012,1.221164269160328,0.03409643854965514,1.279726665285501,0.04816005614930614,0.40707844784876257,0.3474992337624675,1.0,0.043083581567169106,1.1758060604533145,1.0318095256636208,1.0397771182383833,1.1757218949376391,998.1472440756291,0.9981472440756292,0.01,0.0,1.1626275980472565,0.04332592977881217,nan,0.028498321873861896,0.0018561950006549138,200.70657782501138,0.0,stable,0.95,0.95,discounted,matched_iid,linear,neural_clipped,0.05294010342053268,-0.01082828825712201,0.009418472761224171,0.011775624698314089,neural_positive_rkhs_moment
gamma_design,0.95,0.0,1000,0.05,0.1,misspecified_affine,3,linear_standard_fqe,2.630124535906478,0.0550419351624132,2.621911450788224,0.04131939145874268,-11.672318904352311,-11.831586406340458,0.15926750198814688,0.15926750198814688,0.02536613718954437,6.058740692272513,0.20670964121237054,2.492191424553878,0.06758437272879173,2.4860046679450654,0.0447611878830321,0.36401983193960846,0.35792780165628213,1.0,0.0,1.0,1.0,1.0,1.0,1000.0,1.0,0.0,0.0,nan,0.0,1.0,0.0,0.0,199.89238313100876,0.0,stable,0.95,0.95,discounted,matched_iid,linear,standard,nan,0.0,0.014618238070675948,0.012967192462650799,uniform
gamma_design,0.95,0.0,1000,0.05,0.1,misspecified_affine,3,linear_oracle_raw_fqe,2.630124535906478,0.0550419351624132,2.621911450788224,0.04131939145874268,-11.672318904352311,-11.831586406340458,0.15926750198814688,0.15926750198814688,0.02536613718954437,6.058740692272513,0.20670964121237054,2.492191424553878,0.06758437272879173,2.4860046679450654,0.0447611878830321,0.36401983193960846,0.35792780165628213,1.0,0.0,1.0,1.0,1.0,1.0,1000.0,1.0,0.0,0.0,nan,0.0,1.0,0.0,0.0,199.89238313100876,0.0,stable,0.95,0.95,discounted,matched_iid,linear,oracle_raw,0.0,0.0,0.014618238070675948,0.012967192462650799,oracle_exact
gamma_design,0.95,0.0,1000,0.05,0.1,misspecified_affine,3,linear_oracle_clipped_fqe,2.630124535906478,0.0550419351624132,2.621911450788224,0.04131939145874268,-11.672318904352311,-11.831586406340458,0.15926750198814688,0.15926750198814688,0.02536613718954437,6.058740692272513,0.20670964121237054,2.492191424553878,0.06758437272879173,2.4860046679450654,0.0447611878830321,0.36401983193960846,0.35792780165628213,1.0,0.0,1.0,1.0,1.0,1.0,1000.0,1.0,0.0,0.0,1.0,0.0,1.0,0.0,0.0,199.89238313100876,0.0,stable,0.95,0.95,discounted,matched_iid,linear,oracle_clipped,0.0,0.0,0.014618238070675948,0.012967192462650799,oracle_exact_clipped
gamma_design,0.95,0.0,1000,0.05,0.1,misspecified_affine,3,linear_estimated_clipped_fqe,2.685032229136934,0.05268990626062578,2.6731479258016586,0.03927000105753266,-11.891322100881464,-11.831586406340458,-0.05973569454100591,0.05973569454100591,0.0035683532022963635,5.778494112920157,0.189797452833555,2.54008025445925,0.06331066764926338,2.5401205801005946,0.042596321298937846,0.3551124091866104,0.34919434001032507,1.0,0.09000342833993619,1.3847643801228584,1.1013770755630083,1.1761512781132812,1.3847131302723141,991.9644755935763,0.9919644755935763,0.01,0.0,1.3833010782165314,0.08613852300876375,nan,0.05777871919960207,0.008100617112942028,207.72652122346142,0.0,stable,0.95,0.95,discounted,matched_iid,linear,linear_clipped,0.006850248408842536,-7.594540402000582e-05,0.0032042064142467873,0.0015259158000487003,linear_reduced_moment
gamma_design,0.95,0.0,1000,0.05,0.1,misspecified_affine,3,linear_neural_weighted_clipped_fqe,2.801077293017053,0.0548227938347118,2.791945079793658,0.0414750217533123,-11.705733600830065,-11.831586406340458,0.12585280551039268,0.12585280551039268,0.01583892865483673,5.922357173250921,0.2024478412644879,2.6590483129700817,0.0675323361974118,2.6549342463662784,0.04499460405783743,0.3626073310949578,0.35679432863057686,1.0,0.0677410628557364,1.2479313708563002,1.0959637471956454,1.1473136741822412,1.247921599858862,995.4321097735349,0.9954321097735349,0.01,0.0,1.2432135915756226,0.0649639081474999,nan,0.049883188361892435,0.00458885159682483,206.4973844556896,0.0,stable,0.95,0.95,discounted,matched_iid,linear,neural_clipped,0.017238508253201792,-0.003334816753864267,0.00537723957208886,0.002716528270006539,neural_positive_rkhs_moment
gamma_design,0.95,0.0,1000,0.05,0.1,misspecified_affine,4,linear_standard_fqe,3.502993996624028,0.04011923434706321,3.4616090832271107,0.04144347977580027,-12.251654890668178,-11.831586406340458,-0.4200684843277198,0.4200684843277198,0.1764575315253878,4.941007889167915,0.14453126454169452,3.391342662426456,0.04394172686485474,3.384773541743502,0.04026717611499677,0.3186876301449838,0.345066844260005,1.0,0.0,1.0,1.0,1.0,1.0,1000.0,1.0,0.0,0.0,nan,0.0,1.0,0.0,0.0,192.9801467680911,0.0,stable,0.95,0.95,discounted,matched_iid,linear,standard,nan,0.0,0.019150047644591522,0.017083770608495474,uniform
gamma_design,0.95,0.0,1000,0.05,0.1,misspecified_affine,4,linear_oracle_raw_fqe,3.502993996624028,0.04011923434706321,3.4616090832271107,0.04144347977580027,-12.251654890668178,-11.831586406340458,-0.4200684843277198,0.4200684843277198,0.1764575315253878,4.941007889167915,0.14453126454169452,3.391342662426456,0.04394172686485474,3.384773541743502,0.04026717611499677,0.3186876301449838,0.345066844260005,1.0,0.0,1.0,1.0,1.0,1.0,1000.0,1.0,0.0,0.0,nan,0.0,1.0,0.0,0.0,192.9801467680911,0.0,stable,0.95,0.95,discounted,matched_iid,linear,oracle_raw,0.0,0.0,0.019150047644591522,0.017083770608495474,oracle_exact
gamma_design,0.95,0.0,1000,0.05,0.1,misspecified_affine,4,linear_oracle_clipped_fqe,3.502993996624028,0.04011923434706321,3.4616090832271107,0.04144347977580027,-12.251654890668178,-11.831586406340458,-0.4200684843277198,0.4200684843277198,0.1764575315253878,4.941007889167915,0.14453126454169452,3.391342662426456,0.04394172686485474,3.384773541743502,0.04026717611499677,0.3186876301449838,0.345066844260005,1.0,0.0,1.0,1.0,1.0,1.0,1000.0,1.0,0.0,0.0,1.0,0.0,1.0,0.0,0.0,192.9801467680911,0.0,stable,0.95,0.95,discounted,matched_iid,linear,oracle_clipped,0.0,0.0,0.019150047644591522,0.017083770608495474,oracle_exact_clipped
gamma_design,0.95,0.0,1000,0.05,0.1,misspecified_affine,4,linear_estimated_clipped_fqe,2.9615315548062755,0.038777657125460115,2.9127092284331852,0.03985590422622863,-12.068446520078236,-11.831586406340458,-0.23686011373777838,0.23686011373777838,0.056102713479873306,5.207960099425139,0.15835090758520748,2.8392184258150506,0.041863851818763564,2.822860363366075,0.03705153721392521,0.31590457542998673,0.34237316969772585,0.9999999999999998,0.16240012242622145,1.5280141192364443,1.216268325356364,1.2848476717529447,1.5276244413741944,974.3039039284567,0.9743039039284568,0.01,0.0,1.52579395584113,0.608425026986342,nan,0.1261708706534378,0.026373799764051718,192.83990010982993,0.0,stable,0.95,0.95,discounted,matched_iid,linear,linear_clipped,0.005164436800919492,-7.378877980102061e-05,0.00509026877805641,0.005563289677318279,linear_reduced_moment
gamma_design,0.95,0.0,1000,0.05,0.1,misspecified_affine,4,linear_neural_weighted_clipped_fqe,3.6011069678291916,0.04050338742307237,3.561167862566444,0.041695743633767525,-12.3081186912006,-11.831586406340458,-0.47653228486014143,0.47653228486014143,0.22708301851402699,4.907116431860454,0.14038403630348156,3.488664055458763,0.04419002145160215,3.484999934707807,0.04082982101866869,0.31885313654151143,0.34356955825225405,1.0,0.014745160494812849,1.1071647457250533,1.0053229527606373,1.010319207512385,1.1070998557740215,999.7826275030578,0.9997826275030578,0.01,0.0,1.1051617670059204,0.014255388479913691,nan,0.006087285892360482,0.00021741975801778951,193.5529982360441,0.0,stable,0.95,0.95,discounted,matched_iid,linear,neural_clipped,0.04824792467771742,-0.0013567503690720129,0.0175747503136148,0.015425802827531579,neural_positive_rkhs_moment
gamma_design,0.95,0.0,4000,0.05,0.1,misspecified_affine,0,linear_standard_fqe,2.9930249156615893,0.045717776480649334,2.969932107113562,0.04066705214885878,-12.049956614367185,-11.831586406340458,-0.2183702080267267,0.2183702080267267,0.04768554775363589,5.118099012216272,0.14782367618283515,2.872919394736872,0.04125595904278764,2.836949636936743,0.04143875861637909,0.3467910219596987,0.3832739778221673,1.0,0.0,1.0,1.0,1.0,1.0,4000.0,1.0,0.0,0.0,nan,0.0,1.0,0.0,0.0,204.30936032778166,0.0,stable,0.95,0.95,discounted,matched_iid,linear,standard,nan,0.0,0.006476182437304353,0.006356790309403865,uniform
gamma_design,0.95,0.0,4000,0.05,0.1,misspecified_affine,0,linear_oracle_raw_fqe,2.9930249156615893,0.045717776480649334,2.969932107113562,0.04066705214885878,-12.049956614367185,-11.831586406340458,-0.2183702080267267,0.2183702080267267,0.04768554775363589,5.118099012216272,0.14782367618283515,2.872919394736872,0.04125595904278764,2.836949636936743,0.04143875861637909,0.3467910219596987,0.3832739778221673,1.0,0.0,1.0,1.0,1.0,1.0,4000.0,1.0,0.0,0.0,nan,0.0,1.0,0.0,0.0,204.30936032778166,0.0,stable,0.95,0.95,discounted,matched_iid,linear,oracle_raw,0.0,0.0,0.006476182437304353,0.006356790309403865,oracle_exact
gamma_design,0.95,0.0,4000,0.05,0.1,misspecified_affine,0,linear_oracle_clipped_fqe,2.9930249156615893,0.045717776480649334,2.969932107113562,0.04066705214885878,-12.049956614367185,-11.831586406340458,-0.2183702080267267,0.2183702080267267,0.04768554775363589,5.118099012216272,0.14782367618283515,2.872919394736872,0.04125595904278764,2.836949636936743,0.04143875861637909,0.3467910219596987,0.3832739778221673,1.0,0.0,1.0,1.0,1.0,1.0,4000.0,1.0,0.0,0.0,1.0,0.0,1.0,0.0,0.0,204.30936032778166,0.0,stable,0.95,0.95,discounted,matched_iid,linear,oracle_clipped,0.0,0.0,0.006476182437304353,0.006356790309403865,oracle_exact_clipped
gamma_design,0.95,0.0,4000,0.05,0.1,misspecified_affine,0,linear_estimated_clipped_fqe,3.0442386587808783,0.044778780256005755,3.02233969759057,0.040034579641721045,-12.164274867631159,-11.831586406340458,-0.33268846129070084,0.33268846129070084,0.11068161227597416,5.023433475988713,0.14098402295236248,2.924802891890875,0.040645626346316306,2.890410539166153,0.04070215001299253,0.3470028226100707,0.3839956093858345,1.0000000000000002,0.05171656223665337,1.1654918829837673,1.0325065100315347,1.0764985513458356,1.1654908431383784,3989.3301264355027,0.9973325316088757,0.01,0.0,1.1652720838959651,0.05340738419154919,nan,0.034288675786421495,0.0026746028095776414,206.23912831544155,0.0,stable,0.95,0.95,discounted,matched_iid,linear,linear_clipped,0.004354553146927094,3.930630449788808e-06,0.0063526116399060355,0.005349218809117082,linear_reduced_moment
gamma_design,0.95,0.0,4000,0.05,0.1,misspecified_affine,0,linear_neural_weighted_clipped_fqe,2.3880892605560677,0.04105029705878603,2.3610391882721413,0.03600035003624271,-12.34301901580655,-11.831586406340458,-0.5114326094660928,0.5114326094660928,0.26156331402529703,5.307890813595017,0.13710793619261136,2.2597995566279434,0.03599577643326707,2.2299932950776986,0.03622747328778494,0.3473921560905435,0.38407312633920915,1.0,0.06717087679087926,1.1230913923818653,1.0776355325571052,1.0905288639177007,1.1230891063802568,3982.0333574187493,0.9955083393546873,0.01,0.0,1.1230872118473052,0.0683672045028653,nan,0.057337701217522845,0.004511926688855481,197.58683032453814,0.0,stable,0.95,0.95,discounted,matched_iid,linear,neural_clipped,0.029604423211276893,0.00012088444828983747,0.02176824958126644,0.022456771813874964,neural_positive_rkhs_moment
gamma_design,0.95,0.0,4000,0.05,0.1,misspecified_affine,0,neural_standard_fqe,1.476680679292025,0.08913863031408838,1.3415280454693375,0.07483958754041325,-8.588453678453453,-11.831586406340458,3.243132727887005,3.243132727887005,10.517909890691806,16.392778133336076,0.34166517376947314,1.396411512893426,0.08826273503766632,1.4224063048041382,0.09123049490325406,0.23726850579074193,0.28633153342175366,1.0,0.0,1.0,1.0,1.0,1.0,4000.0,1.0,0.0,0.0,nan,0.0,1.0,0.0,0.0,204.30936032778166,0.0,stable,0.95,0.95,discounted,matched_iid,neural,standard,nan,0.0,0.006476182437304353,0.006356790309403865,uniform
gamma_design,0.95,0.0,4000,0.05,0.1,misspecified_affine,0,neural_oracle_clipped_fqe,1.476680679292025,0.08913863031408838,1.3415280454693375,0.07483958754041325,-8.588453678453453,-11.831586406340458,3.243132727887005,3.243132727887005,10.517909890691806,16.392778133336076,0.34166517376947314,1.396411512893426,0.08826273503766632,1.4224063048041382,0.09123049490325406,0.23726850579074193,0.28633153342175366,1.0,0.0,1.0,1.0,1.0,1.0,4000.0,1.0,0.0,0.0,1.0,0.0,1.0,0.0,0.0,204.30936032778166,0.0,stable,0.95,0.95,discounted,matched_iid,neural,oracle_clipped,0.0,0.0,0.006476182437304353,0.006356790309403865,oracle_exact_clipped
gamma_design,0.95,0.0,4000,0.05,0.1,misspecified_affine,0,neural_estimated_clipped_fqe,1.4903757659408396,0.09042557913680657,1.3536017717638593,0.07599048256583323,-8.56894411516521,-11.831586406340458,3.262642291175247,3.262642291175247,10.644834720165266,16.621126152420686,0.3474405222572725,1.4061927086129284,0.08941136415148827,1.4356411411782302,0.09255103846242865,0.24272008568974482,0.2932012500729634,1.0000000000000002,0.05171656223665337,1.1654918829837673,1.0325065100315347,1.0764985513458356,1.1654908431383784,3989.3301264355027,0.9973325316088757,0.01,0.0,1.1652720838959651,0.05340738419154919,nan,0.034288675786421495,0.0026746028095776414,206.23912831544155,0.0,stable,0.95,0.95,discounted,matched_iid,neural,linear_clipped,0.004354553146927094,3.930630449788808e-06,0.0063526116399060355,0.005349218809117082,linear_reduced_moment
gamma_design,0.95,0.0,4000,0.05,0.1,misspecified_affine,0,neural_neural_weighted_clipped_fqe,1.4753175191829184,0.08912294782285837,1.3402224736513044,0.07482222656060647,-8.599335993391916,-11.831586406340458,3.2322504129485417,3.2322504129485417,10.447442732006017,16.345599005276753,0.34186032306493785,1.3946227659076382,0.08820252494490262,1.4208264153250818,0.09118947111168109,0.23637018404543586,0.28546925319209426,1.0,0.06717087679087926,1.1230913923818653,1.0776355325571052,1.0905288639177007,1.1230891063802568,3982.0333574187493,0.9955083393546873,0.01,0.0,1.1230872118473052,0.0683672045028653,nan,0.057337701217522845,0.004511926688855481,197.58683032453814,0.0,stable,0.95,0.95,discounted,matched_iid,neural,neural_clipped,0.029604423211276893,0.00012088444828983747,0.02176824958126644,0.022456771813874964,neural_positive_rkhs_moment
gamma_design,0.95,0.0,4000,0.05,0.1,misspecified_affine,1,linear_standard_fqe,4.233654157435516,0.049733855396265784,4.279307802340178,0.05036716322135189,-12.101458509695519,-11.831586406340458,-0.26987210335506084,0.26987210335506084,0.07283095216928465,4.93389424605202,0.16146263156138757,4.136489117173977,0.0511653019314466,4.147134770572721,0.05589476910424778,0.32210223926341064,0.35052977855252276,1.0,0.0,1.0,1.0,1.0,1.0,4000.0,1.0,0.0,0.0,nan,0.0,1.0,0.0,0.0,207.56408363721482,0.0,stable,0.95,0.95,discounted,matched_iid,linear,standard,nan,0.0,0.0038906478671685554,0.005510149962541447,uniform
gamma_design,0.95,0.0,4000,0.05,0.1,misspecified_affine,1,linear_oracle_raw_fqe,4.233654157435516,0.049733855396265784,4.279307802340178,0.05036716322135189,-12.101458509695519,-11.831586406340458,-0.26987210335506084,0.26987210335506084,0.07283095216928465,4.93389424605202,0.16146263156138757,4.136489117173977,0.0511653019314466,4.147134770572721,0.05589476910424778,0.32210223926341064,0.35052977855252276,1.0,0.0,1.0,1.0,1.0,1.0,4000.0,1.0,0.0,0.0,nan,0.0,1.0,0.0,0.0,207.56408363721482,0.0,stable,0.95,0.95,discounted,matched_iid,linear,oracle_raw,0.0,0.0,0.0038906478671685554,0.005510149962541447,oracle_exact
gamma_design,0.95,0.0,4000,0.05,0.1,misspecified_affine,1,linear_oracle_clipped_fqe,4.233654157435516,0.049733855396265784,4.279307802340178,0.05036716322135189,-12.101458509695519,-11.831586406340458,-0.26987210335506084,0.26987210335506084,0.07283095216928465,4.93389424605202,0.16146263156138757,4.136489117173977,0.0511653019314466,4.147134770572721,0.05589476910424778,0.32210223926341064,0.35052977855252276,1.0,0.0,1.0,1.0,1.0,1.0,4000.0,1.0,0.0,0.0,1.0,0.0,1.0,0.0,0.0,207.56408363721482,0.0,stable,0.95,0.95,discounted,matched_iid,linear,oracle_clipped,0.0,0.0,0.0038906478671685554,0.005510149962541447,oracle_exact_clipped
gamma_design,0.95,0.0,4000,0.05,0.1,misspecified_affine,1,linear_estimated_clipped_fqe,3.3296844958098055,0.04413830778404091,3.3674631780625197,0.044945413793781745,-12.299917153517129,-11.831586406340458,-0.46833074717667067,0.46833074717667067,0.21933368875105863,5.190831842506011,0.1569104295524858,3.2378986030405152,0.04481345227517597,3.2503829149043595,0.04996975111641634,0.32195830305374457,0.3506550666197816,1.0,0.07273446422193833,1.1507770684591598,1.0751876106759395,1.0940488503512782,1.150768268859444,3978.95015092208,0.99473753773052,0.01,0.0,1.1505154430953752,0.07486236509344006,nan,0.05868539137041796,0.005290302285652426,205.87605584669214,0.0,stable,0.95,0.95,discounted,matched_iid,linear,linear_clipped,0.005215371388808457,-1.1509280825938717e-05,0.0034692417048263545,0.00386719463990508,linear_reduced_moment
gamma_design,0.95,0.0,4000,0.05,0.1,misspecified_affine,1,linear_neural_weighted_clipped_fqe,3.5730826247241136,0.0454482102104154,3.6136084687546672,0.046117006695163165,-12.285215157178168,-11.831586406340458,-0.45362875083771037,0.45362875083771037,0.20577904358658153,5.093289162601954,0.15612237100450896,3.4781478912551513,0.04620927272369943,3.490022937895489,0.051196500334741414,0.3219015189047995,0.3508959122813678,0.9999999999999998,0.04422694532741378,1.0928044907216095,1.0531335414452636,1.0659741209044231,1.092788896283578,3992.1911834504,0.9980477958626,0.01,0.0,1.0887769043445583,0.04471184285200281,nan,0.03560575959419626,0.0019560226929940475,202.16302387655068,0.0,stable,0.95,0.95,discounted,matched_iid,linear,neural_clipped,0.017170796562904166,-0.0035294097661972,0.008842476197606686,0.008068156675442308,neural_positive_rkhs_moment
gamma_design,0.95,0.0,4000,0.05,0.1,misspecified_affine,1,neural_standard_fqe,1.4991591209074455,0.08492473083503584,1.4044615149609527,0.08758020674438378,-8.60478274346364,-11.831586406340458,3.2268036628768186,3.2268036628768186,10.412261878755253,16.879402561965588,0.36635405536865473,1.5946667816864568,0.09777507853130267,1.3465080863651269,0.09826164593550185,0.22970821304308398,0.267507801836019,1.0,0.0,1.0,1.0,1.0,1.0,4000.0,1.0,0.0,0.0,nan,0.0,1.0,0.0,0.0,207.56408363721482,0.0,stable,0.95,0.95,discounted,matched_iid,neural,standard,nan,0.0,0.0038906478671685554,0.005510149962541447,uniform
gamma_design,0.95,0.0,4000,0.05,0.1,misspecified_affine,1,neural_oracle_clipped_fqe,1.4991591209074455,0.08492473083503584,1.4044615149609527,0.08758020674438378,-8.60478274346364,-11.831586406340458,3.2268036628768186,3.2268036628768186,10.412261878755253,16.879402561965588,0.36635405536865473,1.5946667816864568,0.09777507853130267,1.3465080863651269,0.09826164593550185,0.22970821304308398,0.267507801836019,1.0,0.0,1.0,1.0,1.0,1.0,4000.0,1.0,0.0,0.0,1.0,0.0,1.0,0.0,0.0,207.56408363721482,0.0,stable,0.95,0.95,discounted,matched_iid,neural,oracle_clipped,0.0,0.0,0.0038906478671685554,0.005510149962541447,oracle_exact_clipped
gamma_design,0.95,0.0,4000,0.05,0.1,misspecified_affine,1,neural_estimated_clipped_fqe,1.496292547227064,0.08503728462805701,1.4011928701921867,0.0875146731774044,-8.603995816285538,-11.831586406340458,3.2275905900549198,3.2275905900549198,10.417341017011065,16.884625071437366,0.3668993079726868,1.5904111237079197,0.09762899032405274,1.3442143111510754,0.09840295473416552,0.23003977457464422,0.2683906347820815,1.0,0.07273446422193833,1.1507770684591598,1.0751876106759395,1.0940488503512782,1.150768268859444,3978.95015092208,0.99473753773052,0.01,0.0,1.1505154430953752,0.07486236509344006,nan,0.05868539137041796,0.005290302285652426,205.87605584669214,0.0,stable,0.95,0.95,discounted,matched_iid,neural,linear_clipped,0.005215371388808457,-1.1509280825938717e-05,0.0034692417048263545,0.00386719463990508,linear_reduced_moment
gamma_design,0.95,0.0,4000,0.05,0.1,misspecified_affine,1,neural_neural_weighted_clipped_fqe,1.4945414555051983,0.08472357468420251,1.4000641556089521,0.08736373802986573,-8.610409142176447,-11.831586406340458,3.2211772641640106,3.2211772641640106,10.37598296716714,16.82836488327488,0.3654771558396973,1.5892146666017828,0.09744441536766164,1.3427267121807513,0.09804444171423173,0.22887245747182505,0.2666203888756918,0.9999999999999998,0.04422694532741378,1.0928044907216095,1.0531335414452636,1.0659741209044231,1.092788896283578,3992.1911834504,0.9980477958626,0.01,0.0,1.0887769043445583,0.04471184285200281,nan,0.03560575959419626,0.0019560226929940475,202.16302387655068,0.0,stable,0.95,0.95,discounted,matched_iid,neural,neural_clipped,0.017170796562904166,-0.0035294097661972,0.008842476197606686,0.008068156675442308,neural_positive_rkhs_moment
gamma_design,0.95,0.0,4000,0.05,0.1,misspecified_affine,2,linear_standard_fqe,3.197975581304217,0.039811843433180207,3.2334907534586517,0.04400669105157514,-11.921670581467135,-11.831586406340458,-0.09008417512667677,0.09008417512667677,0.00811515860825377,5.3775890800960795,0.17038933880907503,3.1113900009787345,0.0455524804026856,3.1588104795829683,0.05710972501497656,0.38007344259866144,0.3341697208773585,1.0,0.0,1.0,1.0,1.0,1.0,4000.0,1.0,0.0,0.0,nan,0.0,1.0,0.0,0.0,205.76085789249026,0.0,stable,0.95,0.95,discounted,matched_iid,linear,standard,nan,0.0,0.004511463954534858,0.003865247578507295,uniform
gamma_design,0.95,0.0,4000,0.05,0.1,misspecified_affine,2,linear_oracle_raw_fqe,3.197975581304217,0.039811843433180207,3.2334907534586517,0.04400669105157514,-11.921670581467135,-11.831586406340458,-0.09008417512667677,0.09008417512667677,0.00811515860825377,5.3775890800960795,0.17038933880907503,3.1113900009787345,0.0455524804026856,3.1588104795829683,0.05710972501497656,0.38007344259866144,0.3341697208773585,1.0,0.0,1.0,1.0,1.0,1.0,4000.0,1.0,0.0,0.0,nan,0.0,1.0,0.0,0.0,205.76085789249026,0.0,stable,0.95,0.95,discounted,matched_iid,linear,oracle_raw,0.0,0.0,0.004511463954534858,0.003865247578507295,oracle_exact
gamma_design,0.95,0.0,4000,0.05,0.1,misspecified_affine,2,linear_oracle_clipped_fqe,3.197975581304217,0.039811843433180207,3.2334907534586517,0.04400669105157514,-11.921670581467135,-11.831586406340458,-0.09008417512667677,0.09008417512667677,0.00811515860825377,5.3775890800960795,0.17038933880907503,3.1113900009787345,0.0455524804026856,3.1588104795829683,0.05710972501497656,0.38007344259866144,0.3341697208773585,1.0,0.0,1.0,1.0,1.0,1.0,4000.0,1.0,0.0,0.0,1.0,0.0,1.0,0.0,0.0,205.76085789249026,0.0,stable,0.95,0.95,discounted,matched_iid,linear,oracle_clipped,0.0,0.0,0.004511463954534858,0.003865247578507295,oracle_exact_clipped
gamma_design,0.95,0.0,4000,0.05,0.1,misspecified_affine,2,linear_estimated_clipped_fqe,3.198869985249042,0.03889844328626217,3.228939962957008,0.04270143718509687,-12.088605608989859,-11.831586406340458,-0.2570192026494009,0.2570192026494009,0.06605887053053382,5.251831626593112,0.15974574281206638,3.1191111132222655,0.044366170791844996,3.162601418640707,0.055278624766491175,0.3789937231697414,0.3342218200522615,1.0,0.06284337132955993,1.2363674955243518,1.051513001566658,1.095970628971037,1.2363564061549115,3984.2649848470355,0.9960662462117589,0.01,0.0,1.2352975939247077,0.06273205034713482,nan,0.04272153874222471,0.0039492893200649545,212.27545292802677,0.0,stable,0.95,0.95,discounted,matched_iid,linear,linear_clipped,0.004167809394789032,-1.822837680376388e-05,0.0034645836145951337,0.004247149883484338,linear_reduced_moment
gamma_design,0.95,0.0,4000,0.05,0.1,misspecified_affine,2,linear_neural_weighted_clipped_fqe,2.831826651372636,0.03825288937587495,2.8709877118423437,0.043344015337281785,-11.887509378200189,-11.831586406340458,-0.05592297185973116,0.05592297185973116,0.0031273787816242836,5.512142696337698,0.17701878942088703,2.744286737702157,0.0441499442692763,2.7977666621054924,0.056877352212228664,0.3879848941198346,0.3359450161858265,1.0,0.04814366995159584,1.0544907348463937,1.0367394287178269,1.043084830876881,1.05448710174679,3990.7501875096023,0.9976875468774006,0.01,0.0,1.045773330926895,0.05621364011784086,nan,0.02849955526396119,0.0023178129564081916,201.49176375942022,0.0,stable,0.95,0.95,discounted,matched_iid,linear,neural_clipped,0.06394409417937595,-0.008203765027224974,0.015164605602014476,0.0159073807573588,neural_positive_rkhs_moment
gamma_design,0.95,0.0,4000,0.05,0.1,misspecified_affine,3,linear_standard_fqe,3.023293612668577,0.04920251322961501,3.000544890795163,0.03733676273102357,-12.417367092810599,-11.831586406340458,-0.5857806864701409,0.5857806864701409,0.34313901264142954,5.4744851070504446,0.15314218719400485,2.8300631028990484,0.055976892444502255,2.843202645342617,0.0399887172373731,0.34940363830059173,0.34516499386681604,1.0,0.0,1.0,1.0,1.0,1.0,4000.0,1.0,0.0,0.0,nan,0.0,1.0,0.0,0.0,220.3641161398121,0.0,stable,0.95,0.95,discounted,matched_iid,linear,standard,nan,0.0,0.009514372937813797,0.01037242002897602,uniform
gamma_design,0.95,0.0,4000,0.05,0.1,misspecified_affine,3,linear_oracle_raw_fqe,3.023293612668577,0.04920251322961501,3.000544890795163,0.03733676273102357,-12.417367092810599,-11.831586406340458,-0.5857806864701409,0.5857806864701409,0.34313901264142954,5.4744851070504446,0.15314218719400485,2.8300631028990484,0.055976892444502255,2.843202645342617,0.0399887172373731,0.34940363830059173,0.34516499386681604,1.0,0.0,1.0,1.0,1.0,1.0,4000.0,1.0,0.0,0.0,nan,0.0,1.0,0.0,0.0,220.3641161398121,0.0,stable,0.95,0.95,discounted,matched_iid,linear,oracle_raw,0.0,0.0,0.009514372937813797,0.01037242002897602,oracle_exact
gamma_design,0.95,0.0,4000,0.05,0.1,misspecified_affine,3,linear_oracle_clipped_fqe,3.023293612668577,0.04920251322961501,3.000544890795163,0.03733676273102357,-12.417367092810599,-11.831586406340458,-0.5857806864701409,0.5857806864701409,0.34313901264142954,5.4744851070504446,0.15314218719400485,2.8300631028990484,0.055976892444502255,2.843202645342617,0.0399887172373731,0.34940363830059173,0.34516499386681604,1.0,0.0,1.0,1.0,1.0,1.0,4000.0,1.0,0.0,0.0,1.0,0.0,1.0,0.0,0.0,220.3641161398121,0.0,stable,0.95,0.95,discounted,matched_iid,linear,oracle_clipped,0.0,0.0,0.009514372937813797,0.01037242002897602,oracle_exact_clipped
gamma_design,0.95,0.0,4000,0.05,0.1,misspecified_affine,3,linear_estimated_clipped_fqe,2.8370114098716614,0.05149584449228826,2.8207797166704722,0.03837295577072008,-12.11834679005078,-11.831586406340458,-0.2867603837103214,0.2867603837103214,0.08223151766569077,5.616828507762041,0.1727558928078157,2.6508247939787797,0.05865714235698743,2.659136071344093,0.04104897890134906,0.3486427216226339,0.3433076548605005,1.0,0.06940480005674923,1.079208806512991,1.0616552873221723,1.067920667986165,1.0792072420674643,3980.824264935898,0.9952060662339746,0.01,0.0,1.0791415460545253,0.07877702257800542,nan,0.05013017556597183,0.004817026270917338,212.37878830524718,0.0,stable,0.95,0.95,discounted,matched_iid,linear,linear_clipped,0.012769909054997938,-1.4528853286455146e-05,0.0075797924600402335,0.007517214436702044,linear_reduced_moment
gamma_design,0.95,0.0,4000,0.05,0.1,misspecified_affine,3,linear_neural_weighted_clipped_fqe,3.0281263859862912,0.049883673808267845,3.007217799501408,0.03783958556910767,-12.323805315936252,-11.831586406340458,-0.4922189095957936,0.4922189095957936,0.24227945496367206,5.444656715989121,0.15856365827884958,2.8386988658682384,0.05749952942987688,2.8499265596121077,0.040584627910881514,0.34859264468660806,0.34408251720971256,1.0,0.02428482531537996,1.039702830955397,1.0296575386970093,1.0352248899497796,1.039702616132235,3997.6423794507864,0.9994105948626966,0.01,0.0,1.039548614025116,0.02495456882697675,nan,0.015722410509790532,0.0005897527405985195,219.24122976376503,0.0,stable,0.95,0.95,discounted,matched_iid,linear,neural_clipped,0.013465430482742286,-0.00013592705130571758,0.008423472795543285,0.009659270143635879,neural_positive_rkhs_moment
gamma_design,0.95,0.0,4000,0.05,0.1,misspecified_affine,4,linear_standard_fqe,3.109217086172981,0.04071959505846311,3.0543513484853184,0.04056559165947546,-12.05221343998924,-11.831586406340458,-0.2206270336487819,0.2206270336487819,0.04867628797666074,5.237633990803072,0.1560573389284007,2.969767872347905,0.042172782189493066,2.959759404754351,0.037915689518437753,0.3175619666735788,0.3359523144921874,1.0,0.0,1.0,1.0,1.0,1.0,4000.0,1.0,0.0,0.0,nan,0.0,1.0,0.0,0.0,203.55776485185265,0.0,stable,0.95,0.95,discounted,matched_iid,linear,standard,nan,0.0,0.004601987067033325,0.004159318546164558,uniform
gamma_design,0.95,0.0,4000,0.05,0.1,misspecified_affine,4,linear_oracle_raw_fqe,3.109217086172981,0.04071959505846311,3.0543513484853184,0.04056559165947546,-12.05221343998924,-11.831586406340458,-0.2206270336487819,0.2206270336487819,0.04867628797666074,5.237633990803072,0.1560573389284007,2.969767872347905,0.042172782189493066,2.959759404754351,0.037915689518437753,0.3175619666735788,0.3359523144921874,1.0,0.0,1.0,1.0,1.0,1.0,4000.0,1.0,0.0,0.0,nan,0.0,1.0,0.0,0.0,203.55776485185265,0.0,stable,0.95,0.95,discounted,matched_iid,linear,oracle_raw,0.0,0.0,0.004601987067033325,0.004159318546164558,oracle_exact
gamma_design,0.95,0.0,4000,0.05,0.1,misspecified_affine,4,linear_oracle_clipped_fqe,3.109217086172981,0.04071959505846311,3.0543513484853184,0.04056559165947546,-12.05221343998924,-11.831586406340458,-0.2206270336487819,0.2206270336487819,0.04867628797666074,5.237633990803072,0.1560573389284007,2.969767872347905,0.042172782189493066,2.959759404754351,0.037915689518437753,0.3175619666735788,0.3359523144921874,1.0,0.0,1.0,1.0,1.0,1.0,4000.0,1.0,0.0,0.0,1.0,0.0,1.0,0.0,0.0,203.55776485185265,0.0,stable,0.95,0.95,discounted,matched_iid,linear,oracle_clipped,0.0,0.0,0.004601987067033325,0.004159318546164558,oracle_exact_clipped
gamma_design,0.95,0.0,4000,0.05,0.1,misspecified_affine,4,linear_estimated_clipped_fqe,3.144004433044659,0.04028198551936727,3.093069666362124,0.04014536191999811,-12.15987802530676,-11.831586406340458,-0.3282916189663023,0.3282916189663023,0.10777538708351583,5.174165268479256,0.14921705983047456,3.0031645758482846,0.041603422398593326,2.9959076639635853,0.037776398762994066,0.31890249077805727,0.3358833222628951,1.0,0.04857783513722257,1.1583498120447941,1.0532002250098675,1.0774092814911433,1.1583493181504279,3990.582998031898,0.9976457495079746,0.01,0.0,1.1575584793263718,0.05014257372450842,nan,0.03170185909348804,0.0023598060666191758,202.46735073908252,0.0,stable,0.95,0.95,discounted,matched_iid,linear,linear_clipped,0.0007112230247054115,-3.988782905106625e-05,0.002349645189286118,0.0035416657789594493,linear_reduced_moment
gamma_design,0.95,0.0,4000,0.05,0.1,misspecified_affine,4,linear_neural_weighted_clipped_fqe,2.9678618170397373,0.04020572842841503,2.9120761929185752,0.04046772019045108,-11.97108061499687,-11.831586406340458,-0.13949420865641216,0.13949420865641216,0.019458634248678653,5.31467460257469,0.16294460032939073,2.8350097614285406,0.04229719995497129,2.8196863838770927,0.03740601566065713,0.3153587679126026,0.3377163755836974,1.0,0.029648814621074607,1.036619352994846,1.014931706489098,1.021553691395102,1.036618491819599,3996.4868793826977,0.9991217198456744,0.01,0.0,1.0270967757701874,0.03193511798192764,nan,0.011811232107431761,0.0008790522084348474,200.39605556156334,0.0,stable,0.95,0.95,discounted,matched_iid,linear,neural_clipped,0.023086666215877624,-0.00909080399572848,0.007726436826843301,0.008755155616064506,neural_positive_rkhs_moment
gamma_design,0.95,1.0,1000,0.05,0.1,misspecified_affine,0,linear_standard_fqe,187.64999463593594,1.1636097247027306,142.7743840534946,1.2002857152794009,-12.324963635711669,-11.831586406340458,-0.49337722937121065,0.49337722937121065,0.2434210904620122,15.803406569392392,0.3233861996529889,148.70244054197295,1.3440573861545757,189.15782105094715,1.3321370843365956,1.8413264921090173,1.5494146186934876,1.0,0.0,1.0,1.0,1.0,1.0,1000.0,1.0,0.0,0.0,nan,13.714886180597363,nan,1.536739444210352,0.8718796690647589,418.66544595320687,0.0,stable,0.95,0.95,discounted,matched_iid,linear,standard,nan,0.0,0.3632934583813746,0.4014650850723004,uniform
gamma_design,0.95,1.0,1000,0.05,0.1,misspecified_affine,0,linear_oracle_raw_fqe,11.144687018997663,0.6642833006021727,127.73211544606174,3.71272382082754,0.05158884822221205,-11.831586406340458,11.88317525456267,11.88317525456267,141.20985413065057,175.62564424573742,2.276475924072865,51.84422575544944,1.6765307003299676,11.451839586673351,0.746102889885668,24.10517170128121,4.556346522625303,1.0,2.608670634722036,25.885723226512212,4.091919832671237,5.691687138133003,11.062346661740712,128.12033093524118,0.1281203309352412,0.0,0.0,nan,0.0,0.9999999999999998,0.0,0.0,212.3818086441549,1.0,overlap_collapse,0.95,0.95,discounted,matched_iid,linear,oracle_raw,0.0,0.0,0.1538700396855356,0.20434061354121233,oracle_exact
gamma_design,0.95,1.0,1000,0.05,0.1,misspecified_affine,0,linear_oracle_clipped_fqe,18.764019801156014,0.140856218065259,18.419832093071367,0.44798501011931946,-13.23680061827562,-11.831586406340458,-1.4052142119351618,1.4052142119351618,1.9746269814245578,9.895792219630378,0.16600851391194635,16.10418291689231,0.22129232702785573,18.73464776185649,0.15762920934229843,2.0830159332417826,0.9658996014028914,0.9999999999999998,1.2247448708789628,6.802325157239479,2.811590663127457,3.7274953451526733,6.80224317903909,400.00000020090755,0.40000000020090754,0.01,0.4688696183729917,5.8801106776029926,13.08215880438097,0.9513387621971837,0.7237962629644062,0.28522039749919803,193.91223754448848,0.0,stable,0.95,0.95,discounted,matched_iid,linear,oracle_clipped,0.0,0.0,0.1503530943909046,0.18957437980069583,oracle_exact_clipped
gamma_design,0.95,1.0,1000,0.05,0.1,misspecified_affine,0,linear_estimated_clipped_fqe,27.682265741444574,0.6057533646264972,18.108760948557165,0.3110379857143239,-22.777994086701966,-11.831586406340458,-10.946407680361508,10.946407680361508,119.82384110467741,134.8150632338133,0.9833159290480336,16.874658768688125,0.46372944345906086,26.52996061420446,0.6790593632574864,2.435153404243587,1.6491977652724694,1.0,1.224744870897662,4.6095993784604214,3.0333000342843213,3.538629123798082,4.609486396056595,400.000000193579,0.400000000193579,0.01,0.01045256266370416,5.781239285429261,11.359277076001177,0.5219196602020575,0.982659783465743,0.6367762122932384,191.1683431399315,0.0,stable,0.95,0.95,discounted,matched_iid,linear,linear_clipped,0.3725709001006514,-0.002881418948323833,0.11465381081050924,0.14944251595887567,linear_reduced_moment
gamma_design,0.95,1.0,1000,0.05,0.1,misspecified_affine,0,linear_neural_weighted_clipped_fqe,4.012886353285169,0.3086684161147645,68.29821736564662,2.30866643673732,-5.238287085841096,-11.831586406340458,6.593299320499362,6.593299320499362,43.47159592969735,65.64000415763223,1.1833201834126847,23.290223819884044,0.9116956156741123,4.134853997464618,0.3297040444953771,15.489822210185203,2.926454996278947,1.0,1.2247448711142028,4.364385275126955,2.964890655902758,3.4484328564511437,4.364286763665473,400.00000010871275,0.4000000001087127,0.01,0.001989655615761876,3.867993369102478,10.79055965295471,0.5114336443713897,0.9757907390225596,0.645360878926889,263.66345875981926,0.0,stable,0.95,0.95,discounted,matched_iid,linear,neural_clipped,0.39375938880175526,-0.1128486485300001,0.14763451841720124,0.18560986439474905,neural_positive_rkhs_moment
gamma_design,0.95,1.0,1000,0.05,0.1,misspecified_affine,0,neural_standard_fqe,5.848868956792821,0.4161732597388878,79.58885242229175,2.4777261073413523,-3.075077504388656,-11.831586406340458,8.756508901951802,8.756508901951802,76.67644814996116,101.36864752345481,1.504822407062,33.01096319980272,1.1181912577016924,6.093414763576482,0.4600339882726261,15.744664588941275,4.00446727843736,1.0,0.0,1.0,1.0,1.0,1.0,1000.0,1.0,0.0,0.0,nan,13.714886180597363,nan,1.536739444210352,0.8718796690647589,418.66544595320687,0.0,stable,0.95,0.95,discounted,matched_iid,neural,standard,nan,0.0,0.3632934583813746,0.4014650850723004,uniform
gamma_design,0.95,1.0,1000,0.05,0.1,misspecified_affine,0,neural_oracle_clipped_fqe,5.506808124151392,0.40205416965035906,77.58190281821092,2.4323630543431385,-3.3062835729967475,-11.831586406340458,8.52530283334371,8.52530283334371,72.68078840021829,96.89656759813712,1.460948406105587,31.08098829371518,1.0787398472549092,5.735764074346384,0.4435864441488852,16.149961329920338,3.8823239668614278,0.9999999999999998,1.2247448708789628,6.802325157239479,2.811590663127457,3.7274953451526733,6.80224317903909,400.00000020090755,0.40000000020090754,0.01,0.4688696183729917,5.8801106776029926,13.08215880438097,0.9513387621971837,0.7237962629644062,0.28522039749919803,193.91223754448848,0.0,stable,0.95,0.95,discounted,matched_iid,neural,oracle_clipped,0.0,0.0,0.1503530943909046,0.18957437980069583,oracle_exact_clipped
gamma_design,0.95,1.0,1000,0.05,0.1,misspecified_affine,0,neural_estimated_clipped_fqe,7.620480810057802,0.5607000724136644,81.0585544481422,2.481727622663314,-1.735278352729436,-11.831586406340458,10.096308053611022,10.096308053611022,101.93543631341078,137.51309072074145,2.034727264291432,53.76028138780121,1.6746810194069939,8.03498965697169,0.6215921164789694,7.862732189160064,6.644883349410164,1.0,1.224744870897662,4.6095993784604214,3.0333000342843213,3.538629123798082,4.609486396056595,400.000000193579,0.400000000193579,0.01,0.01045256266370416,5.781239285429261,11.359277076001177,0.5219196602020575,0.982659783465743,0.6367762122932384,191.1683431399315,0.0,stable,0.95,0.95,discounted,matched_iid,neural,linear_clipped,0.3725709001006514,-0.002881418948323833,0.11465381081050924,0.14944251595887567,linear_reduced_moment
gamma_design,0.95,1.0,1000,0.05,0.1,misspecified_affine,0,neural_neural_weighted_clipped_fqe,7.925920667085538,0.5063335381993176,95.85407023945855,2.8908328950856133,-1.7209089608936137,-11.831586406340458,10.110677445446845,10.110677445446845,102.22579840586754,129.84624304484072,1.776689018839213,34.81343675133546,1.2084323080078225,8.174294970432998,0.5682905398517301,22.392489014958205,3.7151698242975457,1.0,1.2247448711142028,4.364385275126955,2.964890655902758,3.4484328564511437,4.364286763665473,400.00000010871275,0.4000000001087127,0.01,0.001989655615761876,3.867993369102478,10.79055965295471,0.5114336443713897,0.9757907390225596,0.645360878926889,263.66345875981926,0.0,stable,0.95,0.95,discounted,matched_iid,neural,neural_clipped,0.39375938880175526,-0.1128486485300001,0.14763451841720124,0.18560986439474905,neural_positive_rkhs_moment
gamma_design,0.95,1.0,1000,0.05,0.1,misspecified_affine,1,linear_standard_fqe,179.59417952357495,0.8299301904590889,159.93966598143135,0.9391312022578355,-4.572944287620286,-11.831586406340458,7.2586421187201715,7.2586421187201715,52.68788540765846,59.460005839977065,0.6342016240240366,169.55894513362082,0.8482162145305772,179.94382353639665,0.9460039285904248,1.755811275553589,0.9126183058741014,1.0,0.0,1.0,1.0,1.0,1.0,1000.0,1.0,0.0,0.0,nan,14.05365843741603,nan,1.5390107847749082,0.9482225994927095,415.617860884963,0.0,stable,0.95,0.95,discounted,matched_iid,linear,standard,nan,0.0,0.39865944206969356,0.4200361895191084,uniform
gamma_design,0.95,1.0,1000,0.05,0.1,misspecified_affine,1,linear_oracle_raw_fqe,8.486536920272487,0.5447974198225649,111.90302258572311,3.260469250459102,-1.1849877629350738,-11.831586406340458,10.646598643405383,10.646598643405383,113.35006267376134,146.78381262508657,2.067404572140971,47.15857845769446,1.6106881916085687,7.393163826644627,0.5968658157091032,22.29012517366901,3.9596419205621425,1.0000000000000002,4.279421157745278,109.81501989304583,3.338871063295098,4.454620521093258,11.046624985333823,51.77740050729033,0.05177740050729033,0.0,0.0,nan,0.0,0.9999999999999998,0.0,0.0,219.93311831483103,1.0,overlap_collapse,0.95,0.95,discounted,matched_iid,linear,oracle_raw,0.0,0.0,0.12843870281177053,0.19031791096206505,oracle_exact
gamma_design,0.95,1.0,1000,0.05,0.1,misspecified_affine,1,linear_oracle_clipped_fqe,13.907755292989322,0.12182923424063732,19.145842118015075,0.5206573411658211,-10.588416666860237,-11.831586406340458,1.243169739480221,1.243169739480221,1.5454710011593207,10.237088312383822,0.3395209838912766,17.745587275124052,0.36549876676674026,13.808281848584869,0.13378389758878345,1.9995476757362722,1.033902343834842,1.0000000000000002,1.2247448701990555,7.449892255391523,2.5894975827476197,3.2930725509600327,7.431329049560644,400.0000004673759,0.40000000046737594,0.01,0.4840552849229426,7.868219598875051,13.447602966685896,0.6775803744444978,0.7538062744921676,0.6581310500455941,198.53392130438388,0.0,stable,0.95,0.95,discounted,matched_iid,linear,oracle_clipped,0.0,0.0,0.1708134096065816,0.19816476216457488,oracle_exact_clipped
gamma_design,0.95,1.0,1000,0.05,0.1,misspecified_affine,1,linear_estimated_clipped_fqe,4.640557621914406,0.08946180982178889,10.669274912295394,0.2548959517419016,-14.398406086861392,-11.831586406340458,-2.5668196805209345,2.5668196805209345,6.588563272309592,13.677367523716722,0.18075131430415567,4.392544771210823,0.18257123678400872,4.5298781312245655,0.10033071957777245,2.5928975733760464,0.8042721354972385,1.0,1.1498513304017572,3.990301633103176,2.848533390800057,3.188702979399393,3.9899755935827494,430.633903755268,0.430633903755268,0.01,0.0,4.7641670818634525,8.657793966803018,0.3181827830878305,1.0425658031742777,0.8545466801520165,162.92129576798274,0.0,stable,0.95,0.95,discounted,matched_iid,linear,linear_clipped,0.30021665783751245,-0.0008233082289502702,0.0929062440435392,0.14563749382069985,linear_reduced_moment
gamma_design,0.95,1.0,1000,0.05,0.1,misspecified_affine,1,linear_neural_weighted_clipped_fqe,44.28314785160246,0.8309938547104795,28.1690104945188,0.36022509431137556,-24.926864435401665,-11.831586406340458,-13.095278029061207,13.095278029061207,171.48630665841318,187.0808827055928,1.1964909986280652,33.74742046406536,0.6638324938977479,42.87596819878856,0.9221873596977996,2.3566534647506465,1.7113478423263226,1.0,1.2247448704864217,5.1385212254136245,2.9647687449376092,3.55342014916202,5.137856898736025,400.0000003547517,0.4000000003547517,0.01,0.18470035046339034,5.756642975807189,12.866063392964918,0.2434874011924645,1.0747610311173823,0.8937355890405478,167.92434761008548,0.0,stable,0.95,0.95,discounted,matched_iid,linear,neural_clipped,0.35037481248014785,-0.04756100572347688,0.09671458861743201,0.16066454103539532,neural_positive_rkhs_moment
gamma_design,0.95,1.0,1000,0.05,0.1,misspecified_affine,1,neural_standard_fqe,6.343126835880264,0.44853004112768047,76.01040685801196,2.3162409689675383,-2.5121421928830006,-11.831586406340458,9.319444213457457,9.319444213457457,86.85204044774568,116.35411537737674,1.7570549032625982,36.783105778984016,1.3351687125574017,5.489830738631174,0.4932955796536469,14.066305171047029,3.881227123740471,1.0,0.0,1.0,1.0,1.0,1.0,1000.0,1.0,0.0,0.0,nan,14.05365843741603,nan,1.5390107847749082,0.9482225994927095,415.617860884963,0.0,stable,0.95,0.95,discounted,matched_iid,neural,standard,nan,0.0,0.39865944206969356,0.4200361895191084,uniform
gamma_design,0.95,1.0,1000,0.05,0.1,misspecified_affine,1,neural_oracle_clipped_fqe,6.3030838493734835,0.4467054951713282,75.7867739780497,2.3115581699601253,-2.537977552050618,-11.831586406340458,9.29360885428984,9.29360885428984,86.3711655365345,115.7866568872253,1.750495865101828,36.44663759026724,1.3272562548430384,5.452328904846781,0.4914021662591014,14.181824854087507,3.85853520790493,1.0000000000000002,1.2247448701990555,7.449892255391523,2.5894975827476197,3.2930725509600327,7.431329049560644,400.0000004673759,0.40000000046737594,0.01,0.4840552849229426,7.868219598875051,13.447602966685896,0.6775803744444978,0.7538062744921676,0.6581310500455941,198.53392130438388,0.0,stable,0.95,0.95,discounted,matched_iid,neural,oracle_clipped,0.0,0.0,0.1708134096065816,0.19816476216457488,oracle_exact_clipped
gamma_design,0.95,1.0,1000,0.05,0.1,misspecified_affine,1,neural_estimated_clipped_fqe,6.537057619159207,0.4752262526297296,75.74590443839703,2.285544859142237,-2.240629182085036,-11.831586406340458,9.590957224255423,9.590957224255423,91.98646047749727,123.49804262580098,1.8678409856003368,44.11636987997096,1.5203497550672842,5.681783154360778,0.5185911453671032,10.10568776363791,4.556063954272879,1.0,1.1498513304017572,3.990301633103176,2.848533390800057,3.188702979399393,3.9899755935827494,430.633903755268,0.430633903755268,0.01,0.0,4.7641670818634525,8.657793966803018,0.3181827830878305,1.0425658031742777,0.8545466801520165,162.92129576798274,0.0,stable,0.95,0.95,discounted,matched_iid,neural,linear_clipped,0.30021665783751245,-0.0008233082289502702,0.0929062440435392,0.14563749382069985,linear_reduced_moment
gamma_design,0.95,1.0,1000,0.05,0.1,misspecified_affine,1,neural_neural_weighted_clipped_fqe,5.724800341524513,0.4207734214839976,70.38591581924247,2.179362102711023,-2.9455302218580943,-11.831586406340458,8.886056184482364,8.886056184482364,78.96199451377726,107.41011185297867,1.6648947079104799,33.59608677571982,1.2553250217342418,4.93462240711852,0.46342017842705746,13.643618856342888,3.7610396301084075,1.0,1.2247448704864217,5.1385212254136245,2.9647687449376092,3.55342014916202,5.137856898736025,400.0000003547517,0.4000000003547517,0.01,0.18470035046339034,5.756642975807189,12.866063392964918,0.2434874011924645,1.0747610311173823,0.8937355890405478,167.92434761008548,0.0,stable,0.95,0.95,discounted,matched_iid,neural,neural_clipped,0.35037481248014785,-0.04756100572347688,0.09671458861743201,0.16066454103539532,neural_positive_rkhs_moment
gamma_design,0.95,1.0,1000,0.05,0.1,misspecified_affine,2,linear_standard_fqe,235.12828888720793,0.9439759633238488,203.7035304721908,1.1683227363143684,-2.6963545886728575,-11.831586406340458,9.1352318176676,9.1352318176676,83.4524603625265,89.37184891762115,0.6838660780638036,216.61577192102868,0.9695628391563826,235.17959313299193,1.0939489515906893,1.9845694439932988,0.8491083789841772,1.0,0.0,1.0,1.0,1.0,1.0,1000.0,1.0,0.0,0.0,nan,14.150788467251093,nan,1.5570211854971303,0.9388856134850054,461.1133515264582,0.0,stable,0.95,0.95,discounted,matched_iid,linear,standard,nan,0.0,0.4008363292953277,0.4378000778276328,uniform
gamma_design,0.95,1.0,1000,0.05,0.1,misspecified_affine,2,linear_oracle_raw_fqe,8.779271035766854,0.5319660068010458,128.5081444828636,3.797519070297248,-0.8330253281037394,-11.831586406340458,10.998561078236719,10.998561078236719,120.96834579170365,154.38631820909373,2.1376508816763717,45.007988924350855,1.4996495027593815,9.237502259675184,0.6714432988808753,25.433138806278926,3.924416145769113,1.0,3.9195356051891586,86.60086071788301,3.736909533188146,4.88037273780251,11.489207506036138,61.11438651499439,0.061114386514994394,0.0,0.0,nan,0.0,1.0,0.0,0.0,249.26734616589928,1.0,overlap_collapse,0.95,0.95,discounted,matched_iid,linear,oracle_raw,0.0,0.0,0.1123030715485432,0.18521804217527807,oracle_exact
gamma_design,0.95,1.0,1000,0.05,0.1,misspecified_affine,2,linear_oracle_clipped_fqe,22.005156113455836,0.1620203839814229,28.07472627860726,0.7404848361613512,-9.175366797013169,-11.831586406340458,2.656219609327289,2.656219609327289,7.055502612974816,15.033518509888827,0.39178974902792246,25.434863016914107,0.36108167908168937,22.075254249253845,0.19183663855846356,2.263812171746291,0.860582985629074,1.0,1.224744870341975,7.458782274124588,2.7542873604963742,3.4481999073141587,7.458047163179305,400.000000411363,0.40000000041136297,0.01,0.4865375973749906,7.270161047272426,13.540235996598145,0.7219611676671978,0.7646871317319212,0.6069458956257704,229.78058777744275,0.0,stable,0.95,0.95,discounted,matched_iid,linear,oracle_clipped,0.0,0.0,0.1759405668925767,0.2043641800213524,oracle_exact_clipped
gamma_design,0.95,1.0,1000,0.05,0.1,misspecified_affine,2,linear_estimated_clipped_fqe,3.1459708030532068,0.0853537910699255,13.930988238465787,0.7190158921486576,-9.864617821472727,-11.831586406340458,1.9669685848677307,1.9669685848677307,3.8689654138565635,16.334474261196487,0.4744480229234225,9.96371511432777,0.4307880471110994,3.1442819689568737,0.1213426206093716,2.8110578859893356,1.4761519550446174,1.0,1.107839936686184,4.208857137951211,2.7105703817906583,3.1523914779501503,4.208322851058032,448.97221442636584,0.4489722144263658,0.01,0.0,4.941604147244694,10.045659220815146,0.33356261946011656,1.0856603604439206,0.8368555151517131,220.35149090286217,0.0,stable,0.95,0.95,discounted,matched_iid,linear,linear_clipped,0.29419865645909565,-0.0012337699733818708,0.11208076080750162,0.15264083206034226,linear_reduced_moment
gamma_design,0.95,1.0,1000,0.05,0.1,misspecified_affine,2,linear_neural_weighted_clipped_fqe,10.961438146872498,0.22528275969671036,11.21104481311919,0.43176308735461233,-17.240355603028945,-11.831586406340458,-5.408769196688487,5.408769196688487,29.254784223046222,38.60781699994089,0.34103029913190597,5.818277124168184,0.16805298984641162,11.08344050436821,0.26360575599355074,2.546688629176777,1.0509188279704462,1.0,1.224744871159292,4.906684680900253,3.0096527911933486,3.9198980618731354,4.903358184473624,400.00000009104144,0.4000000000910414,0.01,0.2386207215022296,5.693623905181881,13.120296787383538,0.2322954080851063,1.1177762194747474,0.8942576750644932,199.58331583862025,0.0,stable,0.95,0.95,discounted,matched_iid,linear,neural_clipped,0.3128828804775764,-0.05989232335902739,0.10016009123519472,0.15881085148368687,neural_positive_rkhs_moment
gamma_design,0.95,1.0,1000,0.05,0.1,misspecified_affine,3,linear_standard_fqe,131.62883764668607,0.790351361880612,110.57377376605255,0.8261588442060968,-9.849925814588973,-11.831586406340458,1.981660591751485,1.981660591751485,3.9269787009008454,13.836910167060006,0.349224274337809,110.41877415474848,0.8338594961913142,130.88749219970444,0.9051448063133436,1.898219857902438,0.96850355727221,1.0,0.0,1.0,1.0,1.0,1.0,1000.0,1.0,0.0,0.0,nan,13.850012760195405,nan,1.554122630386939,0.917841079132125,410.7557608964712,0.0,stable,0.95,0.95,discounted,matched_iid,linear,standard,nan,0.0,0.35955401068463866,0.3946526672822721,uniform
gamma_design,0.95,1.0,1000,0.05,0.1,misspecified_affine,3,linear_oracle_raw_fqe,9.58045798950623,0.5802194553061876,119.04049458254144,3.496980253088048,-0.46063824444332324,-11.831586406340458,11.370948161897134,11.370948161897134,129.2984621005518,165.6457002894098,2.2420941472796847,50.530106605289056,1.7069216401107483,8.745969922865637,0.6191090678591922,22.872210608192017,4.054359018951546,1.0,3.3423842983866923,43.641913429012085,3.3595213958697387,5.336755473767664,12.7944957704079,82.15892086787505,0.08215892086787506,0.0,0.0,nan,0.0,1.0,0.0,0.0,228.10536583692132,1.0,overlap_collapse,0.95,0.95,discounted,matched_iid,linear,oracle_raw,0.0,0.0,0.12511953639637324,0.18423957783571046,oracle_exact
gamma_design,0.95,1.0,1000,0.05,0.1,misspecified_affine,3,linear_oracle_clipped_fqe,15.340023853455666,0.12590397334822828,21.424794505147048,0.5742604495862466,-11.297619575230852,-11.831586406340458,0.5339668311096055,0.5339668311096055,0.285120576725234,9.35496497153468,0.2994118274231101,17.608377947187222,0.3595347121773157,15.039398122025077,0.13901466282976285,2.1978693890927996,1.0351484934485897,1.0,1.2247448705861783,7.828574458296218,2.4304894540937765,3.561735518153309,7.827941363724676,400.0000003156552,0.4000000003156552,0.01,0.5083875650539994,7.657671152485233,13.278792715234216,0.8752314288694846,0.7960564739312572,0.45235831050282893,217.09128656922098,0.0,stable,0.95,0.95,discounted,matched_iid,linear,oracle_clipped,0.0,0.0,0.1647773221522771,0.19477236535305625,oracle_exact_clipped
gamma_design,0.95,1.0,1000,0.05,0.1,misspecified_affine,3,linear_estimated_clipped_fqe,9.510454203659643,0.19414488301321262,10.96959202018345,0.2461713575502091,-17.14713571693646,-11.831586406340458,-5.315549310596003,5.315549310596003,28.255064473377644,35.56913640543371,0.2943250286998468,6.093864075122697,0.17738579755221023,9.357677872637979,0.21920242937810278,2.287695612914017,0.9073369951211503,1.0,1.143987185134209,4.507007035339118,2.7605177677881834,3.304321547968081,4.504849606478469,433.1429404915684,0.43314294049156843,0.01,0.0,5.205935832774204,9.452572315942307,0.40114611225309016,1.1026063397015209,0.7733256885178188,198.80367141625632,0.0,stable,0.95,0.95,discounted,matched_iid,linear,linear_clipped,0.2763641566996023,-0.00014822846471063134,0.09436244619014016,0.1438330090502355,linear_reduced_moment
gamma_design,0.95,1.0,1000,0.05,0.1,misspecified_affine,3,linear_neural_weighted_clipped_fqe,26.81547136194144,0.503414506271821,17.76394549830169,0.263738553969454,-21.438099400074915,-11.831586406340458,-9.606512993734457,9.606512993734457,92.28509189878896,102.95559919451487,0.7177239398257025,17.765214106162492,0.33654995247442476,26.619363616145396,0.5693149956819862,2.7196436295226256,1.3268340031880062,1.0,1.2247448707726094,5.550336445572821,2.8933855876664016,3.7446926552851316,5.549478746690115,400.00000024258946,0.40000000024258947,0.01,0.2519019458908587,6.525941286087035,12.872432069946232,0.2999340182525843,1.1515447720642116,0.8393299637956717,194.945564034702,0.0,stable,0.95,0.95,discounted,matched_iid,linear,neural_clipped,0.35386944766696765,-0.06891409457619035,0.09866812231771312,0.15512582773862674,neural_positive_rkhs_moment
gamma_design,0.95,1.0,1000,0.05,0.1,misspecified_affine,4,linear_standard_fqe,186.67951346044777,1.1634061069319481,145.04625327284842,1.1556683961705705,-12.059079865563803,-11.831586406340458,-0.22749345922334463,0.22749345922334463,0.05175327398940357,17.581329229355386,0.38761445238590847,152.31946660015535,1.2765020468290809,189.2741951088591,1.332443317125615,1.8281104580507164,1.493882413300716,1.0,0.0,1.0,1.0,1.0,1.0,1000.0,1.0,0.0,0.0,nan,13.807941581949553,nan,1.563867491617506,0.913109675096401,426.36412164888054,0.0,stable,0.95,0.95,discounted,matched_iid,linear,standard,nan,0.0,0.37538550768635864,0.406870064204619,uniform
gamma_design,0.95,1.0,1000,0.05,0.1,misspecified_affine,4,linear_oracle_raw_fqe,5.474008352189275,0.3683678036421998,96.95947532762398,2.8276081001207523,-3.260143021382814,-11.831586406340458,8.571443384957643,8.571443384957643,73.46964170153414,99.66860790671916,1.5666183460079386,33.4211529678438,1.1901362645276041,4.479687840540215,0.36696609679952,21.95519202710875,3.3072145507801274,1.0,3.2417219499954926,41.468971137975295,3.6393419636251805,5.33602523220376,14.20951157982344,86.89032490359905,0.08689032490359905,0.0,0.0,nan,0.0,1.0,0.0,0.0,227.9022096354204,1.0,overlap_collapse,0.95,0.95,discounted,matched_iid,linear,oracle_raw,0.0,0.0,0.1444881991765759,0.1816230387034342,oracle_exact
gamma_design,0.95,1.0,1000,0.05,0.1,misspecified_affine,4,linear_oracle_clipped_fqe,35.87353255696805,0.3497361657002166,20.316859154878884,0.2932448096807168,-20.209822006896704,-11.831586406340458,-8.378235600556247,8.378235600556247,70.1948317784281,88.26042388163059,0.7961954555112168,22.83044868303541,0.37349255000899245,36.080525071965994,0.39705544710024043,2.047679306698848,1.5370266604197127,1.0,1.2247448709043334,8.249415167268339,2.5025357038296034,3.425002853004956,8.236440464110391,400.00000019096433,0.4000000001909643,0.01,0.5238673994783313,7.812497358791787,13.262324346163622,0.9217750399503087,0.8241734287162855,0.40745887494991023,222.16619191403225,0.0,stable,0.95,0.95,discounted,matched_iid,linear,oracle_clipped,0.0,0.0,0.1781582983725682,0.21259061857424857,oracle_exact_clipped
gamma_design,0.95,1.0,1000,0.05,0.1,misspecified_affine,4,linear_estimated_clipped_fqe,145.29047956707785,3.691837980665503,134.5139208522509,2.445638688117838,-42.94971985545143,-11.831586406340458,-31.11813344911097,31.11813344911097,968.338229356679,1063.220333426682,7.21193375600269,158.89663672813373,3.8181050058765607,139.16424152807204,4.091694647227805,3.686741106585306,8.312804727518222,1.0,1.2247448713375504,4.989787610752301,2.9349154383676117,3.558312893400786,4.989200689462789,400.00000002117866,0.40000000002117864,0.01,0.0183874792419374,6.086705138481127,11.733834843498792,0.3533919651175368,1.1105557250046558,0.7996194628606416,180.7022916055379,0.0,stable,0.95,0.95,discounted,matched_iid,linear,linear_clipped,0.43006008926575234,-0.005404316502061524,0.1035519124973082,0.1562778226010563,linear_reduced_moment
gamma_design,0.95,1.0,1000,0.05,0.1,misspecified_affine,4,linear_neural_weighted_clipped_fqe,70.67468720460792,1.6349997309590996,44.41396047802289,0.7561534753249542,-31.73658882356934,-11.831586406340458,-19.90500241722888,19.90500241722888,396.2091212298875,433.08773872141853,2.7617341325695084,63.02131597366739,1.4686404471215067,68.21458675037644,1.851650953983499,2.446930748798212,3.2648491082911915,1.0,1.2247448709130304,5.1749955181979335,3.0697693790479144,3.826412172580539,5.174878088754752,400.0000001875558,0.4000000001875558,0.01,0.2044119014404714,6.028523778915405,12.690237763852775,0.3353974749215531,1.1177775074235803,0.8120349097018609,180.18285606005043,0.0,stable,0.95,0.95,discounted,matched_iid,linear,neural_clipped,0.39807413984732176,-0.028540975546582747,0.10517363119050903,0.16485273857757848,neural_positive_rkhs_moment
gamma_design,0.95,1.0,4000,0.05,0.1,misspecified_affine,0,linear_standard_fqe,181.97598216625747,1.0246364777556831,148.85463733409904,1.05101314070265,-8.484025996674404,-11.831586406340458,3.3475604096660536,3.3475604096660536,11.206160696363556,20.750969451057692,0.4262064899021928,155.7918712067959,1.0978738934008638,183.30168297356607,1.1702843479670597,1.842957385247943,1.0596233813933602,1.0,0.0,1.0,1.0,1.0,1.0,4000.0,1.0,0.0,0.0,nan,13.849200575562515,nan,1.544780070683707,0.9100785349566942,447.4852893042765,0.0,stable,0.95,0.95,discounted,matched_iid,linear,standard,nan,0.0,0.39475962104170853,0.4198416643733426,uniform
gamma_design,0.95,1.0,4000,0.05,0.1,misspecified_affine,0,linear_oracle_raw_fqe,9.264469920652767,0.5801910706295864,116.17498922270792,3.4351203836632687,-0.954338224392161,-11.831586406340458,10.877248181948296,10.877248181948296,118.31452801169752,149.59159838863675,2.0230519616619453,45.45843127518799,1.5028124349440668,9.538669779519502,0.6477865646014641,22.81329037268582,4.140436267745322,1.0,3.181322877784363,94.26888979672788,3.766747236067468,5.349316349200529,11.81275551402046,359.6858601732231,0.08992146504330577,0.0,0.0,nan,0.0,0.9999999999999999,0.0,0.0,218.40991377749035,1.0,overlap_collapse,0.95,0.95,discounted,matched_iid,linear,oracle_raw,0.0,0.0,0.13119971563615934,0.18872477738833596,oracle_exact
gamma_design,0.95,1.0,4000,0.05,0.1,misspecified_affine,0,linear_oracle_clipped_fqe,23.283317178642697,0.17649676612918175,22.80108406254655,0.4829469628678059,-12.251433491136725,-11.831586406340458,-0.41984708479626676,0.41984708479626676,0.1762715746119236,7.696314613188241,0.18349816429356317,21.199579748123554,0.25731368404086047,23.343048314792295,0.19823122293406956,2.0556557646196274,0.9301625798619789,0.9999999999999998,1.2247448706001691,7.292111017832598,2.6569515220361306,3.568640896330329,7.290040927660793,1600.0000012406874,0.40000000031017185,0.01,0.4869967299979181,6.777469024237093,13.244764649923665,0.8450964758328047,0.7572013785029282,0.45278168336896285,221.72150257735575,0.0,stable,0.95,0.95,discounted,matched_iid,linear,oracle_clipped,0.0,0.0,0.17136300009545904,0.2019225049049554,oracle_exact_clipped
gamma_design,0.95,1.0,4000,0.05,0.1,misspecified_affine,0,linear_estimated_clipped_fqe,10.08587366151827,0.18052870499494192,10.984040863538128,0.22422295008815193,-17.4881993348842,-11.831586406340458,-5.656612928543742,5.656612928543742,31.997269823368214,38.74456621510563,0.3027579612863446,6.467895444222486,0.14454484923891128,9.640071325954432,0.19987469656324794,2.438303054138385,0.891156444508977,1.0000000000000002,1.081085035048667,3.923955146084985,2.623969212371156,3.087221845333972,3.923686459491331,1844.3847806511,0.461096195162775,0.01,0.0,4.756760634406136,9.115241237311729,0.41786698076221274,1.0819834112072335,0.7567103986179411,208.52668028503584,0.0,stable,0.95,0.95,discounted,matched_iid,linear,linear_clipped,0.2937153886834138,-0.000305407652613332,0.11141774035533124,0.15044806339481143,linear_reduced_moment
gamma_design,0.95,1.0,4000,0.05,0.1,misspecified_affine,0,linear_neural_weighted_clipped_fqe,33.05236492739523,0.6577650600595353,21.344272185795823,0.31271997340912927,-23.347031380904667,-11.831586406340458,-11.51544497456421,11.51544497456421,132.6054729622161,145.7109043341898,0.9621575999073165,23.176557248191262,0.4946242123130136,31.78902744945693,0.7388448758853035,2.4294597561266293,1.5711022994726014,1.0,1.2247448710288535,5.6189521967250835,2.906743751486811,3.753247349759197,5.618861468828937,1600.0000005686506,0.40000000014216264,0.01,0.24110777452588084,6.690682463645932,12.832221325615468,0.33557826154659437,1.0948442716866758,0.8098131232244752,189.14435653992217,0.0,stable,0.95,0.95,discounted,matched_iid,linear,neural_clipped,0.3544061847506106,-0.047036777565211185,0.10180587747360072,0.15797355261133061,neural_positive_rkhs_moment
gamma_design,0.95,1.0,4000,0.05,0.1,misspecified_affine,0,neural_standard_fqe,1.6826580479069986,0.05203149446426928,29.812768117666003,1.0260079590012579,-10.567376867205748,-11.831586406340458,1.2642095391347095,1.2642095391347095,1.5982257588391944,5.633916191569595,0.1660465270992935,1.1929688912897647,0.08393175914101335,1.5612074878359994,0.05041947443405777,24.549225707114417,0.3025766275722703,1.0,0.0,1.0,1.0,1.0,1.0,4000.0,1.0,0.0,0.0,nan,13.849200575562515,nan,1.544780070683707,0.9100785349566942,447.4852893042765,0.0,stable,0.95,0.95,discounted,matched_iid,neural,standard,nan,0.0,0.39475962104170853,0.4198416643733426,uniform
gamma_design,0.95,1.0,4000,0.05,0.1,misspecified_affine,0,neural_oracle_clipped_fqe,1.4604965693299328,0.05777296849202492,32.09056948729882,1.1206858006505207,-10.032569291429365,-11.831586406340458,1.7990171149110932,1.7990171149110932,3.2364625797430335,7.356702534023422,0.21044298228069114,2.5457183949472335,0.15178033198991508,1.3504412560901606,0.05266908667521673,19.017140744551376,0.2348273206112751,0.9999999999999998,1.2247448706001691,7.292111017832598,2.6569515220361306,3.568640896330329,7.290040927660793,1600.0000012406874,0.40000000031017185,0.01,0.4869967299979181,6.777469024237093,13.244764649923665,0.8450964758328047,0.7572013785029282,0.45278168336896285,221.72150257735575,0.0,stable,0.95,0.95,discounted,matched_iid,neural,oracle_clipped,0.0,0.0,0.17136300009545904,0.2019225049049554,oracle_exact_clipped
gamma_design,0.95,1.0,4000,0.05,0.1,misspecified_affine,0,neural_estimated_clipped_fqe,2.24534740278657,0.12075575650849303,35.54288209439021,1.2288383059191106,-8.138236487595215,-11.831586406340458,3.693349918745243,3.693349918745243,13.640833622295492,21.37349117176818,0.4615872303208277,9.91640833244643,0.4147125487819267,2.149927671284793,0.11528120938653014,9.52178087488701,0.572604694830087,1.0000000000000002,1.081085035048667,3.923955146084985,2.623969212371156,3.087221845333972,3.923686459491331,1844.3847806511,0.461096195162775,0.01,0.0,4.756760634406136,9.115241237311729,0.41786698076221274,1.0819834112072335,0.7567103986179411,208.52668028503584,0.0,stable,0.95,0.95,discounted,matched_iid,neural,linear_clipped,0.2937153886834138,-0.000305407652613332,0.11141774035533124,0.15044806339481143,linear_reduced_moment
gamma_design,0.95,1.0,4000,0.05,0.1,misspecified_affine,0,neural_neural_weighted_clipped_fqe,1.1057063024161102,0.049647705005116664,31.49418518900834,1.123832997695776,-10.455700841389909,-11.831586406340458,1.3758855649505488,1.3758855649505488,1.8930610878392908,5.832589741466149,0.1881506575678451,2.410194669404657,0.14490061099619111,1.013907430176944,0.04293753786836457,18.639776707742428,0.23245531088533436,1.0,1.2247448710288535,5.6189521967250835,2.906743751486811,3.753247349759197,5.618861468828937,1600.0000005686506,0.40000000014216264,0.01,0.24110777452588084,6.690682463645932,12.832221325615468,0.33557826154659437,1.0948442716866758,0.8098131232244752,189.14435653992217,0.0,stable,0.95,0.95,discounted,matched_iid,neural,neural_clipped,0.3544061847506106,-0.047036777565211185,0.10180587747360072,0.15797355261133061,neural_positive_rkhs_moment
gamma_design,0.95,1.0,4000,0.05,0.1,misspecified_affine,1,linear_standard_fqe,212.2940161233498,1.033723359614518,183.65539389418493,1.061663216280045,-5.357494672434424,-11.831586406340458,6.474091733906034,6.474091733906034,41.91386377903044,49.63148416323147,0.6060088789260832,192.03159093186954,1.0610558669272814,212.8102128764722,1.1795678635472646,1.7311922406474618,0.9548657885506159,1.0,0.0,1.0,1.0,1.0,1.0,4000.0,1.0,0.0,0.0,nan,13.9182611759277,nan,1.5610599140813661,0.9243750627548635,452.1515617251758,0.0,stable,0.95,0.95,discounted,matched_iid,linear,standard,nan,0.0,0.40822053466836156,0.4256974629912989,uniform
gamma_design,0.95,1.0,4000,0.05,0.1,misspecified_affine,1,linear_oracle_raw_fqe,9.22749663036024,0.5695668027540709,112.67422734019527,3.2781604132091604,-0.8198266539869423,-11.831586406340458,11.011759752353516,11.011759752353516,121.25885284355277,155.34188751269787,2.1370471757146885,48.71251017721803,1.6473496109498846,8.056659678330334,0.6242737142428018,21.8470496182595,3.959685690958123,1.0,3.49616239163106,87.68187421952739,3.814620801131571,5.270600216941001,11.370337765310492,302.4997489805459,0.07562493724513648,0.0,0.0,nan,0.0,1.0,0.0,0.0,201.0435264645867,1.0,overlap_collapse,0.95,0.95,discounted,matched_iid,linear,oracle_raw,0.0,0.0,0.12489153386135793,0.1874473620551541,oracle_exact
gamma_design,0.95,1.0,4000,0.05,0.1,misspecified_affine,1,linear_oracle_clipped_fqe,24.501545266698514,0.18130702283620656,22.04287069642008,0.3988939939074536,-13.139193081032733,-11.831586406340458,-1.3076066746922752,1.3076066746922752,1.7098352156997896,10.03296961872394,0.1889481338443938,21.137768187410483,0.2712027371657182,24.341170703892363,0.2087641727630894,1.9335383595959006,0.9036434028850627,1.0,1.2247448713312372,7.332229353780311,2.7848519533929275,3.6611272191645483,7.331892439238324,1600.000000094612,0.400000000023653,0.01,0.4890380016062409,6.391397024937236,13.314228266778132,0.8053779511204601,0.7704174545559532,0.5162191916542697,226.93758397557005,0.0,stable,0.95,0.95,discounted,matched_iid,linear,oracle_clipped,0.0,0.0,0.1811725557501527,0.20237321783003032,oracle_exact_clipped
gamma_design,0.95,1.0,4000,0.05,0.1,misspecified_affine,1,linear_estimated_clipped_fqe,11.692168896132651,0.23737244532308294,12.65145817749045,0.19580705583885452,-18.30146423576184,-11.831586406340458,-6.4698778294213835,6.4698778294213835,41.85931912763835,49.57518548939804,0.3762605828103022,7.863235678121018,0.19481309903826202,11.228928456111044,0.26278921472521827,2.6690263711099833,0.9273121896095518,1.0,1.2247448710522244,5.030717721227411,2.851409280451097,3.559585129888013,5.030157498821227,1600.0000005320135,0.40000000013300335,0.01,0.018430316308513287,6.209237051923874,11.87520133620883,0.38431346055492427,1.0686678682398227,0.7889165099044794,197.81934087670976,0.0,stable,0.95,0.95,discounted,matched_iid,linear,linear_clipped,0.2916341187536786,-0.001170781194224313,0.10755822589729272,0.14384588506859852,linear_reduced_moment
gamma_design,0.95,1.0,4000,0.05,0.1,misspecified_affine,1,linear_neural_weighted_clipped_fqe,38.27905171906883,0.8522125945626813,22.521536659943802,0.364734869832412,-25.470643631028164,-11.831586406340458,-13.639057224687706,13.639057224687706,186.02388197830592,204.14693323659083,1.3559631495683326,30.497334313132544,0.7437386361151845,36.534998170001934,0.9351529530497155,2.2171974774770886,1.8467960075053533,1.0,1.224744870533118,5.382067230737588,2.971502423305856,3.8505294655454043,5.382032612566466,1600.000001345802,0.4000000003364505,0.01,0.25516009819693863,6.393524384498595,12.927438061568512,0.30422497427674594,1.1147500369490357,0.8407848481505771,203.2256773129555,0.0,stable,0.95,0.95,discounted,matched_iid,linear,neural_clipped,0.3446606409644731,-0.0628078897224903,0.1087437391854148,0.1582992683674003,neural_positive_rkhs_moment
gamma_design,0.95,1.0,4000,0.05,0.1,misspecified_affine,1,neural_standard_fqe,2.2442028456057725,0.10939930694335982,26.134522597281553,0.938153930010856,-7.977503595468468,-11.831586406340458,3.85408281087199,3.85408281087199,14.853954313058939,23.158644429507817,0.45825484990683457,4.474714847001712,0.2710322027240401,2.0511838841336134,0.12723752523960752,14.078808825354862,0.3874466271595986,1.0,0.0,1.0,1.0,1.0,1.0,4000.0,1.0,0.0,0.0,nan,13.9182611759277,nan,1.5610599140813661,0.9243750627548635,452.1515617251758,0.0,stable,0.95,0.95,discounted,matched_iid,neural,standard,nan,0.0,0.40822053466836156,0.4256974629912989,uniform
gamma_design,0.95,1.0,4000,0.05,0.1,misspecified_affine,1,neural_oracle_clipped_fqe,2.1697815929922144,0.12312217056232398,28.260443739832358,1.0234116481391091,-7.642677657196173,-11.831586406340458,4.188908749144285,4.188908749144285,17.546956508657537,26.60439693294357,0.5225319214852885,6.266298036728698,0.34092648387216795,1.9595123004857766,0.14169229783358156,11.679620598417745,0.5234150871247825,1.0,1.2247448713312372,7.332229353780311,2.7848519533929275,3.6611272191645483,7.331892439238324,1600.000000094612,0.400000000023653,0.01,0.4890380016062409,6.391397024937236,13.314228266778132,0.8053779511204601,0.7704174545559532,0.5162191916542697,226.93758397557005,0.0,stable,0.95,0.95,discounted,matched_iid,neural,oracle_clipped,0.0,0.0,0.1811725557501527,0.20237321783003032,oracle_exact_clipped
gamma_design,0.95,1.0,4000,0.05,0.1,misspecified_affine,1,neural_estimated_clipped_fqe,3.5115371128332216,0.21398431576551533,29.35219288085339,0.9880945237360066,-5.601229088338332,-11.831586406340458,6.230357318002126,6.230357318002126,38.81735230998264,52.64656487251881,0.8704958837488989,17.926159127367576,0.7054897281155569,3.1396873501530402,0.2359614634680541,3.2860888438717666,1.3173636358880008,1.0,1.2247448710522244,5.030717721227411,2.851409280451097,3.559585129888013,5.030157498821227,1600.0000005320135,0.40000000013300335,0.01,0.018430316308513287,6.209237051923874,11.87520133620883,0.38431346055492427,1.0686678682398227,0.7889165099044794,197.81934087670976,0.0,stable,0.95,0.95,discounted,matched_iid,neural,linear_clipped,0.2916341187536786,-0.001170781194224313,0.10755822589729272,0.14384588506859852,linear_reduced_moment
gamma_design,0.95,1.0,4000,0.05,0.1,misspecified_affine,1,neural_neural_weighted_clipped_fqe,1.9343025013102368,0.1255376320715856,28.85868773197911,1.050694311278104,-7.6217978819412044,-11.831586406340458,4.209788524399253,4.209788524399253,17.722319420163643,26.990007037146604,0.5400115662152825,7.387584360922929,0.37850988216593245,1.7326947552506735,0.14337735792053266,10.153131047766712,0.6387209881905574,1.0,1.224744870533118,5.382067230737588,2.971502423305856,3.8505294655454043,5.382032612566466,1600.000001345802,0.4000000003364505,0.01,0.25516009819693863,6.393524384498595,12.927438061568512,0.30422497427674594,1.1147500369490357,0.8407848481505771,203.2256773129555,0.0,stable,0.95,0.95,discounted,matched_iid,neural,neural_clipped,0.3446606409644731,-0.0628078897224903,0.1087437391854148,0.1582992683674003,neural_positive_rkhs_moment
gamma_design,0.95,1.0,4000,0.05,0.1,misspecified_affine,2,linear_standard_fqe,198.24983708137523,1.0761955231930418,162.9531143540837,1.1228212595957587,-7.911550838045141,-11.831586406340458,3.920035568295317,3.920035568295317,15.36667885670039,25.321589915803667,0.4662461433637798,170.03625770120814,1.1399579151492498,198.35899053026014,1.2484274319517283,1.9745559763000868,0.9878901647649165,1.0,0.0,1.0,1.0,1.0,1.0,4000.0,1.0,0.0,0.0,nan,14.10455850821148,nan,1.5740186818430169,0.9799925372455627,451.2828964904188,0.0,stable,0.95,0.95,discounted,matched_iid,linear,standard,nan,0.0,0.39735516244746955,0.42582868021114045,uniform
gamma_design,0.95,1.0,4000,0.05,0.1,misspecified_affine,2,linear_oracle_raw_fqe,8.791364115215687,0.5276005081662869,124.32020495889321,3.70848487014231,-0.8794010513600024,-11.831586406340458,10.952185354980456,10.952185354980456,119.95036404984837,153.0319413948586,2.1181890292249514,43.71021670369148,1.4691510375751957,9.250813248175836,0.6661413100084045,24.573437046352115,3.801444656754694,1.0,6.998667735569309,381.97527511313086,3.314882258928344,4.696501963821699,10.876183075867615,80.02985101774793,0.020007462754436982,0.0,0.0,nan,0.0,1.0,0.0,0.0,199.605095677188,1.0,overlap_collapse,0.95,0.95,discounted,matched_iid,linear,oracle_raw,0.0,0.0,0.11697526664172171,0.1765576581402556,oracle_exact
gamma_design,0.95,1.0,4000,0.05,0.1,misspecified_affine,2,linear_oracle_clipped_fqe,24.309218564073113,0.17851766561390922,20.14845985734524,0.4721152107413457,-14.70444382007374,-11.831586406340458,-2.872857413733282,2.872857413733282,8.253309719642282,17.00263235792738,0.1992625012196426,18.08281480964012,0.23904919223519383,24.499056213471093,0.20322832608608796,2.2473724479721175,0.8618963288821767,1.0,1.2247448705433204,7.404333276698807,2.609166576443343,3.4853513707950596,7.404004071811095,1600.0000013298081,0.40000000033245203,0.01,0.5069604338612409,7.041887370193341,13.529276848630998,0.4422227056698706,0.8095354114042828,0.8583252208674569,217.79960071246197,0.0,stable,0.95,0.95,discounted,matched_iid,linear,oracle_clipped,0.0,0.0,0.18306234859843964,0.210543927179463,oracle_exact_clipped
gamma_design,0.95,1.0,4000,0.05,0.1,misspecified_affine,2,linear_estimated_clipped_fqe,3.5788678590700354,0.06273871045364993,10.502375264424327,0.49432068793055867,-13.058198000873144,-11.831586406340458,-1.2266115945326863,1.2266115945326863,1.5045760038420193,10.016615606176103,0.19676353831717128,3.951996436097137,0.21022689598638458,3.574866578311509,0.08081356757456064,2.6605436560116207,0.9142252945725795,1.0,1.2139469577183724,4.953753179790045,2.8367833883465985,3.5522873784817155,4.953677716350012,1617.0323857141968,0.4042580964285492,0.01,0.0,5.926680997733283,9.378502859592185,0.205437424720974,1.121623761302703,0.939634880078069,204.0798865460779,0.0,stable,0.95,0.95,discounted,matched_iid,linear,linear_clipped,0.2593860892999708,-9.219410717242749e-05,0.1065841035986794,0.14127675696368028,linear_reduced_moment
gamma_design,0.95,1.0,4000,0.05,0.1,misspecified_affine,2,linear_neural_weighted_clipped_fqe,29.030662852223276,0.6281613721198135,17.71345494187923,0.3420078662059278,-23.2319997256188,-11.831586406340458,-11.400413319278341,11.400413319278341,129.969423850379,143.7566616691665,1.0003463980909995,19.820987873871964,0.4762702018181079,29.507850224995092,0.7373785312431429,2.642055391722339,1.4672905452196303,1.0,1.224744870472993,5.23723739606822,2.995965686276087,3.844930402194507,5.236722212749251,1600.0000014400584,0.4000000003600146,0.01,0.23749229656532406,6.153730974197373,13.073106972211903,0.16235675610933942,1.1463278110344843,0.9543167875955714,197.01931646067908,0.0,stable,0.95,0.95,discounted,matched_iid,linear,neural_clipped,0.3372474430054786,-0.052119770218316264,0.10188469944162762,0.16047450302313895,neural_positive_rkhs_moment
gamma_design,0.95,1.0,4000,0.05,0.1,misspecified_affine,3,linear_standard_fqe,206.38599709478123,1.027318506013764,173.49081638589956,1.0670561539133172,-6.0352624102296915,-11.831586406340458,5.796323996110766,5.796323996110766,33.597371867889485,42.02391746695513,0.5721152450133739,180.70735084361155,1.0594004350834145,205.6021503261117,1.17350693611498,1.8361048178075894,0.9436796542449603,1.0,0.0,1.0,1.0,1.0,1.0,4000.0,1.0,0.0,0.0,nan,13.95193995455124,nan,1.552895596241899,0.9510899778356126,472.84192587888305,0.0,stable,0.95,0.95,discounted,matched_iid,linear,standard,nan,0.0,0.41108823389891497,0.43093651662256877,uniform
gamma_design,0.95,1.0,4000,0.05,0.1,misspecified_affine,3,linear_oracle_raw_fqe,8.674826237355072,0.5459461834675468,115.55285775843028,3.4148981576753723,-0.9365039062452214,-11.831586406340458,10.895082500095237,10.895082500095237,118.70282268388148,153.81065541437837,2.134268543536023,47.961299896817074,1.6422212184471823,7.893727655232533,0.5808873365156708,22.772671891339332,3.960433783773972,1.0000000000000002,4.409728716945311,144.5526319433332,3.590289704223009,4.9960751949145905,10.457836607187577,195.64008865754997,0.048910022164387494,0.0,0.0,nan,0.0,0.9999999999999998,0.0,0.0,231.34989348964726,1.0,overlap_collapse,0.95,0.95,discounted,matched_iid,linear,oracle_raw,0.0,0.0,0.11767649666032644,0.1819801811761566,oracle_exact
gamma_design,0.95,1.0,4000,0.05,0.1,misspecified_affine,3,linear_oracle_clipped_fqe,22.83908755502702,0.17435476774988698,23.895905147553666,0.4952907124905153,-11.217320671769782,-11.831586406340458,0.6142657345706759,0.6142657345706759,0.37732239266765205,8.26137025476591,0.2712523176079235,22.630415319564744,0.3412546824482763,22.486347634359394,0.19629004975996311,2.0653038329598292,0.8785145945624868,1.0,1.2247448703659545,7.075387183893332,2.7469883989013053,3.6330107728063434,7.070099905093011,1600.00000160786,0.400000000401965,0.01,0.4841417357325554,6.251213635125906,13.341806033135695,0.6448646232192118,0.7617325069907904,0.6837693070225304,235.54070517536428,0.0,stable,0.95,0.95,discounted,matched_iid,linear,oracle_clipped,0.0,0.0,0.17914722111678666,0.20300103513898765,oracle_exact_clipped
gamma_design,0.95,1.0,4000,0.05,0.1,misspecified_affine,3,linear_estimated_clipped_fqe,15.831784459719296,0.33784269258999505,17.80581514877531,0.2393996192187528,-20.09221089118678,-11.831586406340458,-8.260624484846323,8.260624484846323,68.23791687964258,76.10236507221138,0.5183431300018466,11.658382222383283,0.25558479622181424,15.523711139271871,0.3799343680550454,2.8828678657607085,1.0205641709382507,1.0,1.1971135216973943,4.620248739979347,2.8392807050674285,3.467376749634575,4.6201807349673345,1644.0062436818246,0.41100156092045614,0.01,0.0,5.420701400994877,8.773635577836371,0.2917519428031809,1.089562879708213,0.8705251621102176,189.9920326731224,0.0,stable,0.95,0.95,discounted,matched_iid,linear,linear_clipped,0.28871771150586556,-0.0004892475501004911,0.09444587981310393,0.146572581487682,linear_reduced_moment
gamma_design,0.95,1.0,4000,0.05,0.1,misspecified_affine,3,linear_neural_weighted_clipped_fqe,26.435038487055113,0.5561459232587233,17.064373753316936,0.26339344792626523,-22.240621777472935,-11.831586406340458,-10.409035371132477,10.409035371132477,108.34801735748702,120.50279380825275,0.8467263545342303,17.194374686756447,0.38800034840626696,26.08792960729485,0.6268483557165342,2.373889065048181,1.4176682380068182,1.0,1.2247448706574722,5.435414621747272,2.923463676522548,3.799773704030702,5.434812935042727,1600.0000011508555,0.4000000002877139,0.01,0.23837498784996572,6.554412589073163,12.930455134692968,0.21866924760323975,1.129589867197682,0.9089307848475634,200.3718082569077,0.0,stable,0.95,0.95,discounted,matched_iid,linear,neural_clipped,0.3366587657413248,-0.02884510371132243,0.10136155679336674,0.15763945196575557,neural_positive_rkhs_moment
gamma_design,0.95,1.0,4000,0.05,0.1,misspecified_affine,4,linear_standard_fqe,199.73284244099648,1.1087972420962557,161.16975328746537,1.1062536269593413,-8.278167138068667,-11.831586406340458,3.5534192682717904,3.5534192682717904,12.626788496125227,22.499026303799653,0.4787491451027773,170.44052098106053,1.170472491657601,202.0557220156478,1.2683257363733629,1.8105988421374783,1.0576306449946187,1.0,0.0,1.0,1.0,1.0,1.0,4000.0,1.0,0.0,0.0,nan,14.120092756323924,nan,1.5804566715858321,0.9852333093139508,439.74519714478527,0.0,stable,0.95,0.95,discounted,matched_iid,linear,standard,nan,0.0,0.39154597648395284,0.422386838207313,uniform
gamma_design,0.95,1.0,4000,0.05,0.1,misspecified_affine,4,linear_oracle_raw_fqe,8.945386395407382,0.5239165423183517,115.91643085977151,3.260469849768136,-0.9468294812719138,-11.831586406340458,10.884756925068544,10.884756925068544,118.47793331782762,150.5052442937273,2.0687292286821655,45.95426551976598,1.5172333779381963,7.547060000505228,0.5228780420742173,22.469739640936474,3.981658844454243,1.0000000000000002,8.168229927009174,309.04312557421923,3.085824631310863,4.391675920502429,9.814264850683553,59.06676274419769,0.014766690686049423,0.0,0.0,nan,0.0,0.9999999999999998,0.0,0.0,197.7495844159645,1.0,overlap_collapse,0.95,0.95,discounted,matched_iid,linear,oracle_raw,0.0,0.0,0.12156347223465173,0.1687901765953664,oracle_exact
gamma_design,0.95,1.0,4000,0.05,0.1,misspecified_affine,4,linear_oracle_clipped_fqe,24.698574308249114,0.18358818837379623,21.072382229735105,0.38908417700477416,-13.525952461409732,-11.831586406340458,-1.694366055069274,1.694366055069274,2.8708763285710144,11.221954809837907,0.18130440267268033,20.26462500148713,0.251519043718426,25.070013197361416,0.2065163894283344,2.0402732598716313,0.8804143787729041,1.0,1.224744871162753,7.408702740284877,2.6766299082416394,3.5950275170188144,7.408055455187119,1600.0000003587402,0.40000000008968506,0.01,0.5063874112907797,7.024912566347476,13.546709455480812,0.40419082862507055,0.822915768826096,0.8879644052992952,224.10390064561568,0.0,stable,0.95,0.95,discounted,matched_iid,linear,oracle_clipped,0.0,0.0,0.17703396996333412,0.20787660390188667,oracle_exact_clipped
gamma_design,0.95,1.0,4000,0.05,0.1,misspecified_affine,4,linear_estimated_clipped_fqe,3.850053327975332,0.05789213099246845,9.514384883932001,0.24584935564057656,-13.858412004402082,-11.831586406340458,-2.026825598061624,2.026825598061624,4.108022004957859,10.541418213023679,0.1487409002552554,3.7237973991033573,0.15284630477343025,3.7325186649826465,0.06515828983867143,2.774171533635378,0.6948564719428412,1.0,1.2006823102750535,4.830734231205132,2.8505362266990413,3.4238132698300343,4.830642005589844,1638.2444831206421,0.40956112078016055,0.01,0.0,5.919526999193281,9.2928671813444,0.1740860762810181,1.1616054104796416,0.9560979983213871,214.66690747355688,0.0,stable,0.95,0.95,discounted,matched_iid,linear,linear_clipped,0.28742231948787933,-0.0011052904472523828,0.11937701575688299,0.14321463138636334,linear_reduced_moment
gamma_design,0.95,1.0,4000,0.05,0.1,misspecified_affine,4,linear_neural_weighted_clipped_fqe,39.43087799349424,0.8656105928186583,24.84808132964997,0.3845544410701269,-25.720066449087085,-11.831586406340458,-13.888480042746627,13.888480042746627,192.88987789777136,212.48963943530833,1.3574712039889352,30.366364365932352,0.707993807078904,38.280404084847135,0.9927399343216596,2.3578428477113467,1.8588928778449263,1.0,1.2247448711919278,5.445143729308372,2.919766518967986,3.8077042424534375,5.444895148805712,1600.0000003130035,0.4000000000782509,0.01,0.24658195488154894,6.408056778907769,13.122450008402064,0.10491927989432392,1.204526445523452,0.9763847468837238,186.99979430945453,0.0,stable,0.95,0.95,discounted,matched_iid,linear,neural_clipped,0.348172136724397,-0.060800069741988816,0.1016736979700514,0.16124807630337423,neural_positive_rkhs_moment
